(.../pcb-gcode-3.6.2.4/pcb-gcode.ulp)
(Copyright 2005 - 2012 by John Johnson)
(See readme.txt for licensing terms.)
(This file generated from the board:)
(.../eagle/RF Glow Stick/BLE Master.brd)
(Current profile is .../pcb-gcode-3.6.2.4/profiles/generic.pp  )
(This file generated 11/1/14 7:37 PM)
(Settings from pcb-machine.h)
(spindle on time = 3.0000)
(spindle speed = 15000.0000)
(tool change at 0.0000 0.0000 1.0000 )
(feed rate xy = F0.00  )
(feed rate z  = F4.00  )
(Z Axis Settings)
(  High     Up        Down     Drill)
(0.5000 	0.1000 	-0.0070 	-0.0670 )
(Settings from pcb-defaults.h)
(isolate min = 0.0010)
(isolate max = 0.0200)
(isolate step = 0.0050)
(Generated top outlines, top drill, )
(Unit of measure: inch)
( Tool|       Size       |  Min Sub |  Max Sub |   Count )
( T01  0.800mm 0.0315in 0.0000in 0.0000in )
( T02  1.000mm 0.0394in 0.0000in 0.0000in )
( T03  1.118mm 0.0440in 0.0000in 0.0000in )
( T04  1.300mm 0.0512in 0.0000in 0.0000in )
(Inch Mode)
G20
(Absolute Coordinates)
G90
TR,12000,1
'
'
'Turning router ON
SO,1,1
PAUSE 3
G00 Z0.500000 
G00 X0.000000 Y0.000000 
G00 Z0.100000
G00 X-0.200000 Y0.300000 
G01 Z-0.067000 F4.00  
G01 Z0.100000
(R0.1000  P1.000000)
G00 X-0.300000 Y0.300000 
G01 Z-0.067000
G01 Z0.100000
G00 X-0.400000 Y0.300000 
G01 Z-0.067000
G01 Z0.100000
G00 X-0.500000 Y0.300000 
G01 Z-0.067000
G01 Z0.100000
G00 X-0.600000 Y0.300000 
G01 Z-0.067000
G01 Z0.100000
G00 X-0.700000 Y0.300000 
G01 Z-0.067000
G01 Z0.100000
G00 X-0.800000 Y0.300000 
G01 Z-0.067000
G01 Z0.100000
G00 X-0.800000 Y0.400000 
G01 Z-0.067000
G01 Z0.100000
G00 X-0.800000 Y0.500000 
G01 Z-0.067000
G01 Z0.100000
G00 X-0.800000 Y0.600000 
G01 Z-0.067000
G01 Z0.100000
G00 X-0.800000 Y0.700000 
G01 Z-0.067000
G01 Z0.100000
G00 X-0.800000 Y0.800000 
G01 Z-0.067000
G01 Z0.100000
G00 X-0.800000 Y0.900000 
G01 Z-0.067000
G01 Z0.100000
G00 X-0.800000 Y1.000000 
G01 Z-0.067000
G01 Z0.100000
G00 X-0.800000 Y1.100000 
G01 Z-0.067000
G01 Z0.100000
G00 X-0.800000 Y1.200000 
G01 Z-0.067000
G01 Z0.100000
G00 X-0.800000 Y1.300000 
G01 Z-0.067000
G01 Z0.100000
G00 X-0.800000 Y1.400000 
G01 Z-0.067000
G01 Z0.100000
G00 X-1.250000 Y1.300000 
G01 Z-0.067000
G01 Z0.100000
G00 X-1.250000 Y1.200000 
G01 Z-0.067000
G01 Z0.100000
G00 X-1.250000 Y1.100000 
G01 Z-0.067000
G01 Z0.100000
G00 X-1.250000 Y1.000000 
G01 Z-0.067000
G01 Z0.100000
G00 X-1.250000 Y0.900000 
G01 Z-0.067000
G01 Z0.100000
G00 X-1.250000 Y0.800000 
G01 Z-0.067000
G01 Z0.100000
G00 X-1.250000 Y0.700000 
G01 Z-0.067000
G01 Z0.100000
G00 X-1.250000 Y0.600000 
G01 Z-0.067000
G01 Z0.100000
G00 X-1.250000 Y0.500000 
G01 Z-0.067000
G01 Z0.100000
G00 X-1.250000 Y0.400000 
G01 Z-0.067000
G01 Z0.100000
G00 X-0.200000 Y0.400000 
G01 Z-0.067000
G01 Z0.100000
G00 X-0.200000 Y0.500000 
G01 Z-0.067000
G01 Z0.100000
G00 X-0.200000 Y0.600000 
G01 Z-0.067000
G01 Z0.100000
G00 X-0.200000 Y0.700000 
G01 Z-0.067000
G01 Z0.100000
G00 X-0.200000 Y0.800000 
G01 Z-0.067000
G01 Z0.100000
G00 X-0.200000 Y0.900000 
G01 Z-0.067000
G01 Z0.100000
G00 X-0.200000 Y1.000000 
G01 Z-0.067000
G01 Z0.100000
G00 X-0.200000 Y1.100000 
G01 Z-0.067000
G01 Z0.100000
G00 X-0.200000 Y1.200000 
G01 Z-0.067000
G01 Z0.100000
G00 X-0.200000 Y1.300000 
G01 Z-0.067000
G01 Z0.100000
G00 X-0.200000 Y1.400000 
G01 Z-0.067000
G01 Z0.100000
G00 X-2.150000 Y0.250000 
G01 Z-0.067000 F4.00  
G01 Z0.100000
(R0.1000  P1.000000)
G00 X-2.150000 Y0.350000 
G01 Z-0.067000
G01 Z0.100000
G00 X-2.150000 Y0.450000 
G01 Z-0.067000
G01 Z0.100000
G00 X-2.150000 Y0.550000 
G01 Z-0.067000
G01 Z0.100000
G00 X-2.250000 Y0.800000 
G01 Z-0.067000 F4.00  
G01 Z0.100000
(R0.1000  P1.000000)
G00 X-2.250000 Y1.000000 
G01 Z-0.067000
G01 Z0.100000
G00 X-1.972000 Y1.500000 
G01 Z-0.067000 F4.00  
G01 Z0.100000
(R0.1000  P1.000000)
G00 X-2.228000 Y1.500000 
G01 Z-0.067000
G01 Z0.100000
G00 Z0.500000 
