(.../pcb-gcode-3.6.2.4/pcb-gcode.ulp)
(Copyright 2005 - 2012 by John Johnson)
(See readme.txt for licensing terms.)
(This file generated from the board:)
(.../eagle/RF Glow Stick/BLE Master.brd)
(Current profile is .../pcb-gcode-3.6.2.4/profiles/generic.pp  )
(This file generated 11/1/14 7:37 PM)
(Settings from pcb-machine.h)
(spindle on time = 3.0000)
(  Tool Size)
(0.0080 )
(spindle speed = 15000.0000)
(tool change at 0.0000 0.0000 1.0000 )
(feed rate xy = F10.00 )
(feed rate z  = F4.00  )
(Z Axis Settings)
(  High     Up        Down     Drill)
(0.5000 	0.1000 	-0.0070 	-0.0670 )
(Settings from pcb-defaults.h)
(isolate min = 0.0010)
(isolate max = 0.0200)
(isolate step = 0.0050)
(Generated top outlines, top drill, )
(Unit of measure: inch)
(Inch Mode)
G20
(Absolute Coordinates)
G90
TR,12000,1
'
'
'Turning router ON
SO,1,1
PAUSE 3
G00 Z0.5000 
G00 X0.0000 Y0.0000 
G00 Z0.1000 
G00 X0.3773 Y0.0402 
G01 Z-0.0070 F4.00  
G01 X0.3770 Y0.0405 F10.00 
G01 X0.3767 Y0.0409 
G01 X0.3753 Y0.0429 
G01 X0.2770 Y0.1805 
G01 X0.2767 Y0.1809 
G01 X0.2753 Y0.1829 
G01 X0.2739 Y0.1850 
G01 X0.2737 Y0.1854 
G01 X0.2734 Y0.1858 
G01 X0.2725 Y0.1881 
G01 X0.2714 Y0.1904 
G01 X0.2713 Y0.1908 
G01 X0.2712 Y0.1912 
G01 X0.2707 Y0.1937 
G01 X0.2701 Y0.1961 
G01 X0.2701 Y0.1966 
G01 X0.2700 Y0.1970 
G01 X0.2700 Y0.1995 
G01 X0.2699 Y0.2020 
G01 X0.2700 Y0.2025 
G01 X0.2700 Y0.2591 
G01 X0.2685 Y0.2627 
G01 X0.2673 Y0.2690 
G01 X0.2673 Y0.3310 
G01 X0.2685 Y0.3373 
G01 X0.2710 Y0.3433 
G01 X0.2746 Y0.3486 
G01 X0.2791 Y0.3532 
G01 X0.2845 Y0.3568 
G01 X0.2904 Y0.3592 
G01 X0.2968 Y0.3605 
G01 X0.3032 Y0.3605 
G01 X0.3096 Y0.3592 
G01 X0.3155 Y0.3568 
G01 X0.3209 Y0.3532 
G01 X0.3254 Y0.3486 
G01 X0.3290 Y0.3433 
G01 X0.3315 Y0.3373 
G01 X0.3327 Y0.3310 
G01 X0.3327 Y0.2690 
G01 X0.3315 Y0.2627 
G01 X0.3300 Y0.2591 
G01 X0.3300 Y0.2096 
G01 X0.4154 Y0.0900 
G01 X0.9365 Y0.0900 
G01 X1.1946 Y0.3825 
G01 X1.1932 Y0.3845 
G01 X1.1908 Y0.3904 
G01 X1.1895 Y0.3968 
G01 X1.1895 Y0.4032 
G01 X1.1908 Y0.4096 
G01 X1.1932 Y0.4155 
G01 X1.1968 Y0.4209 
G01 X1.2014 Y0.4254 
G01 X1.2067 Y0.4290 
G01 X1.2127 Y0.4315 
G01 X1.2190 Y0.4327 
G01 X1.2810 Y0.4327 
G01 X1.2873 Y0.4315 
G01 X1.2933 Y0.4290 
G01 X1.2986 Y0.4254 
G01 X1.3032 Y0.4209 
G01 X1.3068 Y0.4155 
G01 X1.3092 Y0.4096 
G01 X1.3105 Y0.4032 
G01 X1.3105 Y0.3968 
G01 X1.3092 Y0.3904 
G01 X1.3071 Y0.3853 
G01 X1.4044 Y0.2880 
G01 X2.1537 Y0.2880 
G01 X2.1604 Y0.2867 
G01 X2.1853 Y0.2867 
G01 X2.1924 Y0.2853 
G01 X2.1991 Y0.2825 
G01 X2.2051 Y0.2785 
G01 X2.2102 Y0.2734 
G01 X2.2142 Y0.2674 
G01 X2.2170 Y0.2607 
G01 X2.2184 Y0.2536 
G01 X2.2184 Y0.2464 
G01 X2.2170 Y0.2393 
G01 X2.2142 Y0.2326 
G01 X2.2102 Y0.2266 
G01 X2.2051 Y0.2215 
G01 X2.1991 Y0.2175 
G01 X2.1924 Y0.2147 
G01 X2.1853 Y0.2133 
G01 X2.1604 Y0.2133 
G01 X2.1537 Y0.2120 
G01 X1.3963 Y0.2120 
G01 X1.3889 Y0.2135 
G01 X1.3820 Y0.2163 
G01 X1.3758 Y0.2205 
G01 X1.3705 Y0.2258 
G01 X1.3663 Y0.2320 
G01 X1.3635 Y0.2389 
G01 X1.3622 Y0.2454 
G01 X1.2514 Y0.3562 
G01 X0.9738 Y0.0417 
G01 X0.9733 Y0.0409 
G01 X0.9719 Y0.0394 
G01 X0.9705 Y0.0379 
G01 X0.9698 Y0.0374 
G01 X0.9691 Y0.0367 
G01 X0.9674 Y0.0356 
G01 X0.9658 Y0.0344 
G01 X0.9650 Y0.0339 
G01 X0.9642 Y0.0334 
G01 X0.9623 Y0.0326 
G01 X0.9605 Y0.0318 
G01 X0.9596 Y0.0315 
G01 X0.9588 Y0.0312 
G01 X0.9568 Y0.0308 
G01 X0.9548 Y0.0302 
G01 X0.9539 Y0.0302 
G01 X0.9530 Y0.0300 
G01 X0.9509 Y0.0300 
G01 X0.9489 Y0.0299 
G01 X0.9480 Y0.0300 
G01 X0.4005 Y0.0300 
G01 X0.3980 Y0.0299 
G01 X0.3975 Y0.0300 
G01 X0.3970 Y0.0300 
G01 X0.3946 Y0.0305 
G01 X0.3922 Y0.0309 
G01 X0.3917 Y0.0311 
G01 X0.3912 Y0.0312 
G01 X0.3890 Y0.0321 
G01 X0.3866 Y0.0330 
G01 X0.3862 Y0.0332 
G01 X0.3858 Y0.0334 
G01 X0.3837 Y0.0348 
G01 X0.3816 Y0.0361 
G01 X0.3813 Y0.0364 
G01 X0.3809 Y0.0367 
G01 X0.3791 Y0.0385 
G01 X0.3773 Y0.0402 
G00 Z0.1000 
G00 X0.4281 Y0.1293 
G01 Z-0.0070 F4.00  
G01 X0.4275 Y0.1301 F10.00 
G01 X0.4267 Y0.1309 
G01 X0.4256 Y0.1324 
G01 X0.4245 Y0.1339 
G01 X0.4240 Y0.1349 
G01 X0.4234 Y0.1358 
G01 X0.4227 Y0.1375 
G01 X0.3740 Y0.2349 
G01 X0.3734 Y0.2358 
G01 X0.3727 Y0.2375 
G01 X0.3718 Y0.2392 
G01 X0.3716 Y0.2403 
G01 X0.3712 Y0.2412 
G01 X0.3708 Y0.2431 
G01 X0.3703 Y0.2449 
G01 X0.3702 Y0.2460 
G01 X0.3700 Y0.2470 
G01 X0.3700 Y0.2489 
G01 X0.3699 Y0.2508 
G01 X0.3700 Y0.2519 
G01 X0.3700 Y0.2591 
G01 X0.3685 Y0.2627 
G01 X0.3673 Y0.2690 
G01 X0.3673 Y0.3310 
G01 X0.3685 Y0.3373 
G01 X0.3710 Y0.3433 
G01 X0.3746 Y0.3486 
G01 X0.3791 Y0.3532 
G01 X0.3845 Y0.3568 
G01 X0.3904 Y0.3592 
G01 X0.3968 Y0.3605 
G01 X0.4032 Y0.3605 
G01 X0.4096 Y0.3592 
G01 X0.4155 Y0.3568 
G01 X0.4209 Y0.3532 
G01 X0.4254 Y0.3486 
G01 X0.4290 Y0.3433 
G01 X0.4315 Y0.3373 
G01 X0.4327 Y0.3310 
G01 X0.4327 Y0.2690 
G01 X0.4315 Y0.2627 
G01 X0.4300 Y0.2591 
G01 X0.4300 Y0.2571 
G01 X0.4685 Y0.1800 
G01 X0.8846 Y0.1800 
G01 X1.1253 Y0.5171 
G01 X1.1267 Y0.5191 
G01 X1.1270 Y0.5195 
G01 X1.1273 Y0.5198 
G01 X1.1291 Y0.5215 
G01 X1.1309 Y0.5233 
G01 X1.1313 Y0.5236 
G01 X1.1316 Y0.5239 
G01 X1.1337 Y0.5252 
G01 X1.1358 Y0.5266 
G01 X1.1362 Y0.5268 
G01 X1.1366 Y0.5270 
G01 X1.1390 Y0.5279 
G01 X1.1412 Y0.5288 
G01 X1.1417 Y0.5289 
G01 X1.1422 Y0.5291 
G01 X1.1446 Y0.5295 
G01 X1.1470 Y0.5300 
G01 X1.1475 Y0.5300 
G01 X1.1480 Y0.5301 
G01 X1.1505 Y0.5300 
G01 X1.2091 Y0.5300 
G01 X1.2127 Y0.5315 
G01 X1.2190 Y0.5327 
G01 X1.2270 Y0.5327 
G01 X1.2311 Y0.5354 
G01 X1.2383 Y0.5385 
G01 X1.2461 Y0.5400 
G01 X1.6950 Y0.5400 
G01 X1.6950 Y1.2252 
G01 X1.6948 Y1.2267 
G01 X1.6950 Y1.2295 
G01 X1.6950 Y1.2323 
G01 X1.6952 Y1.2338 
G01 X1.6953 Y1.2354 
G01 X1.6959 Y1.2381 
G01 X1.6964 Y1.2408 
G01 X1.6968 Y1.2423 
G01 X1.6972 Y1.2438 
G01 X1.6982 Y1.2464 
G01 X1.6990 Y1.2491 
G01 X1.6997 Y1.2504 
G01 X1.7003 Y1.2519 
G01 X1.7017 Y1.2543 
G01 X1.7030 Y1.2568 
G01 X1.7039 Y1.2580 
G01 X1.7047 Y1.2594 
G01 X1.7064 Y1.2615 
G01 X1.7080 Y1.2638 
G01 X1.7091 Y1.2649 
G01 X1.8917 Y1.4886 
G01 X1.8913 Y1.4898 
G01 X1.8903 Y1.4966 
G01 X1.8903 Y1.5034 
G01 X1.8913 Y1.5102 
G01 X1.8935 Y1.5167 
G01 X1.8966 Y1.5227 
G01 X1.9006 Y1.5283 
G01 X1.9054 Y1.5331 
G01 X1.9109 Y1.5371 
G01 X1.9170 Y1.5402 
G01 X1.9235 Y1.5423 
G01 X1.9302 Y1.5434 
G01 X1.9381 Y1.5434 
G01 X1.9386 Y1.5439 
G01 X1.9459 Y1.5486 
G01 X1.9538 Y1.5521 
G01 X1.9622 Y1.5543 
G01 X1.9708 Y1.5552 
G01 X1.9795 Y1.5547 
G01 X1.9879 Y1.5528 
G01 X1.9960 Y1.5497 
G01 X2.0035 Y1.5453 
G01 X2.0059 Y1.5434 
G01 X2.0138 Y1.5434 
G01 X2.0206 Y1.5423 
G01 X2.0271 Y1.5402 
G01 X2.0332 Y1.5371 
G01 X2.0387 Y1.5331 
G01 X2.0435 Y1.5283 
G01 X2.0475 Y1.5227 
G01 X2.0506 Y1.5167 
G01 X2.0528 Y1.5102 
G01 X2.0538 Y1.5034 
G01 X2.0538 Y1.4966 
G01 X2.0528 Y1.4898 
G01 X2.0506 Y1.4833 
G01 X2.0475 Y1.4773 
G01 X2.0435 Y1.4717 
G01 X2.0387 Y1.4669 
G01 X2.0332 Y1.4629 
G01 X2.0271 Y1.4598 
G01 X2.0206 Y1.4577 
G01 X2.0138 Y1.4566 
G01 X2.0076 Y1.4566 
G01 X1.8050 Y1.2084 
G01 X1.8050 Y0.5400 
G01 X1.9039 Y0.5400 
G01 X1.9117 Y0.5385 
G01 X1.9189 Y0.5354 
G01 X1.9255 Y0.5311 
G01 X1.9311 Y0.5255 
G01 X1.9354 Y0.5189 
G01 X1.9359 Y0.5178 
G01 X2.0657 Y0.3880 
G01 X2.1537 Y0.3880 
G01 X2.1604 Y0.3867 
G01 X2.1853 Y0.3867 
G01 X2.1924 Y0.3853 
G01 X2.1991 Y0.3825 
G01 X2.2051 Y0.3785 
G01 X2.2102 Y0.3734 
G01 X2.2142 Y0.3674 
G01 X2.2170 Y0.3607 
G01 X2.2184 Y0.3536 
G01 X2.2184 Y0.3464 
G01 X2.2170 Y0.3393 
G01 X2.2142 Y0.3326 
G01 X2.2102 Y0.3266 
G01 X2.2051 Y0.3215 
G01 X2.1991 Y0.3175 
G01 X2.1924 Y0.3147 
G01 X2.1853 Y0.3133 
G01 X2.1604 Y0.3133 
G01 X2.1537 Y0.3120 
G01 X2.0463 Y0.3120 
G01 X2.0389 Y0.3135 
G01 X2.0320 Y0.3163 
G01 X2.0258 Y0.3205 
G01 X1.8863 Y0.4600 
G01 X1.7878 Y0.4600 
G01 X1.7858 Y0.4580 
G01 X1.7788 Y0.4530 
G01 X1.7711 Y0.4490 
G01 X1.7629 Y0.4464 
G01 X1.7543 Y0.4450 
G01 X1.7457 Y0.4450 
G01 X1.7371 Y0.4464 
G01 X1.7289 Y0.4490 
G01 X1.7212 Y0.4530 
G01 X1.7142 Y0.4580 
G01 X1.7122 Y0.4600 
G01 X1.2461 Y0.4600 
G01 X1.2383 Y0.4615 
G01 X1.2311 Y0.4646 
G01 X1.2270 Y0.4673 
G01 X1.2190 Y0.4673 
G01 X1.2127 Y0.4685 
G01 X1.2091 Y0.4700 
G01 X1.1654 Y0.4700 
G01 X0.9247 Y0.1329 
G01 X0.9233 Y0.1309 
G01 X0.9230 Y0.1305 
G01 X0.9227 Y0.1302 
G01 X0.9209 Y0.1285 
G01 X0.9191 Y0.1267 
G01 X0.9187 Y0.1264 
G01 X0.9184 Y0.1261 
G01 X0.9163 Y0.1248 
G01 X0.9142 Y0.1234 
G01 X0.9138 Y0.1232 
G01 X0.9134 Y0.1230 
G01 X0.9110 Y0.1221 
G01 X0.9088 Y0.1212 
G01 X0.9083 Y0.1211 
G01 X0.9078 Y0.1209 
G01 X0.9054 Y0.1205 
G01 X0.9030 Y0.1200 
G01 X0.9025 Y0.1200 
G01 X0.9020 Y0.1199 
G01 X0.8995 Y0.1200 
G01 X0.4511 Y0.1200 
G01 X0.4492 Y0.1199 
G01 X0.4481 Y0.1200 
G01 X0.4470 Y0.1200 
G01 X0.4452 Y0.1204 
G01 X0.4433 Y0.1206 
G01 X0.4423 Y0.1209 
G01 X0.4412 Y0.1212 
G01 X0.4395 Y0.1219 
G01 X0.4377 Y0.1225 
G01 X0.4368 Y0.1230 
G01 X0.4358 Y0.1234 
G01 X0.4342 Y0.1245 
G01 X0.4326 Y0.1254 
G01 X0.4318 Y0.1261 
G01 X0.4309 Y0.1267 
G01 X0.4295 Y0.1280 
G01 X0.4281 Y0.1293 
G00 Z0.1000 
G00 X0.4746 Y0.2514 
G01 Z-0.0070 F4.00  
G01 X0.4710 Y0.2567 F10.00 
G01 X0.4685 Y0.2627 
G01 X0.4673 Y0.2690 
G01 X0.4673 Y0.3310 
G01 X0.4685 Y0.3373 
G01 X0.4690 Y0.3385 
G01 X0.3767 Y0.4309 
G01 X0.3734 Y0.4358 
G01 X0.3712 Y0.4412 
G01 X0.3700 Y0.4470 
G01 X0.3700 Y1.7030 
G01 X0.3712 Y1.7088 
G01 X0.3734 Y1.7142 
G01 X0.3767 Y1.7191 
G01 X0.3809 Y1.7233 
G01 X0.3858 Y1.7266 
G01 X0.3912 Y1.7288 
G01 X0.3970 Y1.7300 
G01 X1.0992 Y1.7300 
G01 X1.1013 Y1.7301 
G01 X1.1021 Y1.7300 
G01 X1.1030 Y1.7300 
G01 X1.1051 Y1.7296 
G01 X1.1072 Y1.7293 
G01 X1.1079 Y1.7290 
G01 X1.1088 Y1.7288 
G01 X1.1107 Y1.7280 
G01 X1.1127 Y1.7273 
G01 X1.1135 Y1.7269 
G01 X1.1142 Y1.7266 
G01 X1.1160 Y1.7254 
G01 X1.1178 Y1.7243 
G01 X1.1184 Y1.7238 
G01 X1.1191 Y1.7233 
G01 X1.1206 Y1.7218 
G01 X1.1222 Y1.7204 
G01 X1.1227 Y1.7197 
G01 X1.1233 Y1.7191 
G01 X1.1245 Y1.7173 
G01 X1.2727 Y1.5197 
G01 X1.2733 Y1.5191 
G01 X1.2745 Y1.5173 
G01 X1.2758 Y1.5156 
G01 X1.2761 Y1.5149 
G01 X1.2766 Y1.5142 
G01 X1.2774 Y1.5122 
G01 X1.2783 Y1.5103 
G01 X1.2785 Y1.5095 
G01 X1.2788 Y1.5088 
G01 X1.2793 Y1.5067 
G01 X1.2798 Y1.5046 
G01 X1.2798 Y1.5038 
G01 X1.2800 Y1.5030 
G01 X1.2800 Y1.5008 
G01 X1.2801 Y1.4987 
G01 X1.2800 Y1.4979 
G01 X1.2800 Y1.3327 
G01 X1.2810 Y1.3327 
G01 X1.2873 Y1.3315 
G01 X1.2933 Y1.3290 
G01 X1.2986 Y1.3254 
G01 X1.3032 Y1.3209 
G01 X1.3068 Y1.3155 
G01 X1.3092 Y1.3096 
G01 X1.3105 Y1.3032 
G01 X1.3105 Y1.2968 
G01 X1.3092 Y1.2904 
G01 X1.3068 Y1.2845 
G01 X1.3032 Y1.2791 
G01 X1.2986 Y1.2746 
G01 X1.2933 Y1.2710 
G01 X1.2873 Y1.2685 
G01 X1.2810 Y1.2673 
G01 X1.2190 Y1.2673 
G01 X1.2127 Y1.2685 
G01 X1.2067 Y1.2710 
G01 X1.2014 Y1.2746 
G01 X1.1968 Y1.2791 
G01 X1.1932 Y1.2845 
G01 X1.1908 Y1.2904 
G01 X1.1895 Y1.2968 
G01 X1.1895 Y1.3032 
G01 X1.1908 Y1.3096 
G01 X1.1932 Y1.3155 
G01 X1.1968 Y1.3209 
G01 X1.2014 Y1.3254 
G01 X1.2067 Y1.3290 
G01 X1.2127 Y1.3315 
G01 X1.2190 Y1.3327 
G01 X1.2200 Y1.3327 
G01 X1.2200 Y1.4900 
G01 X1.0850 Y1.6700 
G01 X0.4300 Y1.6700 
G01 X0.4300 Y0.4624 
G01 X0.5191 Y0.3733 
G01 X0.5233 Y0.3691 
G01 X0.5266 Y0.3642 
G01 X0.5288 Y0.3588 
G01 X0.5300 Y0.3530 
G01 X0.5300 Y0.3409 
G01 X0.5315 Y0.3373 
G01 X0.5327 Y0.3310 
G01 X0.5327 Y0.2690 
G01 X0.5315 Y0.2627 
G01 X0.5290 Y0.2567 
G01 X0.5254 Y0.2514 
G01 X0.5209 Y0.2468 
G01 X0.5155 Y0.2432 
G01 X0.5096 Y0.2408 
G01 X0.5032 Y0.2395 
G01 X0.4968 Y0.2395 
G01 X0.4904 Y0.2408 
G01 X0.4845 Y0.2432 
G01 X0.4791 Y0.2468 
G01 X0.4746 Y0.2514 
G00 Z0.1000 
G00 X0.5746 Y0.2514 
G01 Z-0.0070 F4.00  
G01 X0.5710 Y0.2567 F10.00 
G01 X0.5685 Y0.2627 
G01 X0.5673 Y0.2690 
G01 X0.5673 Y0.3310 
G01 X0.5685 Y0.3373 
G01 X0.5700 Y0.3409 
G01 X0.5700 Y0.3429 
G01 X0.5240 Y0.4349 
G01 X0.5234 Y0.4358 
G01 X0.5227 Y0.4375 
G01 X0.5218 Y0.4392 
G01 X0.5216 Y0.4403 
G01 X0.5212 Y0.4412 
G01 X0.5208 Y0.4431 
G01 X0.5203 Y0.4449 
G01 X0.5202 Y0.4460 
G01 X0.5200 Y0.4470 
G01 X0.5200 Y0.4489 
G01 X0.5199 Y0.4508 
G01 X0.5200 Y0.4519 
G01 X0.5200 Y1.6030 
G01 X0.5212 Y1.6088 
G01 X0.5234 Y1.6142 
G01 X0.5267 Y1.6191 
G01 X0.5309 Y1.6233 
G01 X0.5358 Y1.6266 
G01 X0.5412 Y1.6288 
G01 X0.5470 Y1.6300 
G01 X1.0489 Y1.6300 
G01 X1.0508 Y1.6301 
G01 X1.0519 Y1.6300 
G01 X1.0530 Y1.6300 
G01 X1.0548 Y1.6296 
G01 X1.0567 Y1.6294 
G01 X1.0577 Y1.6291 
G01 X1.0588 Y1.6288 
G01 X1.0605 Y1.6281 
G01 X1.0623 Y1.6275 
G01 X1.0632 Y1.6270 
G01 X1.0642 Y1.6266 
G01 X1.0658 Y1.6255 
G01 X1.0674 Y1.6246 
G01 X1.0682 Y1.6239 
G01 X1.0691 Y1.6233 
G01 X1.0705 Y1.6220 
G01 X1.0719 Y1.6207 
G01 X1.0725 Y1.6199 
G01 X1.0733 Y1.6191 
G01 X1.0744 Y1.6176 
G01 X1.0755 Y1.6161 
G01 X1.0760 Y1.6151 
G01 X1.0766 Y1.6142 
G01 X1.0773 Y1.6125 
G01 X1.1260 Y1.5151 
G01 X1.1266 Y1.5142 
G01 X1.1273 Y1.5125 
G01 X1.1282 Y1.5108 
G01 X1.1284 Y1.5097 
G01 X1.1288 Y1.5088 
G01 X1.1292 Y1.5069 
G01 X1.1297 Y1.5051 
G01 X1.1298 Y1.5040 
G01 X1.1300 Y1.5030 
G01 X1.1300 Y1.5011 
G01 X1.1301 Y1.4992 
G01 X1.1300 Y1.4981 
G01 X1.1300 Y1.2624 
G01 X1.1624 Y1.2300 
G01 X1.2091 Y1.2300 
G01 X1.2127 Y1.2315 
G01 X1.2190 Y1.2327 
G01 X1.2810 Y1.2327 
G01 X1.2873 Y1.2315 
G01 X1.2933 Y1.2290 
G01 X1.2986 Y1.2254 
G01 X1.3032 Y1.2209 
G01 X1.3068 Y1.2155 
G01 X1.3092 Y1.2096 
G01 X1.3105 Y1.2032 
G01 X1.3105 Y1.1968 
G01 X1.3092 Y1.1904 
G01 X1.3068 Y1.1845 
G01 X1.3032 Y1.1791 
G01 X1.2986 Y1.1746 
G01 X1.2933 Y1.1710 
G01 X1.2873 Y1.1685 
G01 X1.2810 Y1.1673 
G01 X1.2190 Y1.1673 
G01 X1.2127 Y1.1685 
G01 X1.2091 Y1.1700 
G01 X1.1470 Y1.1700 
G01 X1.1412 Y1.1712 
G01 X1.1358 Y1.1734 
G01 X1.1309 Y1.1767 
G01 X1.0809 Y1.2267 
G01 X1.0767 Y1.2309 
G01 X1.0734 Y1.2358 
G01 X1.0712 Y1.2412 
G01 X1.0700 Y1.2470 
G01 X1.0700 Y1.4929 
G01 X1.0315 Y1.5700 
G01 X0.5800 Y1.5700 
G01 X0.5800 Y0.4571 
G01 X0.6260 Y0.3651 
G01 X0.6266 Y0.3642 
G01 X0.6273 Y0.3625 
G01 X0.6282 Y0.3608 
G01 X0.6284 Y0.3597 
G01 X0.6288 Y0.3588 
G01 X0.6292 Y0.3569 
G01 X0.6297 Y0.3551 
G01 X0.6298 Y0.3540 
G01 X0.6300 Y0.3530 
G01 X0.6300 Y0.3511 
G01 X0.6301 Y0.3492 
G01 X0.6300 Y0.3481 
G01 X0.6300 Y0.3409 
G01 X0.6315 Y0.3373 
G01 X0.6327 Y0.3310 
G01 X0.6327 Y0.2690 
G01 X0.6315 Y0.2627 
G01 X0.6290 Y0.2567 
G01 X0.6254 Y0.2514 
G01 X0.6209 Y0.2468 
G01 X0.6155 Y0.2432 
G01 X0.6096 Y0.2408 
G01 X0.6032 Y0.2395 
G01 X0.5968 Y0.2395 
G01 X0.5904 Y0.2408 
G01 X0.5845 Y0.2432 
G01 X0.5791 Y0.2468 
G01 X0.5746 Y0.2514 
G00 Z0.1000 
G00 X0.6746 Y0.2514 
G01 Z-0.0070 F4.00  
G01 X0.6710 Y0.2567 F10.00 
G01 X0.6685 Y0.2627 
G01 X0.6673 Y0.2690 
G01 X0.6673 Y0.3073 
G01 X0.6214 Y0.4906 
G01 X0.6212 Y0.4912 
G01 X0.6207 Y0.4934 
G01 X0.6202 Y0.4956 
G01 X0.6201 Y0.4963 
G01 X0.6200 Y0.4970 
G01 X0.6200 Y0.4993 
G01 X0.6199 Y0.5015 
G01 X0.6200 Y0.5022 
G01 X0.6200 Y1.5030 
G01 X0.6212 Y1.5088 
G01 X0.6234 Y1.5142 
G01 X0.6267 Y1.5191 
G01 X0.6309 Y1.5233 
G01 X0.6358 Y1.5266 
G01 X0.6412 Y1.5288 
G01 X0.6470 Y1.5300 
G01 X0.9530 Y1.5300 
G01 X0.9588 Y1.5288 
G01 X0.9642 Y1.5266 
G01 X0.9691 Y1.5233 
G01 X0.9733 Y1.5191 
G01 X1.0233 Y1.4691 
G01 X1.0266 Y1.4642 
G01 X1.0288 Y1.4588 
G01 X1.0300 Y1.4530 
G01 X1.0300 Y1.2124 
G01 X1.1124 Y1.1300 
G01 X1.2091 Y1.1300 
G01 X1.2127 Y1.1315 
G01 X1.2190 Y1.1327 
G01 X1.2810 Y1.1327 
G01 X1.2873 Y1.1315 
G01 X1.2933 Y1.1290 
G01 X1.2986 Y1.1254 
G01 X1.3032 Y1.1209 
G01 X1.3068 Y1.1155 
G01 X1.3092 Y1.1096 
G01 X1.3105 Y1.1032 
G01 X1.3105 Y1.0968 
G01 X1.3092 Y1.0904 
G01 X1.3068 Y1.0845 
G01 X1.3032 Y1.0791 
G01 X1.2986 Y1.0746 
G01 X1.2933 Y1.0710 
G01 X1.2873 Y1.0685 
G01 X1.2810 Y1.0673 
G01 X1.2190 Y1.0673 
G01 X1.2127 Y1.0685 
G01 X1.2091 Y1.0700 
G01 X1.0970 Y1.0700 
G01 X1.0912 Y1.0712 
G01 X1.0858 Y1.0734 
G01 X1.0809 Y1.0767 
G01 X0.9809 Y1.1767 
G01 X0.9767 Y1.1809 
G01 X0.9734 Y1.1858 
G01 X0.9712 Y1.1912 
G01 X0.9700 Y1.1970 
G01 X0.9700 Y1.4376 
G01 X0.9376 Y1.4700 
G01 X0.6800 Y1.4700 
G01 X0.6800 Y0.5037 
G01 X0.7170 Y0.3558 
G01 X0.7209 Y0.3532 
G01 X0.7254 Y0.3486 
G01 X0.7290 Y0.3433 
G01 X0.7315 Y0.3373 
G01 X0.7327 Y0.3310 
G01 X0.7327 Y0.2690 
G01 X0.7315 Y0.2627 
G01 X0.7290 Y0.2567 
G01 X0.7254 Y0.2514 
G01 X0.7209 Y0.2468 
G01 X0.7155 Y0.2432 
G01 X0.7096 Y0.2408 
G01 X0.7032 Y0.2395 
G01 X0.6968 Y0.2395 
G01 X0.6904 Y0.2408 
G01 X0.6845 Y0.2432 
G01 X0.6791 Y0.2468 
G01 X0.6746 Y0.2514 
G00 Z0.1000 
G00 X0.7600 Y0.2834 
G01 Z-0.0070 F4.00  
G01 X0.7600 Y0.3166 F10.00 
G01 X0.7834 Y0.3400 
G01 X0.8166 Y0.3400 
G01 X0.8400 Y0.3166 
G01 X0.8400 Y0.2834 
G01 X0.8166 Y0.2600 
G01 X0.7834 Y0.2600 
G01 X0.7600 Y0.2834 
G00 Z0.1000 
G00 X0.7627 Y0.3685 
G01 Z-0.0070 F4.00  
G01 X0.7567 Y0.3710 F10.00 
G01 X0.7514 Y0.3746 
G01 X0.7468 Y0.3791 
G01 X0.7432 Y0.3845 
G01 X0.7408 Y0.3904 
G01 X0.7395 Y0.3968 
G01 X0.7395 Y0.4032 
G01 X0.7408 Y0.4096 
G01 X0.7432 Y0.4155 
G01 X0.7468 Y0.4209 
G01 X0.7514 Y0.4254 
G01 X0.7567 Y0.4290 
G01 X0.7627 Y0.4315 
G01 X0.7690 Y0.4327 
G01 X0.8310 Y0.4327 
G01 X0.8373 Y0.4315 
G01 X0.8433 Y0.4290 
G01 X0.8486 Y0.4254 
G01 X0.8532 Y0.4209 
G01 X0.8568 Y0.4155 
G01 X0.8592 Y0.4096 
G01 X0.8605 Y0.4032 
G01 X0.8605 Y0.3968 
G01 X0.8592 Y0.3904 
G01 X0.8568 Y0.3845 
G01 X0.8532 Y0.3791 
G01 X0.8486 Y0.3746 
G01 X0.8433 Y0.3710 
G01 X0.8373 Y0.3685 
G01 X0.8310 Y0.3673 
G01 X0.7690 Y0.3673 
G01 X0.7627 Y0.3685 
G00 Z0.1000 
G00 X0.7627 Y0.4685 
G01 Z-0.0070 F4.00  
G01 X0.7567 Y0.4710 F10.00 
G01 X0.7514 Y0.4746 
G01 X0.7468 Y0.4791 
G01 X0.7432 Y0.4845 
G01 X0.7408 Y0.4904 
G01 X0.7395 Y0.4968 
G01 X0.7395 Y0.5032 
G01 X0.7408 Y0.5096 
G01 X0.7432 Y0.5155 
G01 X0.7468 Y0.5209 
G01 X0.7514 Y0.5254 
G01 X0.7567 Y0.5290 
G01 X0.7627 Y0.5315 
G01 X0.7690 Y0.5327 
G01 X0.8310 Y0.5327 
G01 X0.8373 Y0.5315 
G01 X0.8433 Y0.5290 
G01 X0.8486 Y0.5254 
G01 X0.8532 Y0.5209 
G01 X0.8568 Y0.5155 
G01 X0.8592 Y0.5096 
G01 X0.8605 Y0.5032 
G01 X0.8605 Y0.4968 
G01 X0.8592 Y0.4904 
G01 X0.8568 Y0.4845 
G01 X0.8532 Y0.4791 
G01 X0.8486 Y0.4746 
G01 X0.8433 Y0.4710 
G01 X0.8373 Y0.4685 
G01 X0.8310 Y0.4673 
G01 X0.7690 Y0.4673 
G01 X0.7627 Y0.4685 
G00 Z0.1000 
G00 X0.7627 Y0.5685 
G01 Z-0.0070 F4.00  
G01 X0.7567 Y0.5710 F10.00 
G01 X0.7514 Y0.5746 
G01 X0.7468 Y0.5791 
G01 X0.7432 Y0.5845 
G01 X0.7408 Y0.5904 
G01 X0.7395 Y0.5968 
G01 X0.7395 Y0.6032 
G01 X0.7408 Y0.6096 
G01 X0.7432 Y0.6155 
G01 X0.7468 Y0.6209 
G01 X0.7514 Y0.6254 
G01 X0.7567 Y0.6290 
G01 X0.7627 Y0.6315 
G01 X0.7690 Y0.6327 
G01 X0.8310 Y0.6327 
G01 X0.8373 Y0.6315 
G01 X0.8433 Y0.6290 
G01 X0.8486 Y0.6254 
G01 X0.8532 Y0.6209 
G01 X0.8568 Y0.6155 
G01 X0.8592 Y0.6096 
G01 X0.8605 Y0.6032 
G01 X0.8605 Y0.5968 
G01 X0.8592 Y0.5904 
G01 X0.8568 Y0.5845 
G01 X0.8532 Y0.5791 
G01 X0.8486 Y0.5746 
G01 X0.8433 Y0.5710 
G01 X0.8373 Y0.5685 
G01 X0.8310 Y0.5673 
G01 X0.7690 Y0.5673 
G01 X0.7627 Y0.5685 
G00 Z0.1000 
G00 X0.7627 Y0.6685 
G01 Z-0.0070 F4.00  
G01 X0.7567 Y0.6710 F10.00 
G01 X0.7514 Y0.6746 
G01 X0.7468 Y0.6791 
G01 X0.7432 Y0.6845 
G01 X0.7408 Y0.6904 
G01 X0.7395 Y0.6968 
G01 X0.7395 Y0.7032 
G01 X0.7408 Y0.7096 
G01 X0.7432 Y0.7155 
G01 X0.7468 Y0.7209 
G01 X0.7514 Y0.7254 
G01 X0.7567 Y0.7290 
G01 X0.7627 Y0.7315 
G01 X0.7690 Y0.7327 
G01 X0.8310 Y0.7327 
G01 X0.8373 Y0.7315 
G01 X0.8433 Y0.7290 
G01 X0.8486 Y0.7254 
G01 X0.8532 Y0.7209 
G01 X0.8568 Y0.7155 
G01 X0.8592 Y0.7096 
G01 X0.8605 Y0.7032 
G01 X0.8605 Y0.6968 
G01 X0.8592 Y0.6904 
G01 X0.8568 Y0.6845 
G01 X0.8532 Y0.6791 
G01 X0.8486 Y0.6746 
G01 X0.8433 Y0.6710 
G01 X0.8373 Y0.6685 
G01 X0.8310 Y0.6673 
G01 X0.7690 Y0.6673 
G01 X0.7627 Y0.6685 
G00 Z0.1000 
G00 X0.7627 Y0.7685 
G01 Z-0.0070 F4.00  
G01 X0.7567 Y0.7710 F10.00 
G01 X0.7514 Y0.7746 
G01 X0.7468 Y0.7791 
G01 X0.7432 Y0.7845 
G01 X0.7408 Y0.7904 
G01 X0.7395 Y0.7968 
G01 X0.7395 Y0.8032 
G01 X0.7408 Y0.8096 
G01 X0.7432 Y0.8155 
G01 X0.7468 Y0.8209 
G01 X0.7514 Y0.8254 
G01 X0.7567 Y0.8290 
G01 X0.7627 Y0.8315 
G01 X0.7690 Y0.8327 
G01 X0.8310 Y0.8327 
G01 X0.8373 Y0.8315 
G01 X0.8409 Y0.8300 
G01 X0.9376 Y0.8300 
G01 X1.0309 Y0.9233 
G01 X1.0358 Y0.9266 
G01 X1.0412 Y0.9288 
G01 X1.0470 Y0.9300 
G01 X1.2091 Y0.9300 
G01 X1.2127 Y0.9315 
G01 X1.2190 Y0.9327 
G01 X1.2810 Y0.9327 
G01 X1.2873 Y0.9315 
G01 X1.2933 Y0.9290 
G01 X1.2986 Y0.9254 
G01 X1.3032 Y0.9209 
G01 X1.3068 Y0.9155 
G01 X1.3092 Y0.9096 
G01 X1.3105 Y0.9032 
G01 X1.3105 Y0.8968 
G01 X1.3092 Y0.8904 
G01 X1.3068 Y0.8845 
G01 X1.3032 Y0.8791 
G01 X1.2986 Y0.8746 
G01 X1.2933 Y0.8710 
G01 X1.2873 Y0.8685 
G01 X1.2810 Y0.8673 
G01 X1.2190 Y0.8673 
G01 X1.2127 Y0.8685 
G01 X1.2091 Y0.8700 
G01 X1.0624 Y0.8700 
G01 X0.9733 Y0.7809 
G01 X0.9691 Y0.7767 
G01 X0.9642 Y0.7734 
G01 X0.9588 Y0.7712 
G01 X0.9530 Y0.7700 
G01 X0.8409 Y0.7700 
G01 X0.8373 Y0.7685 
G01 X0.8310 Y0.7673 
G01 X0.7690 Y0.7673 
G01 X0.7627 Y0.7685 
G00 Z0.1000 
G00 X0.7627 Y0.8685 
G01 Z-0.0070 F4.00  
G01 X0.7567 Y0.8710 F10.00 
G01 X0.7514 Y0.8746 
G01 X0.7468 Y0.8791 
G01 X0.7432 Y0.8845 
G01 X0.7408 Y0.8904 
G01 X0.7395 Y0.8968 
G01 X0.7395 Y0.9032 
G01 X0.7408 Y0.9096 
G01 X0.7432 Y0.9155 
G01 X0.7468 Y0.9209 
G01 X0.7514 Y0.9254 
G01 X0.7567 Y0.9290 
G01 X0.7627 Y0.9315 
G01 X0.7690 Y0.9327 
G01 X0.8310 Y0.9327 
G01 X0.8373 Y0.9315 
G01 X0.8409 Y0.9300 
G01 X0.8876 Y0.9300 
G01 X0.9809 Y1.0233 
G01 X0.9858 Y1.0266 
G01 X0.9912 Y1.0288 
G01 X0.9970 Y1.0300 
G01 X1.2091 Y1.0300 
G01 X1.2127 Y1.0315 
G01 X1.2190 Y1.0327 
G01 X1.2810 Y1.0327 
G01 X1.2873 Y1.0315 
G01 X1.2933 Y1.0290 
G01 X1.2986 Y1.0254 
G01 X1.3032 Y1.0209 
G01 X1.3068 Y1.0155 
G01 X1.3092 Y1.0096 
G01 X1.3105 Y1.0032 
G01 X1.3105 Y0.9968 
G01 X1.3092 Y0.9904 
G01 X1.3068 Y0.9845 
G01 X1.3032 Y0.9791 
G01 X1.2986 Y0.9746 
G01 X1.2933 Y0.9710 
G01 X1.2873 Y0.9685 
G01 X1.2810 Y0.9673 
G01 X1.2190 Y0.9673 
G01 X1.2127 Y0.9685 
G01 X1.2091 Y0.9700 
G01 X1.0124 Y0.9700 
G01 X0.9233 Y0.8809 
G01 X0.9191 Y0.8767 
G01 X0.9142 Y0.8734 
G01 X0.9088 Y0.8712 
G01 X0.9030 Y0.8700 
G01 X0.8409 Y0.8700 
G01 X0.8373 Y0.8685 
G01 X0.8310 Y0.8673 
G01 X0.7690 Y0.8673 
G01 X0.7627 Y0.8685 
G00 Z0.1000 
G00 X0.7627 Y0.9685 
G01 Z-0.0070 F4.00  
G01 X0.7567 Y0.9710 F10.00 
G01 X0.7514 Y0.9746 
G01 X0.7468 Y0.9791 
G01 X0.7432 Y0.9845 
G01 X0.7408 Y0.9904 
G01 X0.7395 Y0.9968 
G01 X0.7395 Y1.0032 
G01 X0.7408 Y1.0096 
G01 X0.7432 Y1.0155 
G01 X0.7468 Y1.0209 
G01 X0.7514 Y1.0254 
G01 X0.7567 Y1.0290 
G01 X0.7627 Y1.0315 
G01 X0.7690 Y1.0327 
G01 X0.8310 Y1.0327 
G01 X0.8373 Y1.0315 
G01 X0.8433 Y1.0290 
G01 X0.8486 Y1.0254 
G01 X0.8532 Y1.0209 
G01 X0.8568 Y1.0155 
G01 X0.8592 Y1.0096 
G01 X0.8605 Y1.0032 
G01 X0.8605 Y0.9968 
G01 X0.8592 Y0.9904 
G01 X0.8568 Y0.9845 
G01 X0.8532 Y0.9791 
G01 X0.8486 Y0.9746 
G01 X0.8433 Y0.9710 
G01 X0.8373 Y0.9685 
G01 X0.8310 Y0.9673 
G01 X0.7690 Y0.9673 
G01 X0.7627 Y0.9685 
G00 Z0.1000 
G00 X0.7627 Y1.0685 
G01 Z-0.0070 F4.00  
G01 X0.7567 Y1.0710 F10.00 
G01 X0.7514 Y1.0746 
G01 X0.7468 Y1.0791 
G01 X0.7432 Y1.0845 
G01 X0.7408 Y1.0904 
G01 X0.7395 Y1.0968 
G01 X0.7395 Y1.1032 
G01 X0.7408 Y1.1096 
G01 X0.7432 Y1.1155 
G01 X0.7468 Y1.1209 
G01 X0.7514 Y1.1254 
G01 X0.7567 Y1.1290 
G01 X0.7627 Y1.1315 
G01 X0.7690 Y1.1327 
G01 X0.8310 Y1.1327 
G01 X0.8373 Y1.1315 
G01 X0.8433 Y1.1290 
G01 X0.8486 Y1.1254 
G01 X0.8532 Y1.1209 
G01 X0.8568 Y1.1155 
G01 X0.8592 Y1.1096 
G01 X0.8605 Y1.1032 
G01 X0.8605 Y1.0968 
G01 X0.8592 Y1.0904 
G01 X0.8568 Y1.0845 
G01 X0.8532 Y1.0791 
G01 X0.8486 Y1.0746 
G01 X0.8433 Y1.0710 
G01 X0.8373 Y1.0685 
G01 X0.8310 Y1.0673 
G01 X0.7690 Y1.0673 
G01 X0.7627 Y1.0685 
G00 Z0.1000 
G00 X0.7627 Y1.1685 
G01 Z-0.0070 F4.00  
G01 X0.7567 Y1.1710 F10.00 
G01 X0.7514 Y1.1746 
G01 X0.7468 Y1.1791 
G01 X0.7432 Y1.1845 
G01 X0.7408 Y1.1904 
G01 X0.7395 Y1.1968 
G01 X0.7395 Y1.2032 
G01 X0.7408 Y1.2096 
G01 X0.7432 Y1.2155 
G01 X0.7468 Y1.2209 
G01 X0.7514 Y1.2254 
G01 X0.7567 Y1.2290 
G01 X0.7627 Y1.2315 
G01 X0.7690 Y1.2327 
G01 X0.8310 Y1.2327 
G01 X0.8373 Y1.2315 
G01 X0.8433 Y1.2290 
G01 X0.8486 Y1.2254 
G01 X0.8532 Y1.2209 
G01 X0.8568 Y1.2155 
G01 X0.8592 Y1.2096 
G01 X0.8605 Y1.2032 
G01 X0.8605 Y1.1968 
G01 X0.8592 Y1.1904 
G01 X0.8568 Y1.1845 
G01 X0.8532 Y1.1791 
G01 X0.8486 Y1.1746 
G01 X0.8433 Y1.1710 
G01 X0.8373 Y1.1685 
G01 X0.8310 Y1.1673 
G01 X0.7690 Y1.1673 
G01 X0.7627 Y1.1685 
G00 Z0.1000 
G00 X0.7627 Y1.2685 
G01 Z-0.0070 F4.00  
G01 X0.7567 Y1.2710 F10.00 
G01 X0.7514 Y1.2746 
G01 X0.7468 Y1.2791 
G01 X0.7432 Y1.2845 
G01 X0.7408 Y1.2904 
G01 X0.7395 Y1.2968 
G01 X0.7395 Y1.3032 
G01 X0.7408 Y1.3096 
G01 X0.7432 Y1.3155 
G01 X0.7468 Y1.3209 
G01 X0.7514 Y1.3254 
G01 X0.7567 Y1.3290 
G01 X0.7627 Y1.3315 
G01 X0.7690 Y1.3327 
G01 X0.8310 Y1.3327 
G01 X0.8373 Y1.3315 
G01 X0.8433 Y1.3290 
G01 X0.8486 Y1.3254 
G01 X0.8532 Y1.3209 
G01 X0.8568 Y1.3155 
G01 X0.8592 Y1.3096 
G01 X0.8605 Y1.3032 
G01 X0.8605 Y1.2968 
G01 X0.8592 Y1.2904 
G01 X0.8568 Y1.2845 
G01 X0.8532 Y1.2791 
G01 X0.8486 Y1.2746 
G01 X0.8433 Y1.2710 
G01 X0.8373 Y1.2685 
G01 X0.8310 Y1.2673 
G01 X0.7690 Y1.2673 
G01 X0.7627 Y1.2685 
G00 Z0.1000 
G00 X0.7627 Y1.3685 
G01 Z-0.0070 F4.00  
G01 X0.7567 Y1.3710 F10.00 
G01 X0.7514 Y1.3746 
G01 X0.7468 Y1.3791 
G01 X0.7432 Y1.3845 
G01 X0.7408 Y1.3904 
G01 X0.7395 Y1.3968 
G01 X0.7395 Y1.4032 
G01 X0.7408 Y1.4096 
G01 X0.7432 Y1.4155 
G01 X0.7468 Y1.4209 
G01 X0.7514 Y1.4254 
G01 X0.7567 Y1.4290 
G01 X0.7627 Y1.4315 
G01 X0.7690 Y1.4327 
G01 X0.8310 Y1.4327 
G01 X0.8373 Y1.4315 
G01 X0.8433 Y1.4290 
G01 X0.8486 Y1.4254 
G01 X0.8532 Y1.4209 
G01 X0.8568 Y1.4155 
G01 X0.8592 Y1.4096 
G01 X0.8605 Y1.4032 
G01 X0.8605 Y1.3968 
G01 X0.8592 Y1.3904 
G01 X0.8568 Y1.3845 
G01 X0.8532 Y1.3791 
G01 X0.8486 Y1.3746 
G01 X0.8433 Y1.3710 
G01 X0.8373 Y1.3685 
G01 X0.8310 Y1.3673 
G01 X0.7690 Y1.3673 
G01 X0.7627 Y1.3685 
G00 Z0.1000 
G00 X0.2486 Y1.3746 
G01 Z-0.0070 F4.00  
G01 X0.2433 Y1.3710 F10.00 
G01 X0.2373 Y1.3685 
G01 X0.2310 Y1.3673 
G01 X0.1690 Y1.3673 
G01 X0.1627 Y1.3685 
G01 X0.1567 Y1.3710 
G01 X0.1514 Y1.3746 
G01 X0.1468 Y1.3791 
G01 X0.1432 Y1.3845 
G01 X0.1408 Y1.3904 
G01 X0.1395 Y1.3968 
G01 X0.1395 Y1.4032 
G01 X0.1408 Y1.4096 
G01 X0.1432 Y1.4155 
G01 X0.1468 Y1.4209 
G01 X0.1514 Y1.4254 
G01 X0.1567 Y1.4290 
G01 X0.1627 Y1.4315 
G01 X0.1690 Y1.4327 
G01 X0.2310 Y1.4327 
G01 X0.2373 Y1.4315 
G01 X0.2433 Y1.4290 
G01 X0.2486 Y1.4254 
G01 X0.2532 Y1.4209 
G01 X0.2568 Y1.4155 
G01 X0.2592 Y1.4096 
G01 X0.2605 Y1.4032 
G01 X0.2605 Y1.3968 
G01 X0.2592 Y1.3904 
G01 X0.2568 Y1.3845 
G01 X0.2532 Y1.3791 
G01 X0.2486 Y1.3746 
G00 Z0.1000 
G00 X0.2486 Y1.3254 
G01 Z-0.0070 F4.00  
G01 X0.2532 Y1.3209 F10.00 
G01 X0.2568 Y1.3155 
G01 X0.2592 Y1.3096 
G01 X0.2605 Y1.3032 
G01 X0.2605 Y1.2968 
G01 X0.2592 Y1.2904 
G01 X0.2568 Y1.2845 
G01 X0.2532 Y1.2791 
G01 X0.2486 Y1.2746 
G01 X0.2433 Y1.2710 
G01 X0.2373 Y1.2685 
G01 X0.2310 Y1.2673 
G01 X0.1690 Y1.2673 
G01 X0.1627 Y1.2685 
G01 X0.1567 Y1.2710 
G01 X0.1514 Y1.2746 
G01 X0.1468 Y1.2791 
G01 X0.1432 Y1.2845 
G01 X0.1408 Y1.2904 
G01 X0.1395 Y1.2968 
G01 X0.1395 Y1.3032 
G01 X0.1408 Y1.3096 
G01 X0.1432 Y1.3155 
G01 X0.1468 Y1.3209 
G01 X0.1514 Y1.3254 
G01 X0.1567 Y1.3290 
G01 X0.1627 Y1.3315 
G01 X0.1690 Y1.3327 
G01 X0.2310 Y1.3327 
G01 X0.2373 Y1.3315 
G01 X0.2433 Y1.3290 
G01 X0.2486 Y1.3254 
G00 Z0.1000 
G00 X0.2486 Y1.2254 
G01 Z-0.0070 F4.00  
G01 X0.2532 Y1.2209 F10.00 
G01 X0.2568 Y1.2155 
G01 X0.2592 Y1.2096 
G01 X0.2605 Y1.2032 
G01 X0.2605 Y1.1968 
G01 X0.2592 Y1.1904 
G01 X0.2568 Y1.1845 
G01 X0.2532 Y1.1791 
G01 X0.2486 Y1.1746 
G01 X0.2433 Y1.1710 
G01 X0.2373 Y1.1685 
G01 X0.2310 Y1.1673 
G01 X0.1690 Y1.1673 
G01 X0.1627 Y1.1685 
G01 X0.1591 Y1.1700 
G01 X0.1022 Y1.1700 
G01 X0.1015 Y1.1699 
G01 X0.0993 Y1.1700 
G01 X0.0970 Y1.1700 
G01 X0.0963 Y1.1701 
G01 X0.0956 Y1.1702 
G01 X0.0934 Y1.1707 
G01 X0.0912 Y1.1712 
G01 X0.0906 Y1.1714 
G01 X0.0899 Y1.1716 
G01 X0.0878 Y1.1726 
G01 X0.0858 Y1.1734 
G01 X0.0852 Y1.1738 
G01 X0.0845 Y1.1741 
G01 X0.0827 Y1.1755 
G01 X0.0809 Y1.1767 
G01 X0.0804 Y1.1772 
G01 X0.0798 Y1.1777 
G01 X0.0783 Y1.1793 
G01 X0.0767 Y1.1809 
G01 X0.0763 Y1.1815 
G01 X0.0758 Y1.1820 
G01 X0.0747 Y1.1839 
G01 X0.0734 Y1.1858 
G01 X0.0731 Y1.1865 
G01 X0.0447 Y1.2339 
G01 X0.0434 Y1.2358 
G01 X0.0431 Y1.2365 
G01 X0.0428 Y1.2371 
G01 X0.0420 Y1.2392 
G01 X0.0412 Y1.2412 
G01 X0.0410 Y1.2420 
G01 X0.0408 Y1.2427 
G01 X0.0404 Y1.2449 
G01 X0.0400 Y1.2470 
G01 X0.0400 Y1.2478 
G01 X0.0399 Y1.2485 
G01 X0.0400 Y1.2507 
G01 X0.0400 Y1.5992 
G01 X0.0399 Y1.6014 
G01 X0.0400 Y1.6022 
G01 X0.0400 Y1.6030 
G01 X0.0404 Y1.6051 
G01 X0.0407 Y1.6072 
G01 X0.0410 Y1.6080 
G01 X0.0412 Y1.6088 
G01 X0.0420 Y1.6108 
G01 X0.0427 Y1.6128 
G01 X0.0431 Y1.6135 
G01 X0.0434 Y1.6142 
G01 X0.0446 Y1.6160 
G01 X0.0457 Y1.6179 
G01 X0.0463 Y1.6185 
G01 X0.0467 Y1.6191 
G01 X0.0482 Y1.6207 
G01 X0.2263 Y1.8185 
G01 X0.2267 Y1.8191 
G01 X0.2282 Y1.8207 
G01 X0.2297 Y1.8223 
G01 X0.2303 Y1.8227 
G01 X0.2309 Y1.8233 
G01 X0.2327 Y1.8245 
G01 X0.2344 Y1.8258 
G01 X0.2351 Y1.8261 
G01 X0.2358 Y1.8266 
G01 X0.2378 Y1.8274 
G01 X0.2397 Y1.8283 
G01 X0.2405 Y1.8285 
G01 X0.2412 Y1.8288 
G01 X0.2434 Y1.8293 
G01 X0.2455 Y1.8298 
G01 X0.2463 Y1.8298 
G01 X0.2470 Y1.8300 
G01 X0.2492 Y1.8300 
G01 X0.2514 Y1.8301 
G01 X0.2522 Y1.8300 
G01 X1.1530 Y1.8300 
G01 X1.1588 Y1.8288 
G01 X1.1642 Y1.8266 
G01 X1.1691 Y1.8233 
G01 X1.1733 Y1.8191 
G01 X1.4733 Y1.5191 
G01 X1.4766 Y1.5142 
G01 X1.4788 Y1.5088 
G01 X1.4800 Y1.5030 
G01 X1.4800 Y0.7970 
G01 X1.4788 Y0.7912 
G01 X1.4766 Y0.7858 
G01 X1.4733 Y0.7809 
G01 X1.4691 Y0.7767 
G01 X1.3691 Y0.6767 
G01 X1.3642 Y0.6734 
G01 X1.3588 Y0.6712 
G01 X1.3530 Y0.6700 
G01 X1.2909 Y0.6700 
G01 X1.2873 Y0.6685 
G01 X1.2810 Y0.6673 
G01 X1.2190 Y0.6673 
G01 X1.2127 Y0.6685 
G01 X1.2067 Y0.6710 
G01 X1.2014 Y0.6746 
G01 X1.1968 Y0.6791 
G01 X1.1932 Y0.6845 
G01 X1.1908 Y0.6904 
G01 X1.1895 Y0.6968 
G01 X1.1895 Y0.7032 
G01 X1.1908 Y0.7096 
G01 X1.1932 Y0.7155 
G01 X1.1968 Y0.7209 
G01 X1.2014 Y0.7254 
G01 X1.2067 Y0.7290 
G01 X1.2127 Y0.7315 
G01 X1.2190 Y0.7327 
G01 X1.2810 Y0.7327 
G01 X1.2873 Y0.7315 
G01 X1.2909 Y0.7300 
G01 X1.3376 Y0.7300 
G01 X1.4200 Y0.8124 
G01 X1.4200 Y1.4876 
G01 X1.1376 Y1.7700 
G01 X0.2634 Y1.7700 
G01 X0.1000 Y1.5885 
G01 X0.1000 Y1.2583 
G01 X0.1170 Y1.2300 
G01 X0.1591 Y1.2300 
G01 X0.1627 Y1.2315 
G01 X0.1690 Y1.2327 
G01 X0.2310 Y1.2327 
G01 X0.2373 Y1.2315 
G01 X0.2433 Y1.2290 
G01 X0.2486 Y1.2254 
G00 Z0.1000 
G00 X0.2486 Y1.1254 
G01 Z-0.0070 F4.00  
G01 X0.2532 Y1.1209 F10.00 
G01 X0.2568 Y1.1155 
G01 X0.2592 Y1.1096 
G01 X0.2605 Y1.1032 
G01 X0.2605 Y1.0968 
G01 X0.2592 Y1.0904 
G01 X0.2568 Y1.0845 
G01 X0.2532 Y1.0791 
G01 X0.2486 Y1.0746 
G01 X0.2433 Y1.0710 
G01 X0.2373 Y1.0685 
G01 X0.2310 Y1.0673 
G01 X0.1690 Y1.0673 
G01 X0.1627 Y1.0685 
G01 X0.1567 Y1.0710 
G01 X0.1514 Y1.0746 
G01 X0.1468 Y1.0791 
G01 X0.1432 Y1.0845 
G01 X0.1408 Y1.0904 
G01 X0.1395 Y1.0968 
G01 X0.1395 Y1.1032 
G01 X0.1408 Y1.1096 
G01 X0.1432 Y1.1155 
G01 X0.1468 Y1.1209 
G01 X0.1514 Y1.1254 
G01 X0.1567 Y1.1290 
G01 X0.1627 Y1.1315 
G01 X0.1690 Y1.1327 
G01 X0.2310 Y1.1327 
G01 X0.2373 Y1.1315 
G01 X0.2433 Y1.1290 
G01 X0.2486 Y1.1254 
G00 Z0.1000 
G00 X0.2486 Y1.0254 
G01 Z-0.0070 F4.00  
G01 X0.2532 Y1.0209 F10.00 
G01 X0.2568 Y1.0155 
G01 X0.2592 Y1.0096 
G01 X0.2605 Y1.0032 
G01 X0.2605 Y0.9968 
G01 X0.2592 Y0.9904 
G01 X0.2568 Y0.9845 
G01 X0.2532 Y0.9791 
G01 X0.2486 Y0.9746 
G01 X0.2433 Y0.9710 
G01 X0.2373 Y0.9685 
G01 X0.2310 Y0.9673 
G01 X0.1690 Y0.9673 
G01 X0.1627 Y0.9685 
G01 X0.1567 Y0.9710 
G01 X0.1514 Y0.9746 
G01 X0.1468 Y0.9791 
G01 X0.1432 Y0.9845 
G01 X0.1408 Y0.9904 
G01 X0.1395 Y0.9968 
G01 X0.1395 Y1.0032 
G01 X0.1408 Y1.0096 
G01 X0.1432 Y1.0155 
G01 X0.1468 Y1.0209 
G01 X0.1514 Y1.0254 
G01 X0.1567 Y1.0290 
G01 X0.1627 Y1.0315 
G01 X0.1690 Y1.0327 
G01 X0.2310 Y1.0327 
G01 X0.2373 Y1.0315 
G01 X0.2433 Y1.0290 
G01 X0.2486 Y1.0254 
G00 Z0.1000 
G00 X0.2486 Y0.9254 
G01 Z-0.0070 F4.00  
G01 X0.2532 Y0.9209 F10.00 
G01 X0.2568 Y0.9155 
G01 X0.2592 Y0.9096 
G01 X0.2605 Y0.9032 
G01 X0.2605 Y0.8968 
G01 X0.2592 Y0.8904 
G01 X0.2568 Y0.8845 
G01 X0.2532 Y0.8791 
G01 X0.2486 Y0.8746 
G01 X0.2433 Y0.8710 
G01 X0.2373 Y0.8685 
G01 X0.2310 Y0.8673 
G01 X0.1690 Y0.8673 
G01 X0.1627 Y0.8685 
G01 X0.1567 Y0.8710 
G01 X0.1514 Y0.8746 
G01 X0.1468 Y0.8791 
G01 X0.1432 Y0.8845 
G01 X0.1408 Y0.8904 
G01 X0.1395 Y0.8968 
G01 X0.1395 Y0.9032 
G01 X0.1408 Y0.9096 
G01 X0.1432 Y0.9155 
G01 X0.1468 Y0.9209 
G01 X0.1514 Y0.9254 
G01 X0.1567 Y0.9290 
G01 X0.1627 Y0.9315 
G01 X0.1690 Y0.9327 
G01 X0.2310 Y0.9327 
G01 X0.2373 Y0.9315 
G01 X0.2433 Y0.9290 
G01 X0.2486 Y0.9254 
G00 Z0.1000 
G00 X0.2486 Y0.8254 
G01 Z-0.0070 F4.00  
G01 X0.2532 Y0.8209 F10.00 
G01 X0.2568 Y0.8155 
G01 X0.2592 Y0.8096 
G01 X0.2605 Y0.8032 
G01 X0.2605 Y0.7968 
G01 X0.2592 Y0.7904 
G01 X0.2568 Y0.7845 
G01 X0.2532 Y0.7791 
G01 X0.2486 Y0.7746 
G01 X0.2433 Y0.7710 
G01 X0.2373 Y0.7685 
G01 X0.2310 Y0.7673 
G01 X0.1690 Y0.7673 
G01 X0.1627 Y0.7685 
G01 X0.1567 Y0.7710 
G01 X0.1514 Y0.7746 
G01 X0.1468 Y0.7791 
G01 X0.1432 Y0.7845 
G01 X0.1408 Y0.7904 
G01 X0.1395 Y0.7968 
G01 X0.1395 Y0.8032 
G01 X0.1408 Y0.8096 
G01 X0.1432 Y0.8155 
G01 X0.1468 Y0.8209 
G01 X0.1514 Y0.8254 
G01 X0.1567 Y0.8290 
G01 X0.1627 Y0.8315 
G01 X0.1690 Y0.8327 
G01 X0.2310 Y0.8327 
G01 X0.2373 Y0.8315 
G01 X0.2433 Y0.8290 
G01 X0.2486 Y0.8254 
G00 Z0.1000 
G00 X0.2486 Y0.7254 
G01 Z-0.0070 F4.00  
G01 X0.2532 Y0.7209 F10.00 
G01 X0.2568 Y0.7155 
G01 X0.2592 Y0.7096 
G01 X0.2605 Y0.7032 
G01 X0.2605 Y0.6968 
G01 X0.2592 Y0.6904 
G01 X0.2568 Y0.6845 
G01 X0.2532 Y0.6791 
G01 X0.2486 Y0.6746 
G01 X0.2433 Y0.6710 
G01 X0.2373 Y0.6685 
G01 X0.2310 Y0.6673 
G01 X0.1690 Y0.6673 
G01 X0.1627 Y0.6685 
G01 X0.1567 Y0.6710 
G01 X0.1514 Y0.6746 
G01 X0.1468 Y0.6791 
G01 X0.1432 Y0.6845 
G01 X0.1408 Y0.6904 
G01 X0.1395 Y0.6968 
G01 X0.1395 Y0.7032 
G01 X0.1408 Y0.7096 
G01 X0.1432 Y0.7155 
G01 X0.1468 Y0.7209 
G01 X0.1514 Y0.7254 
G01 X0.1567 Y0.7290 
G01 X0.1627 Y0.7315 
G01 X0.1690 Y0.7327 
G01 X0.2310 Y0.7327 
G01 X0.2373 Y0.7315 
G01 X0.2433 Y0.7290 
G01 X0.2486 Y0.7254 
G00 Z0.1000 
G00 X0.2486 Y0.6254 
G01 Z-0.0070 F4.00  
G01 X0.2532 Y0.6209 F10.00 
G01 X0.2568 Y0.6155 
G01 X0.2592 Y0.6096 
G01 X0.2605 Y0.6032 
G01 X0.2605 Y0.5968 
G01 X0.2592 Y0.5904 
G01 X0.2568 Y0.5845 
G01 X0.2532 Y0.5791 
G01 X0.2486 Y0.5746 
G01 X0.2433 Y0.5710 
G01 X0.2373 Y0.5685 
G01 X0.2310 Y0.5673 
G01 X0.1690 Y0.5673 
G01 X0.1627 Y0.5685 
G01 X0.1567 Y0.5710 
G01 X0.1514 Y0.5746 
G01 X0.1468 Y0.5791 
G01 X0.1432 Y0.5845 
G01 X0.1408 Y0.5904 
G01 X0.1395 Y0.5968 
G01 X0.1395 Y0.6032 
G01 X0.1408 Y0.6096 
G01 X0.1432 Y0.6155 
G01 X0.1468 Y0.6209 
G01 X0.1514 Y0.6254 
G01 X0.1567 Y0.6290 
G01 X0.1627 Y0.6315 
G01 X0.1690 Y0.6327 
G01 X0.2310 Y0.6327 
G01 X0.2373 Y0.6315 
G01 X0.2433 Y0.6290 
G01 X0.2486 Y0.6254 
G00 Z0.1000 
G00 X0.2486 Y0.5254 
G01 Z-0.0070 F4.00  
G01 X0.2532 Y0.5209 F10.00 
G01 X0.2568 Y0.5155 
G01 X0.2592 Y0.5096 
G01 X0.2605 Y0.5032 
G01 X0.2605 Y0.4968 
G01 X0.2592 Y0.4904 
G01 X0.2568 Y0.4845 
G01 X0.2532 Y0.4791 
G01 X0.2486 Y0.4746 
G01 X0.2433 Y0.4710 
G01 X0.2373 Y0.4685 
G01 X0.2310 Y0.4673 
G01 X0.1690 Y0.4673 
G01 X0.1627 Y0.4685 
G01 X0.1567 Y0.4710 
G01 X0.1514 Y0.4746 
G01 X0.1468 Y0.4791 
G01 X0.1432 Y0.4845 
G01 X0.1408 Y0.4904 
G01 X0.1395 Y0.4968 
G01 X0.1395 Y0.5032 
G01 X0.1408 Y0.5096 
G01 X0.1432 Y0.5155 
G01 X0.1468 Y0.5209 
G01 X0.1514 Y0.5254 
G01 X0.1567 Y0.5290 
G01 X0.1627 Y0.5315 
G01 X0.1690 Y0.5327 
G01 X0.2310 Y0.5327 
G01 X0.2373 Y0.5315 
G01 X0.2433 Y0.5290 
G01 X0.2486 Y0.5254 
G00 Z0.1000 
G00 X0.2486 Y0.4254 
G01 Z-0.0070 F4.00  
G01 X0.2532 Y0.4209 F10.00 
G01 X0.2568 Y0.4155 
G01 X0.2592 Y0.4096 
G01 X0.2605 Y0.4032 
G01 X0.2605 Y0.3968 
G01 X0.2592 Y0.3904 
G01 X0.2568 Y0.3845 
G01 X0.2532 Y0.3791 
G01 X0.2486 Y0.3746 
G01 X0.2433 Y0.3710 
G01 X0.2373 Y0.3685 
G01 X0.2310 Y0.3673 
G01 X0.1690 Y0.3673 
G01 X0.1627 Y0.3685 
G01 X0.1567 Y0.3710 
G01 X0.1514 Y0.3746 
G01 X0.1468 Y0.3791 
G01 X0.1432 Y0.3845 
G01 X0.1408 Y0.3904 
G01 X0.1395 Y0.3968 
G01 X0.1395 Y0.4032 
G01 X0.1408 Y0.4096 
G01 X0.1432 Y0.4155 
G01 X0.1468 Y0.4209 
G01 X0.1514 Y0.4254 
G01 X0.1567 Y0.4290 
G01 X0.1627 Y0.4315 
G01 X0.1690 Y0.4327 
G01 X0.2310 Y0.4327 
G01 X0.2373 Y0.4315 
G01 X0.2433 Y0.4290 
G01 X0.2486 Y0.4254 
G00 Z0.1000 
G00 X0.2400 Y0.3166 
G01 Z-0.0070 F4.00  
G01 X0.2400 Y0.2834 F10.00 
G01 X0.2166 Y0.2600 
G01 X0.1834 Y0.2600 
G01 X0.1600 Y0.2834 
G01 X0.1600 Y0.3166 
G01 X0.1834 Y0.3400 
G01 X0.2166 Y0.3400 
G01 X0.2400 Y0.3166 
G00 Z0.1000 
G00 X1.1968 Y0.5791 
G01 Z-0.0070 F4.00  
G01 X1.1932 Y0.5845 F10.00 
G01 X1.1908 Y0.5904 
G01 X1.1895 Y0.5968 
G01 X1.1895 Y0.6032 
G01 X1.1908 Y0.6096 
G01 X1.1932 Y0.6155 
G01 X1.1968 Y0.6209 
G01 X1.2014 Y0.6254 
G01 X1.2067 Y0.6290 
G01 X1.2127 Y0.6315 
G01 X1.2190 Y0.6327 
G01 X1.2810 Y0.6327 
G01 X1.2873 Y0.6315 
G01 X1.2933 Y0.6290 
G01 X1.2986 Y0.6254 
G01 X1.3032 Y0.6209 
G01 X1.3068 Y0.6155 
G01 X1.3092 Y0.6096 
G01 X1.3105 Y0.6032 
G01 X1.3105 Y0.5968 
G01 X1.3092 Y0.5904 
G01 X1.3068 Y0.5845 
G01 X1.3032 Y0.5791 
G01 X1.2986 Y0.5746 
G01 X1.2933 Y0.5710 
G01 X1.2873 Y0.5685 
G01 X1.2810 Y0.5673 
G01 X1.2190 Y0.5673 
G01 X1.2127 Y0.5685 
G01 X1.2067 Y0.5710 
G01 X1.2014 Y0.5746 
G01 X1.1968 Y0.5791 
G00 Z0.1000 
G00 X1.1968 Y0.7791 
G01 Z-0.0070 F4.00  
G01 X1.1932 Y0.7845 F10.00 
G01 X1.1908 Y0.7904 
G01 X1.1895 Y0.7968 
G01 X1.1895 Y0.8032 
G01 X1.1908 Y0.8096 
G01 X1.1932 Y0.8155 
G01 X1.1968 Y0.8209 
G01 X1.2014 Y0.8254 
G01 X1.2067 Y0.8290 
G01 X1.2127 Y0.8315 
G01 X1.2190 Y0.8327 
G01 X1.2810 Y0.8327 
G01 X1.2873 Y0.8315 
G01 X1.2933 Y0.8290 
G01 X1.2986 Y0.8254 
G01 X1.3032 Y0.8209 
G01 X1.3068 Y0.8155 
G01 X1.3092 Y0.8096 
G01 X1.3105 Y0.8032 
G01 X1.3105 Y0.7968 
G01 X1.3092 Y0.7904 
G01 X1.3068 Y0.7845 
G01 X1.3032 Y0.7791 
G01 X1.2986 Y0.7746 
G01 X1.2933 Y0.7710 
G01 X1.2873 Y0.7685 
G01 X1.2810 Y0.7673 
G01 X1.2190 Y0.7673 
G01 X1.2127 Y0.7685 
G01 X1.2067 Y0.7710 
G01 X1.2014 Y0.7746 
G01 X1.1968 Y0.7791 
G00 Z0.1000 
G00 X2.1245 Y0.7311 
G01 Z-0.0070 F4.00  
G01 X2.1830 Y0.7896 F10.00 
G01 X2.1830 Y0.8278 
G01 X2.2222 Y0.8670 
G01 X2.2778 Y0.8670 
G01 X2.3170 Y0.8278 
G01 X2.3170 Y0.7896 
G01 X2.3311 Y0.7755 
G01 X2.3354 Y0.7689 
G01 X2.3385 Y0.7617 
G01 X2.3400 Y0.7539 
G01 X2.3400 Y0.4461 
G01 X2.3385 Y0.4383 
G01 X2.3354 Y0.4311 
G01 X2.3311 Y0.4245 
G01 X2.3255 Y0.4189 
G01 X2.3189 Y0.4146 
G01 X2.3117 Y0.4115 
G01 X2.3039 Y0.4100 
G01 X2.2961 Y0.4100 
G01 X2.2883 Y0.4115 
G01 X2.2872 Y0.4120 
G01 X2.1463 Y0.4120 
G01 X2.1396 Y0.4133 
G01 X2.1147 Y0.4133 
G01 X2.1076 Y0.4147 
G01 X2.1009 Y0.4175 
G01 X2.0949 Y0.4215 
G01 X2.0898 Y0.4266 
G01 X2.0858 Y0.4326 
G01 X2.0830 Y0.4393 
G01 X2.0816 Y0.4464 
G01 X2.0816 Y0.4536 
G01 X2.0830 Y0.4607 
G01 X2.0858 Y0.4674 
G01 X2.0898 Y0.4734 
G01 X2.0949 Y0.4785 
G01 X2.1009 Y0.4825 
G01 X2.1076 Y0.4853 
G01 X2.1147 Y0.4867 
G01 X2.1396 Y0.4867 
G01 X2.1463 Y0.4880 
G01 X2.2600 Y0.4880 
G01 X2.2600 Y0.7330 
G01 X2.2396 Y0.7330 
G01 X2.1900 Y0.6834 
G01 X2.1900 Y0.5857 
G01 X2.1924 Y0.5853 
G01 X2.1991 Y0.5825 
G01 X2.2051 Y0.5785 
G01 X2.2102 Y0.5734 
G01 X2.2142 Y0.5674 
G01 X2.2170 Y0.5607 
G01 X2.2184 Y0.5536 
G01 X2.2184 Y0.5464 
G01 X2.2170 Y0.5393 
G01 X2.2142 Y0.5326 
G01 X2.2102 Y0.5266 
G01 X2.2051 Y0.5215 
G01 X2.1991 Y0.5175 
G01 X2.1924 Y0.5147 
G01 X2.1853 Y0.5133 
G01 X2.1660 Y0.5133 
G01 X2.1617 Y0.5115 
G01 X2.1539 Y0.5100 
G01 X2.1461 Y0.5100 
G01 X2.1383 Y0.5115 
G01 X2.1340 Y0.5133 
G01 X2.1147 Y0.5133 
G01 X2.1076 Y0.5147 
G01 X2.1009 Y0.5175 
G01 X2.0949 Y0.5215 
G01 X2.0898 Y0.5266 
G01 X2.0858 Y0.5326 
G01 X2.0830 Y0.5393 
G01 X2.0816 Y0.5464 
G01 X2.0816 Y0.5536 
G01 X2.0830 Y0.5607 
G01 X2.0858 Y0.5674 
G01 X2.0898 Y0.5734 
G01 X2.0949 Y0.5785 
G01 X2.1009 Y0.5825 
G01 X2.1076 Y0.5853 
G01 X2.1100 Y0.5857 
G01 X2.1100 Y0.7039 
G01 X2.1115 Y0.7117 
G01 X2.1146 Y0.7189 
G01 X2.1189 Y0.7255 
G01 X2.1245 Y0.7311 
G00 Z0.1000 
G00 X2.1830 Y0.9722 
G01 Z-0.0070 F4.00  
G01 X2.1830 Y1.0278 F10.00 
G01 X2.1933 Y1.0380 
G01 X2.1747 Y1.4592 
G01 X2.1729 Y1.4598 
G01 X2.1668 Y1.4629 
G01 X2.1613 Y1.4669 
G01 X2.1565 Y1.4717 
G01 X2.1525 Y1.4773 
G01 X2.1494 Y1.4833 
G01 X2.1472 Y1.4898 
G01 X2.1462 Y1.4966 
G01 X2.1462 Y1.5034 
G01 X2.1472 Y1.5102 
G01 X2.1494 Y1.5167 
G01 X2.1525 Y1.5227 
G01 X2.1565 Y1.5283 
G01 X2.1613 Y1.5331 
G01 X2.1668 Y1.5371 
G01 X2.1729 Y1.5402 
G01 X2.1794 Y1.5423 
G01 X2.1862 Y1.5434 
G01 X2.1941 Y1.5434 
G01 X2.1971 Y1.5457 
G01 X2.2046 Y1.5500 
G01 X2.2127 Y1.5530 
G01 X2.2212 Y1.5548 
G01 X2.2299 Y1.5551 
G01 X2.2385 Y1.5542 
G01 X2.2468 Y1.5519 
G01 X2.2547 Y1.5483 
G01 X2.2619 Y1.5435 
G01 X2.2620 Y1.5434 
G01 X2.2698 Y1.5434 
G01 X2.2765 Y1.5423 
G01 X2.2830 Y1.5402 
G01 X2.2891 Y1.5371 
G01 X2.2946 Y1.5331 
G01 X2.2994 Y1.5283 
G01 X2.3034 Y1.5227 
G01 X2.3065 Y1.5167 
G01 X2.3087 Y1.5102 
G01 X2.3097 Y1.5034 
G01 X2.3097 Y1.4966 
G01 X2.3087 Y1.4898 
G01 X2.3065 Y1.4833 
G01 X2.3034 Y1.4773 
G01 X2.2994 Y1.4717 
G01 X2.2946 Y1.4669 
G01 X2.2891 Y1.4629 
G01 X2.2847 Y1.4607 
G01 X2.3032 Y1.0415 
G01 X2.3170 Y1.0278 
G01 X2.3170 Y0.9722 
G01 X2.2778 Y0.9330 
G01 X2.2222 Y0.9330 
G01 X2.1830 Y0.9722 
G00 Z0.1000 
G00 Z0.5000 
M05
M02
