(.../pcb-gcode-3.6.2.4/pcb-gcode.ulp)
(Copyright 2005 - 2012 by John Johnson)
(See readme.txt for licensing terms.)
(This file generated from the board:)
(.../eagle/RF Glow Stick/BLE Master.brd)
(Current profile is .../pcb-gcode-3.6.2.4/profiles/generic.pp  )
(This file generated 11/1/14 7:37 PM)
(Settings from pcb-machine.h)
(spindle on time = 3.0000)
(  Tool Size)
(0.0080 )
(spindle speed = 15000.0000)
(tool change at 0.0000 0.0000 1.0000 )
(feed rate xy = F10.00 )
(feed rate z  = F4.00  )
(Z Axis Settings)
(  High     Up        Down     Drill)
(0.5000 	0.1000 	-0.0070 	-0.0670 )
(Settings from pcb-defaults.h)
(isolate min = 0.0010)
(isolate max = 0.0200)
(isolate step = 0.0050)
(Generated top outlines, top drill, )
(Unit of measure: inch)
(Inch Mode)
G20
(Absolute Coordinates)
G90
TR,12000,1
'
'
'Turning router ON
SO,1,1
PAUSE 3
G00 Z0.500000 
G00 X0.000000 Y0.000000 
G00 Z0.100000 
G00 X-0.377300 Y0.040200 
G01 Z-0.007000 F4.00  
G01 X-0.377000 Y0.040500 F10.00 
G01 X-0.376700 Y0.040900 
G01 X-0.375300 Y0.042900 
G01 X-0.277000 Y0.180500 
G01 X-0.276700 Y0.180900 
G01 X-0.275300 Y0.182900 
G01 X-0.273900 Y0.185000 
G01 X-0.273700 Y0.185400 
G01 X-0.273400 Y0.185800 
G01 X-0.272500 Y0.188100 
G01 X-0.271400 Y0.190400 
G01 X-0.271300 Y0.190800 
G01 X-0.271200 Y0.191200 
G01 X-0.270700 Y0.193700 
G01 X-0.270100 Y0.196100 
G01 X-0.270100 Y0.196600 
G01 X-0.270000 Y0.197000 
G01 X-0.270000 Y0.199500 
G01 X-0.269900 Y0.202000 
G01 X-0.270000 Y0.202500 
G01 X-0.270000 Y0.259100 
G01 X-0.268500 Y0.262700 
G01 X-0.267300 Y0.269000 
G01 X-0.267300 Y0.331000 
G01 X-0.268500 Y0.337300 
G01 X-0.271000 Y0.343300 
G01 X-0.274600 Y0.348600 
G01 X-0.279100 Y0.353200 
G01 X-0.284500 Y0.356800 
G01 X-0.290400 Y0.359200 
G01 X-0.296800 Y0.360500 
G01 X-0.303200 Y0.360500 
G01 X-0.309600 Y0.359200 
G01 X-0.315500 Y0.356800 
G01 X-0.320900 Y0.353200 
G01 X-0.325400 Y0.348600 
G01 X-0.329000 Y0.343300 
G01 X-0.331500 Y0.337300 
G01 X-0.332700 Y0.331000 
G01 X-0.332700 Y0.269000 
G01 X-0.331500 Y0.262700 
G01 X-0.330000 Y0.259100 
G01 X-0.330000 Y0.209600 
G01 X-0.415400 Y0.090000 
G01 X-0.936500 Y0.090000 
G01 X-1.194600 Y0.382500 
G01 X-1.193200 Y0.384500 
G01 X-1.190800 Y0.390400 
G01 X-1.189500 Y0.396800 
G01 X-1.189500 Y0.403200 
G01 X-1.190800 Y0.409600 
G01 X-1.193200 Y0.415500 
G01 X-1.196800 Y0.420900 
G01 X-1.201400 Y0.425400 
G01 X-1.206700 Y0.429000 
G01 X-1.212700 Y0.431500 
G01 X-1.219000 Y0.432700 
G01 X-1.281000 Y0.432700 
G01 X-1.287300 Y0.431500 
G01 X-1.293300 Y0.429000 
G01 X-1.298600 Y0.425400 
G01 X-1.303200 Y0.420900 
G01 X-1.306800 Y0.415500 
G01 X-1.309200 Y0.409600 
G01 X-1.310500 Y0.403200 
G01 X-1.310500 Y0.396800 
G01 X-1.309200 Y0.390400 
G01 X-1.307100 Y0.385300 
G01 X-1.404400 Y0.288000 
G01 X-2.153700 Y0.288000 
G01 X-2.160400 Y0.286700 
G01 X-2.185300 Y0.286700 
G01 X-2.192400 Y0.285300 
G01 X-2.199100 Y0.282500 
G01 X-2.205100 Y0.278500 
G01 X-2.210200 Y0.273400 
G01 X-2.214200 Y0.267400 
G01 X-2.217000 Y0.260700 
G01 X-2.218400 Y0.253600 
G01 X-2.218400 Y0.246400 
G01 X-2.217000 Y0.239300 
G01 X-2.214200 Y0.232600 
G01 X-2.210200 Y0.226600 
G01 X-2.205100 Y0.221500 
G01 X-2.199100 Y0.217500 
G01 X-2.192400 Y0.214700 
G01 X-2.185300 Y0.213300 
G01 X-2.160400 Y0.213300 
G01 X-2.153700 Y0.212000 
G01 X-1.396300 Y0.212000 
G01 X-1.388900 Y0.213500 
G01 X-1.382000 Y0.216300 
G01 X-1.375800 Y0.220500 
G01 X-1.370500 Y0.225800 
G01 X-1.366300 Y0.232000 
G01 X-1.363500 Y0.238900 
G01 X-1.362200 Y0.245400 
G01 X-1.251400 Y0.356200 
G01 X-0.973800 Y0.041700 
G01 X-0.973300 Y0.040900 
G01 X-0.971900 Y0.039400 
G01 X-0.970500 Y0.037900 
G01 X-0.969800 Y0.037400 
G01 X-0.969100 Y0.036700 
G01 X-0.967400 Y0.035600 
G01 X-0.965800 Y0.034400 
G01 X-0.965000 Y0.033900 
G01 X-0.964200 Y0.033400 
G01 X-0.962300 Y0.032600 
G01 X-0.960500 Y0.031800 
G01 X-0.959600 Y0.031500 
G01 X-0.958800 Y0.031200 
G01 X-0.956800 Y0.030800 
G01 X-0.954800 Y0.030200 
G01 X-0.953900 Y0.030200 
G01 X-0.953000 Y0.030000 
G01 X-0.950900 Y0.030000 
G01 X-0.948900 Y0.029900 
G01 X-0.948000 Y0.030000 
G01 X-0.400500 Y0.030000 
G01 X-0.398000 Y0.029900 
G01 X-0.397500 Y0.030000 
G01 X-0.397000 Y0.030000 
G01 X-0.394600 Y0.030500 
G01 X-0.392200 Y0.030900 
G01 X-0.391700 Y0.031100 
G01 X-0.391200 Y0.031200 
G01 X-0.389000 Y0.032100 
G01 X-0.386600 Y0.033000 
G01 X-0.386200 Y0.033200 
G01 X-0.385800 Y0.033400 
G01 X-0.383700 Y0.034800 
G01 X-0.381600 Y0.036100 
G01 X-0.381300 Y0.036400 
G01 X-0.380900 Y0.036700 
G01 X-0.379100 Y0.038500 
G01 X-0.377300 Y0.040200 
G00 Z0.100000 
G00 X-0.428100 Y0.129300 
G01 Z-0.007000 F4.00  
G01 X-0.427500 Y0.130100 F10.00 
G01 X-0.426700 Y0.130900 
G01 X-0.425600 Y0.132400 
G01 X-0.424500 Y0.133900 
G01 X-0.424000 Y0.134900 
G01 X-0.423400 Y0.135800 
G01 X-0.422700 Y0.137500 
G01 X-0.374000 Y0.234900 
G01 X-0.373400 Y0.235800 
G01 X-0.372700 Y0.237500 
G01 X-0.371800 Y0.239200 
G01 X-0.371600 Y0.240300 
G01 X-0.371200 Y0.241200 
G01 X-0.370800 Y0.243100 
G01 X-0.370300 Y0.244900 
G01 X-0.370200 Y0.246000 
G01 X-0.370000 Y0.247000 
G01 X-0.370000 Y0.248900 
G01 X-0.369900 Y0.250800 
G01 X-0.370000 Y0.251900 
G01 X-0.370000 Y0.259100 
G01 X-0.368500 Y0.262700 
G01 X-0.367300 Y0.269000 
G01 X-0.367300 Y0.331000 
G01 X-0.368500 Y0.337300 
G01 X-0.371000 Y0.343300 
G01 X-0.374600 Y0.348600 
G01 X-0.379100 Y0.353200 
G01 X-0.384500 Y0.356800 
G01 X-0.390400 Y0.359200 
G01 X-0.396800 Y0.360500 
G01 X-0.403200 Y0.360500 
G01 X-0.409600 Y0.359200 
G01 X-0.415500 Y0.356800 
G01 X-0.420900 Y0.353200 
G01 X-0.425400 Y0.348600 
G01 X-0.429000 Y0.343300 
G01 X-0.431500 Y0.337300 
G01 X-0.432700 Y0.331000 
G01 X-0.432700 Y0.269000 
G01 X-0.431500 Y0.262700 
G01 X-0.430000 Y0.259100 
G01 X-0.430000 Y0.257100 
G01 X-0.468500 Y0.180000 
G01 X-0.884600 Y0.180000 
G01 X-1.125300 Y0.517100 
G01 X-1.126700 Y0.519100 
G01 X-1.127000 Y0.519500 
G01 X-1.127300 Y0.519800 
G01 X-1.129100 Y0.521500 
G01 X-1.130900 Y0.523300 
G01 X-1.131300 Y0.523600 
G01 X-1.131600 Y0.523900 
G01 X-1.133700 Y0.525200 
G01 X-1.135800 Y0.526600 
G01 X-1.136200 Y0.526800 
G01 X-1.136600 Y0.527000 
G01 X-1.139000 Y0.527900 
G01 X-1.141200 Y0.528800 
G01 X-1.141700 Y0.528900 
G01 X-1.142200 Y0.529100 
G01 X-1.144600 Y0.529500 
G01 X-1.147000 Y0.530000 
G01 X-1.147500 Y0.530000 
G01 X-1.148000 Y0.530100 
G01 X-1.150500 Y0.530000 
G01 X-1.209100 Y0.530000 
G01 X-1.212700 Y0.531500 
G01 X-1.219000 Y0.532700 
G01 X-1.227000 Y0.532700 
G01 X-1.231100 Y0.535400 
G01 X-1.238300 Y0.538500 
G01 X-1.246100 Y0.540000 
G01 X-1.695000 Y0.540000 
G01 X-1.695000 Y1.225200 
G01 X-1.694800 Y1.226700 
G01 X-1.695000 Y1.229500 
G01 X-1.695000 Y1.232300 
G01 X-1.695200 Y1.233800 
G01 X-1.695300 Y1.235400 
G01 X-1.695900 Y1.238100 
G01 X-1.696400 Y1.240800 
G01 X-1.696800 Y1.242300 
G01 X-1.697200 Y1.243800 
G01 X-1.698200 Y1.246400 
G01 X-1.699000 Y1.249100 
G01 X-1.699700 Y1.250400 
G01 X-1.700300 Y1.251900 
G01 X-1.701700 Y1.254300 
G01 X-1.703000 Y1.256800 
G01 X-1.703900 Y1.258000 
G01 X-1.704700 Y1.259400 
G01 X-1.706400 Y1.261500 
G01 X-1.708000 Y1.263800 
G01 X-1.709100 Y1.264900 
G01 X-1.891700 Y1.488600 
G01 X-1.891300 Y1.489800 
G01 X-1.890300 Y1.496600 
G01 X-1.890300 Y1.503400 
G01 X-1.891300 Y1.510200 
G01 X-1.893500 Y1.516700 
G01 X-1.896600 Y1.522700 
G01 X-1.900600 Y1.528300 
G01 X-1.905400 Y1.533100 
G01 X-1.910900 Y1.537100 
G01 X-1.917000 Y1.540200 
G01 X-1.923500 Y1.542300 
G01 X-1.930200 Y1.543400 
G01 X-1.938100 Y1.543400 
G01 X-1.938600 Y1.543900 
G01 X-1.945900 Y1.548600 
G01 X-1.953800 Y1.552100 
G01 X-1.962200 Y1.554300 
G01 X-1.970800 Y1.555200 
G01 X-1.979500 Y1.554700 
G01 X-1.987900 Y1.552800 
G01 X-1.996000 Y1.549700 
G01 X-2.003500 Y1.545300 
G01 X-2.005900 Y1.543400 
G01 X-2.013800 Y1.543400 
G01 X-2.020600 Y1.542300 
G01 X-2.027100 Y1.540200 
G01 X-2.033200 Y1.537100 
G01 X-2.038700 Y1.533100 
G01 X-2.043500 Y1.528300 
G01 X-2.047500 Y1.522700 
G01 X-2.050600 Y1.516700 
G01 X-2.052800 Y1.510200 
G01 X-2.053800 Y1.503400 
G01 X-2.053800 Y1.496600 
G01 X-2.052800 Y1.489800 
G01 X-2.050600 Y1.483300 
G01 X-2.047500 Y1.477300 
G01 X-2.043500 Y1.471700 
G01 X-2.038700 Y1.466900 
G01 X-2.033200 Y1.462900 
G01 X-2.027100 Y1.459800 
G01 X-2.020600 Y1.457700 
G01 X-2.013800 Y1.456600 
G01 X-2.007600 Y1.456600 
G01 X-1.805000 Y1.208400 
G01 X-1.805000 Y0.540000 
G01 X-1.903900 Y0.540000 
G01 X-1.911700 Y0.538500 
G01 X-1.918900 Y0.535400 
G01 X-1.925500 Y0.531100 
G01 X-1.931100 Y0.525500 
G01 X-1.935400 Y0.518900 
G01 X-1.935900 Y0.517800 
G01 X-2.065700 Y0.388000 
G01 X-2.153700 Y0.388000 
G01 X-2.160400 Y0.386700 
G01 X-2.185300 Y0.386700 
G01 X-2.192400 Y0.385300 
G01 X-2.199100 Y0.382500 
G01 X-2.205100 Y0.378500 
G01 X-2.210200 Y0.373400 
G01 X-2.214200 Y0.367400 
G01 X-2.217000 Y0.360700 
G01 X-2.218400 Y0.353600 
G01 X-2.218400 Y0.346400 
G01 X-2.217000 Y0.339300 
G01 X-2.214200 Y0.332600 
G01 X-2.210200 Y0.326600 
G01 X-2.205100 Y0.321500 
G01 X-2.199100 Y0.317500 
G01 X-2.192400 Y0.314700 
G01 X-2.185300 Y0.313300 
G01 X-2.160400 Y0.313300 
G01 X-2.153700 Y0.312000 
G01 X-2.046300 Y0.312000 
G01 X-2.038900 Y0.313500 
G01 X-2.032000 Y0.316300 
G01 X-2.025800 Y0.320500 
G01 X-1.886300 Y0.460000 
G01 X-1.787800 Y0.460000 
G01 X-1.785800 Y0.458000 
G01 X-1.778800 Y0.453000 
G01 X-1.771100 Y0.449000 
G01 X-1.762900 Y0.446400 
G01 X-1.754300 Y0.445000 
G01 X-1.745700 Y0.445000 
G01 X-1.737100 Y0.446400 
G01 X-1.728900 Y0.449000 
G01 X-1.721200 Y0.453000 
G01 X-1.714200 Y0.458000 
G01 X-1.712200 Y0.460000 
G01 X-1.246100 Y0.460000 
G01 X-1.238300 Y0.461500 
G01 X-1.231100 Y0.464600 
G01 X-1.227000 Y0.467300 
G01 X-1.219000 Y0.467300 
G01 X-1.212700 Y0.468500 
G01 X-1.209100 Y0.470000 
G01 X-1.165400 Y0.470000 
G01 X-0.924700 Y0.132900 
G01 X-0.923300 Y0.130900 
G01 X-0.923000 Y0.130500 
G01 X-0.922700 Y0.130200 
G01 X-0.920900 Y0.128500 
G01 X-0.919100 Y0.126700 
G01 X-0.918700 Y0.126400 
G01 X-0.918400 Y0.126100 
G01 X-0.916300 Y0.124800 
G01 X-0.914200 Y0.123400 
G01 X-0.913800 Y0.123200 
G01 X-0.913400 Y0.123000 
G01 X-0.911000 Y0.122100 
G01 X-0.908800 Y0.121200 
G01 X-0.908300 Y0.121100 
G01 X-0.907800 Y0.120900 
G01 X-0.905400 Y0.120500 
G01 X-0.903000 Y0.120000 
G01 X-0.902500 Y0.120000 
G01 X-0.902000 Y0.119900 
G01 X-0.899500 Y0.120000 
G01 X-0.451100 Y0.120000 
G01 X-0.449200 Y0.119900 
G01 X-0.448100 Y0.120000 
G01 X-0.447000 Y0.120000 
G01 X-0.445200 Y0.120400 
G01 X-0.443300 Y0.120600 
G01 X-0.442300 Y0.120900 
G01 X-0.441200 Y0.121200 
G01 X-0.439500 Y0.121900 
G01 X-0.437700 Y0.122500 
G01 X-0.436800 Y0.123000 
G01 X-0.435800 Y0.123400 
G01 X-0.434200 Y0.124500 
G01 X-0.432600 Y0.125400 
G01 X-0.431800 Y0.126100 
G01 X-0.430900 Y0.126700 
G01 X-0.429500 Y0.128000 
G01 X-0.428100 Y0.129300 
G00 Z0.100000 
G00 X-0.474600 Y0.251400 
G01 Z-0.007000 F4.00  
G01 X-0.471000 Y0.256700 F10.00 
G01 X-0.468500 Y0.262700 
G01 X-0.467300 Y0.269000 
G01 X-0.467300 Y0.331000 
G01 X-0.468500 Y0.337300 
G01 X-0.469000 Y0.338500 
G01 X-0.376700 Y0.430900 
G01 X-0.373400 Y0.435800 
G01 X-0.371200 Y0.441200 
G01 X-0.370000 Y0.447000 
G01 X-0.370000 Y1.703000 
G01 X-0.371200 Y1.708800 
G01 X-0.373400 Y1.714200 
G01 X-0.376700 Y1.719100 
G01 X-0.380900 Y1.723300 
G01 X-0.385800 Y1.726600 
G01 X-0.391200 Y1.728800 
G01 X-0.397000 Y1.730000 
G01 X-1.099200 Y1.730000 
G01 X-1.101300 Y1.730100 
G01 X-1.102100 Y1.730000 
G01 X-1.103000 Y1.730000 
G01 X-1.105100 Y1.729600 
G01 X-1.107200 Y1.729300 
G01 X-1.107900 Y1.729000 
G01 X-1.108800 Y1.728800 
G01 X-1.110700 Y1.728000 
G01 X-1.112700 Y1.727300 
G01 X-1.113500 Y1.726900 
G01 X-1.114200 Y1.726600 
G01 X-1.116000 Y1.725400 
G01 X-1.117800 Y1.724300 
G01 X-1.118400 Y1.723800 
G01 X-1.119100 Y1.723300 
G01 X-1.120600 Y1.721800 
G01 X-1.122200 Y1.720400 
G01 X-1.122700 Y1.719700 
G01 X-1.123300 Y1.719100 
G01 X-1.124500 Y1.717300 
G01 X-1.272700 Y1.519700 
G01 X-1.273300 Y1.519100 
G01 X-1.274500 Y1.517300 
G01 X-1.275800 Y1.515600 
G01 X-1.276100 Y1.514900 
G01 X-1.276600 Y1.514200 
G01 X-1.277400 Y1.512200 
G01 X-1.278300 Y1.510300 
G01 X-1.278500 Y1.509500 
G01 X-1.278800 Y1.508800 
G01 X-1.279300 Y1.506700 
G01 X-1.279800 Y1.504600 
G01 X-1.279800 Y1.503800 
G01 X-1.280000 Y1.503000 
G01 X-1.280000 Y1.500800 
G01 X-1.280100 Y1.498700 
G01 X-1.280000 Y1.497900 
G01 X-1.280000 Y1.332700 
G01 X-1.281000 Y1.332700 
G01 X-1.287300 Y1.331500 
G01 X-1.293300 Y1.329000 
G01 X-1.298600 Y1.325400 
G01 X-1.303200 Y1.320900 
G01 X-1.306800 Y1.315500 
G01 X-1.309200 Y1.309600 
G01 X-1.310500 Y1.303200 
G01 X-1.310500 Y1.296800 
G01 X-1.309200 Y1.290400 
G01 X-1.306800 Y1.284500 
G01 X-1.303200 Y1.279100 
G01 X-1.298600 Y1.274600 
G01 X-1.293300 Y1.271000 
G01 X-1.287300 Y1.268500 
G01 X-1.281000 Y1.267300 
G01 X-1.219000 Y1.267300 
G01 X-1.212700 Y1.268500 
G01 X-1.206700 Y1.271000 
G01 X-1.201400 Y1.274600 
G01 X-1.196800 Y1.279100 
G01 X-1.193200 Y1.284500 
G01 X-1.190800 Y1.290400 
G01 X-1.189500 Y1.296800 
G01 X-1.189500 Y1.303200 
G01 X-1.190800 Y1.309600 
G01 X-1.193200 Y1.315500 
G01 X-1.196800 Y1.320900 
G01 X-1.201400 Y1.325400 
G01 X-1.206700 Y1.329000 
G01 X-1.212700 Y1.331500 
G01 X-1.219000 Y1.332700 
G01 X-1.220000 Y1.332700 
G01 X-1.220000 Y1.490000 
G01 X-1.085000 Y1.670000 
G01 X-0.430000 Y1.670000 
G01 X-0.430000 Y0.462400 
G01 X-0.519100 Y0.373300 
G01 X-0.523300 Y0.369100 
G01 X-0.526600 Y0.364200 
G01 X-0.528800 Y0.358800 
G01 X-0.530000 Y0.353000 
G01 X-0.530000 Y0.340900 
G01 X-0.531500 Y0.337300 
G01 X-0.532700 Y0.331000 
G01 X-0.532700 Y0.269000 
G01 X-0.531500 Y0.262700 
G01 X-0.529000 Y0.256700 
G01 X-0.525400 Y0.251400 
G01 X-0.520900 Y0.246800 
G01 X-0.515500 Y0.243200 
G01 X-0.509600 Y0.240800 
G01 X-0.503200 Y0.239500 
G01 X-0.496800 Y0.239500 
G01 X-0.490400 Y0.240800 
G01 X-0.484500 Y0.243200 
G01 X-0.479100 Y0.246800 
G01 X-0.474600 Y0.251400 
G00 Z0.100000 
G00 X-0.574600 Y0.251400 
G01 Z-0.007000 F4.00  
G01 X-0.571000 Y0.256700 F10.00 
G01 X-0.568500 Y0.262700 
G01 X-0.567300 Y0.269000 
G01 X-0.567300 Y0.331000 
G01 X-0.568500 Y0.337300 
G01 X-0.570000 Y0.340900 
G01 X-0.570000 Y0.342900 
G01 X-0.524000 Y0.434900 
G01 X-0.523400 Y0.435800 
G01 X-0.522700 Y0.437500 
G01 X-0.521800 Y0.439200 
G01 X-0.521600 Y0.440300 
G01 X-0.521200 Y0.441200 
G01 X-0.520800 Y0.443100 
G01 X-0.520300 Y0.444900 
G01 X-0.520200 Y0.446000 
G01 X-0.520000 Y0.447000 
G01 X-0.520000 Y0.448900 
G01 X-0.519900 Y0.450800 
G01 X-0.520000 Y0.451900 
G01 X-0.520000 Y1.603000 
G01 X-0.521200 Y1.608800 
G01 X-0.523400 Y1.614200 
G01 X-0.526700 Y1.619100 
G01 X-0.530900 Y1.623300 
G01 X-0.535800 Y1.626600 
G01 X-0.541200 Y1.628800 
G01 X-0.547000 Y1.630000 
G01 X-1.048900 Y1.630000 
G01 X-1.050800 Y1.630100 
G01 X-1.051900 Y1.630000 
G01 X-1.053000 Y1.630000 
G01 X-1.054800 Y1.629600 
G01 X-1.056700 Y1.629400 
G01 X-1.057700 Y1.629100 
G01 X-1.058800 Y1.628800 
G01 X-1.060500 Y1.628100 
G01 X-1.062300 Y1.627500 
G01 X-1.063200 Y1.627000 
G01 X-1.064200 Y1.626600 
G01 X-1.065800 Y1.625500 
G01 X-1.067400 Y1.624600 
G01 X-1.068200 Y1.623900 
G01 X-1.069100 Y1.623300 
G01 X-1.070500 Y1.622000 
G01 X-1.071900 Y1.620700 
G01 X-1.072500 Y1.619900 
G01 X-1.073300 Y1.619100 
G01 X-1.074400 Y1.617600 
G01 X-1.075500 Y1.616100 
G01 X-1.076000 Y1.615100 
G01 X-1.076600 Y1.614200 
G01 X-1.077300 Y1.612500 
G01 X-1.126000 Y1.515100 
G01 X-1.126600 Y1.514200 
G01 X-1.127300 Y1.512500 
G01 X-1.128200 Y1.510800 
G01 X-1.128400 Y1.509700 
G01 X-1.128800 Y1.508800 
G01 X-1.129200 Y1.506900 
G01 X-1.129700 Y1.505100 
G01 X-1.129800 Y1.504000 
G01 X-1.130000 Y1.503000 
G01 X-1.130000 Y1.501100 
G01 X-1.130100 Y1.499200 
G01 X-1.130000 Y1.498100 
G01 X-1.130000 Y1.262400 
G01 X-1.162400 Y1.230000 
G01 X-1.209100 Y1.230000 
G01 X-1.212700 Y1.231500 
G01 X-1.219000 Y1.232700 
G01 X-1.281000 Y1.232700 
G01 X-1.287300 Y1.231500 
G01 X-1.293300 Y1.229000 
G01 X-1.298600 Y1.225400 
G01 X-1.303200 Y1.220900 
G01 X-1.306800 Y1.215500 
G01 X-1.309200 Y1.209600 
G01 X-1.310500 Y1.203200 
G01 X-1.310500 Y1.196800 
G01 X-1.309200 Y1.190400 
G01 X-1.306800 Y1.184500 
G01 X-1.303200 Y1.179100 
G01 X-1.298600 Y1.174600 
G01 X-1.293300 Y1.171000 
G01 X-1.287300 Y1.168500 
G01 X-1.281000 Y1.167300 
G01 X-1.219000 Y1.167300 
G01 X-1.212700 Y1.168500 
G01 X-1.209100 Y1.170000 
G01 X-1.147000 Y1.170000 
G01 X-1.141200 Y1.171200 
G01 X-1.135800 Y1.173400 
G01 X-1.130900 Y1.176700 
G01 X-1.080900 Y1.226700 
G01 X-1.076700 Y1.230900 
G01 X-1.073400 Y1.235800 
G01 X-1.071200 Y1.241200 
G01 X-1.070000 Y1.247000 
G01 X-1.070000 Y1.492900 
G01 X-1.031500 Y1.570000 
G01 X-0.580000 Y1.570000 
G01 X-0.580000 Y0.457100 
G01 X-0.626000 Y0.365100 
G01 X-0.626600 Y0.364200 
G01 X-0.627300 Y0.362500 
G01 X-0.628200 Y0.360800 
G01 X-0.628400 Y0.359700 
G01 X-0.628800 Y0.358800 
G01 X-0.629200 Y0.356900 
G01 X-0.629700 Y0.355100 
G01 X-0.629800 Y0.354000 
G01 X-0.630000 Y0.353000 
G01 X-0.630000 Y0.351100 
G01 X-0.630100 Y0.349200 
G01 X-0.630000 Y0.348100 
G01 X-0.630000 Y0.340900 
G01 X-0.631500 Y0.337300 
G01 X-0.632700 Y0.331000 
G01 X-0.632700 Y0.269000 
G01 X-0.631500 Y0.262700 
G01 X-0.629000 Y0.256700 
G01 X-0.625400 Y0.251400 
G01 X-0.620900 Y0.246800 
G01 X-0.615500 Y0.243200 
G01 X-0.609600 Y0.240800 
G01 X-0.603200 Y0.239500 
G01 X-0.596800 Y0.239500 
G01 X-0.590400 Y0.240800 
G01 X-0.584500 Y0.243200 
G01 X-0.579100 Y0.246800 
G01 X-0.574600 Y0.251400 
G00 Z0.100000 
G00 X-0.674600 Y0.251400 
G01 Z-0.007000 F4.00  
G01 X-0.671000 Y0.256700 F10.00 
G01 X-0.668500 Y0.262700 
G01 X-0.667300 Y0.269000 
G01 X-0.667300 Y0.307300 
G01 X-0.621400 Y0.490600 
G01 X-0.621200 Y0.491200 
G01 X-0.620700 Y0.493400 
G01 X-0.620200 Y0.495600 
G01 X-0.620100 Y0.496300 
G01 X-0.620000 Y0.497000 
G01 X-0.620000 Y0.499300 
G01 X-0.619900 Y0.501500 
G01 X-0.620000 Y0.502200 
G01 X-0.620000 Y1.503000 
G01 X-0.621200 Y1.508800 
G01 X-0.623400 Y1.514200 
G01 X-0.626700 Y1.519100 
G01 X-0.630900 Y1.523300 
G01 X-0.635800 Y1.526600 
G01 X-0.641200 Y1.528800 
G01 X-0.647000 Y1.530000 
G01 X-0.953000 Y1.530000 
G01 X-0.958800 Y1.528800 
G01 X-0.964200 Y1.526600 
G01 X-0.969100 Y1.523300 
G01 X-0.973300 Y1.519100 
G01 X-1.023300 Y1.469100 
G01 X-1.026600 Y1.464200 
G01 X-1.028800 Y1.458800 
G01 X-1.030000 Y1.453000 
G01 X-1.030000 Y1.212400 
G01 X-1.112400 Y1.130000 
G01 X-1.209100 Y1.130000 
G01 X-1.212700 Y1.131500 
G01 X-1.219000 Y1.132700 
G01 X-1.281000 Y1.132700 
G01 X-1.287300 Y1.131500 
G01 X-1.293300 Y1.129000 
G01 X-1.298600 Y1.125400 
G01 X-1.303200 Y1.120900 
G01 X-1.306800 Y1.115500 
G01 X-1.309200 Y1.109600 
G01 X-1.310500 Y1.103200 
G01 X-1.310500 Y1.096800 
G01 X-1.309200 Y1.090400 
G01 X-1.306800 Y1.084500 
G01 X-1.303200 Y1.079100 
G01 X-1.298600 Y1.074600 
G01 X-1.293300 Y1.071000 
G01 X-1.287300 Y1.068500 
G01 X-1.281000 Y1.067300 
G01 X-1.219000 Y1.067300 
G01 X-1.212700 Y1.068500 
G01 X-1.209100 Y1.070000 
G01 X-1.097000 Y1.070000 
G01 X-1.091200 Y1.071200 
G01 X-1.085800 Y1.073400 
G01 X-1.080900 Y1.076700 
G01 X-0.980900 Y1.176700 
G01 X-0.976700 Y1.180900 
G01 X-0.973400 Y1.185800 
G01 X-0.971200 Y1.191200 
G01 X-0.970000 Y1.197000 
G01 X-0.970000 Y1.437600 
G01 X-0.937600 Y1.470000 
G01 X-0.680000 Y1.470000 
G01 X-0.680000 Y0.503700 
G01 X-0.717000 Y0.355800 
G01 X-0.720900 Y0.353200 
G01 X-0.725400 Y0.348600 
G01 X-0.729000 Y0.343300 
G01 X-0.731500 Y0.337300 
G01 X-0.732700 Y0.331000 
G01 X-0.732700 Y0.269000 
G01 X-0.731500 Y0.262700 
G01 X-0.729000 Y0.256700 
G01 X-0.725400 Y0.251400 
G01 X-0.720900 Y0.246800 
G01 X-0.715500 Y0.243200 
G01 X-0.709600 Y0.240800 
G01 X-0.703200 Y0.239500 
G01 X-0.696800 Y0.239500 
G01 X-0.690400 Y0.240800 
G01 X-0.684500 Y0.243200 
G01 X-0.679100 Y0.246800 
G01 X-0.674600 Y0.251400 
G00 Z0.100000 
G00 X-0.760000 Y0.283400 
G01 Z-0.007000 F4.00  
G01 X-0.760000 Y0.316600 F10.00 
G01 X-0.783400 Y0.340000 
G01 X-0.816600 Y0.340000 
G01 X-0.840000 Y0.316600 
G01 X-0.840000 Y0.283400 
G01 X-0.816600 Y0.260000 
G01 X-0.783400 Y0.260000 
G01 X-0.760000 Y0.283400 
G00 Z0.100000 
G00 X-0.762700 Y0.368500 
G01 Z-0.007000 F4.00  
G01 X-0.756700 Y0.371000 F10.00 
G01 X-0.751400 Y0.374600 
G01 X-0.746800 Y0.379100 
G01 X-0.743200 Y0.384500 
G01 X-0.740800 Y0.390400 
G01 X-0.739500 Y0.396800 
G01 X-0.739500 Y0.403200 
G01 X-0.740800 Y0.409600 
G01 X-0.743200 Y0.415500 
G01 X-0.746800 Y0.420900 
G01 X-0.751400 Y0.425400 
G01 X-0.756700 Y0.429000 
G01 X-0.762700 Y0.431500 
G01 X-0.769000 Y0.432700 
G01 X-0.831000 Y0.432700 
G01 X-0.837300 Y0.431500 
G01 X-0.843300 Y0.429000 
G01 X-0.848600 Y0.425400 
G01 X-0.853200 Y0.420900 
G01 X-0.856800 Y0.415500 
G01 X-0.859200 Y0.409600 
G01 X-0.860500 Y0.403200 
G01 X-0.860500 Y0.396800 
G01 X-0.859200 Y0.390400 
G01 X-0.856800 Y0.384500 
G01 X-0.853200 Y0.379100 
G01 X-0.848600 Y0.374600 
G01 X-0.843300 Y0.371000 
G01 X-0.837300 Y0.368500 
G01 X-0.831000 Y0.367300 
G01 X-0.769000 Y0.367300 
G01 X-0.762700 Y0.368500 
G00 Z0.100000 
G00 X-0.762700 Y0.468500 
G01 Z-0.007000 F4.00  
G01 X-0.756700 Y0.471000 F10.00 
G01 X-0.751400 Y0.474600 
G01 X-0.746800 Y0.479100 
G01 X-0.743200 Y0.484500 
G01 X-0.740800 Y0.490400 
G01 X-0.739500 Y0.496800 
G01 X-0.739500 Y0.503200 
G01 X-0.740800 Y0.509600 
G01 X-0.743200 Y0.515500 
G01 X-0.746800 Y0.520900 
G01 X-0.751400 Y0.525400 
G01 X-0.756700 Y0.529000 
G01 X-0.762700 Y0.531500 
G01 X-0.769000 Y0.532700 
G01 X-0.831000 Y0.532700 
G01 X-0.837300 Y0.531500 
G01 X-0.843300 Y0.529000 
G01 X-0.848600 Y0.525400 
G01 X-0.853200 Y0.520900 
G01 X-0.856800 Y0.515500 
G01 X-0.859200 Y0.509600 
G01 X-0.860500 Y0.503200 
G01 X-0.860500 Y0.496800 
G01 X-0.859200 Y0.490400 
G01 X-0.856800 Y0.484500 
G01 X-0.853200 Y0.479100 
G01 X-0.848600 Y0.474600 
G01 X-0.843300 Y0.471000 
G01 X-0.837300 Y0.468500 
G01 X-0.831000 Y0.467300 
G01 X-0.769000 Y0.467300 
G01 X-0.762700 Y0.468500 
G00 Z0.100000 
G00 X-0.762700 Y0.568500 
G01 Z-0.007000 F4.00  
G01 X-0.756700 Y0.571000 F10.00 
G01 X-0.751400 Y0.574600 
G01 X-0.746800 Y0.579100 
G01 X-0.743200 Y0.584500 
G01 X-0.740800 Y0.590400 
G01 X-0.739500 Y0.596800 
G01 X-0.739500 Y0.603200 
G01 X-0.740800 Y0.609600 
G01 X-0.743200 Y0.615500 
G01 X-0.746800 Y0.620900 
G01 X-0.751400 Y0.625400 
G01 X-0.756700 Y0.629000 
G01 X-0.762700 Y0.631500 
G01 X-0.769000 Y0.632700 
G01 X-0.831000 Y0.632700 
G01 X-0.837300 Y0.631500 
G01 X-0.843300 Y0.629000 
G01 X-0.848600 Y0.625400 
G01 X-0.853200 Y0.620900 
G01 X-0.856800 Y0.615500 
G01 X-0.859200 Y0.609600 
G01 X-0.860500 Y0.603200 
G01 X-0.860500 Y0.596800 
G01 X-0.859200 Y0.590400 
G01 X-0.856800 Y0.584500 
G01 X-0.853200 Y0.579100 
G01 X-0.848600 Y0.574600 
G01 X-0.843300 Y0.571000 
G01 X-0.837300 Y0.568500 
G01 X-0.831000 Y0.567300 
G01 X-0.769000 Y0.567300 
G01 X-0.762700 Y0.568500 
G00 Z0.100000 
G00 X-0.762700 Y0.668500 
G01 Z-0.007000 F4.00  
G01 X-0.756700 Y0.671000 F10.00 
G01 X-0.751400 Y0.674600 
G01 X-0.746800 Y0.679100 
G01 X-0.743200 Y0.684500 
G01 X-0.740800 Y0.690400 
G01 X-0.739500 Y0.696800 
G01 X-0.739500 Y0.703200 
G01 X-0.740800 Y0.709600 
G01 X-0.743200 Y0.715500 
G01 X-0.746800 Y0.720900 
G01 X-0.751400 Y0.725400 
G01 X-0.756700 Y0.729000 
G01 X-0.762700 Y0.731500 
G01 X-0.769000 Y0.732700 
G01 X-0.831000 Y0.732700 
G01 X-0.837300 Y0.731500 
G01 X-0.843300 Y0.729000 
G01 X-0.848600 Y0.725400 
G01 X-0.853200 Y0.720900 
G01 X-0.856800 Y0.715500 
G01 X-0.859200 Y0.709600 
G01 X-0.860500 Y0.703200 
G01 X-0.860500 Y0.696800 
G01 X-0.859200 Y0.690400 
G01 X-0.856800 Y0.684500 
G01 X-0.853200 Y0.679100 
G01 X-0.848600 Y0.674600 
G01 X-0.843300 Y0.671000 
G01 X-0.837300 Y0.668500 
G01 X-0.831000 Y0.667300 
G01 X-0.769000 Y0.667300 
G01 X-0.762700 Y0.668500 
G00 Z0.100000 
G00 X-0.762700 Y0.768500 
G01 Z-0.007000 F4.00  
G01 X-0.756700 Y0.771000 F10.00 
G01 X-0.751400 Y0.774600 
G01 X-0.746800 Y0.779100 
G01 X-0.743200 Y0.784500 
G01 X-0.740800 Y0.790400 
G01 X-0.739500 Y0.796800 
G01 X-0.739500 Y0.803200 
G01 X-0.740800 Y0.809600 
G01 X-0.743200 Y0.815500 
G01 X-0.746800 Y0.820900 
G01 X-0.751400 Y0.825400 
G01 X-0.756700 Y0.829000 
G01 X-0.762700 Y0.831500 
G01 X-0.769000 Y0.832700 
G01 X-0.831000 Y0.832700 
G01 X-0.837300 Y0.831500 
G01 X-0.840900 Y0.830000 
G01 X-0.937600 Y0.830000 
G01 X-1.030900 Y0.923300 
G01 X-1.035800 Y0.926600 
G01 X-1.041200 Y0.928800 
G01 X-1.047000 Y0.930000 
G01 X-1.209100 Y0.930000 
G01 X-1.212700 Y0.931500 
G01 X-1.219000 Y0.932700 
G01 X-1.281000 Y0.932700 
G01 X-1.287300 Y0.931500 
G01 X-1.293300 Y0.929000 
G01 X-1.298600 Y0.925400 
G01 X-1.303200 Y0.920900 
G01 X-1.306800 Y0.915500 
G01 X-1.309200 Y0.909600 
G01 X-1.310500 Y0.903200 
G01 X-1.310500 Y0.896800 
G01 X-1.309200 Y0.890400 
G01 X-1.306800 Y0.884500 
G01 X-1.303200 Y0.879100 
G01 X-1.298600 Y0.874600 
G01 X-1.293300 Y0.871000 
G01 X-1.287300 Y0.868500 
G01 X-1.281000 Y0.867300 
G01 X-1.219000 Y0.867300 
G01 X-1.212700 Y0.868500 
G01 X-1.209100 Y0.870000 
G01 X-1.062400 Y0.870000 
G01 X-0.973300 Y0.780900 
G01 X-0.969100 Y0.776700 
G01 X-0.964200 Y0.773400 
G01 X-0.958800 Y0.771200 
G01 X-0.953000 Y0.770000 
G01 X-0.840900 Y0.770000 
G01 X-0.837300 Y0.768500 
G01 X-0.831000 Y0.767300 
G01 X-0.769000 Y0.767300 
G01 X-0.762700 Y0.768500 
G00 Z0.100000 
G00 X-0.762700 Y0.868500 
G01 Z-0.007000 F4.00  
G01 X-0.756700 Y0.871000 F10.00 
G01 X-0.751400 Y0.874600 
G01 X-0.746800 Y0.879100 
G01 X-0.743200 Y0.884500 
G01 X-0.740800 Y0.890400 
G01 X-0.739500 Y0.896800 
G01 X-0.739500 Y0.903200 
G01 X-0.740800 Y0.909600 
G01 X-0.743200 Y0.915500 
G01 X-0.746800 Y0.920900 
G01 X-0.751400 Y0.925400 
G01 X-0.756700 Y0.929000 
G01 X-0.762700 Y0.931500 
G01 X-0.769000 Y0.932700 
G01 X-0.831000 Y0.932700 
G01 X-0.837300 Y0.931500 
G01 X-0.840900 Y0.930000 
G01 X-0.887600 Y0.930000 
G01 X-0.980900 Y1.023300 
G01 X-0.985800 Y1.026600 
G01 X-0.991200 Y1.028800 
G01 X-0.997000 Y1.030000 
G01 X-1.209100 Y1.030000 
G01 X-1.212700 Y1.031500 
G01 X-1.219000 Y1.032700 
G01 X-1.281000 Y1.032700 
G01 X-1.287300 Y1.031500 
G01 X-1.293300 Y1.029000 
G01 X-1.298600 Y1.025400 
G01 X-1.303200 Y1.020900 
G01 X-1.306800 Y1.015500 
G01 X-1.309200 Y1.009600 
G01 X-1.310500 Y1.003200 
G01 X-1.310500 Y0.996800 
G01 X-1.309200 Y0.990400 
G01 X-1.306800 Y0.984500 
G01 X-1.303200 Y0.979100 
G01 X-1.298600 Y0.974600 
G01 X-1.293300 Y0.971000 
G01 X-1.287300 Y0.968500 
G01 X-1.281000 Y0.967300 
G01 X-1.219000 Y0.967300 
G01 X-1.212700 Y0.968500 
G01 X-1.209100 Y0.970000 
G01 X-1.012400 Y0.970000 
G01 X-0.923300 Y0.880900 
G01 X-0.919100 Y0.876700 
G01 X-0.914200 Y0.873400 
G01 X-0.908800 Y0.871200 
G01 X-0.903000 Y0.870000 
G01 X-0.840900 Y0.870000 
G01 X-0.837300 Y0.868500 
G01 X-0.831000 Y0.867300 
G01 X-0.769000 Y0.867300 
G01 X-0.762700 Y0.868500 
G00 Z0.100000 
G00 X-0.762700 Y0.968500 
G01 Z-0.007000 F4.00  
G01 X-0.756700 Y0.971000 F10.00 
G01 X-0.751400 Y0.974600 
G01 X-0.746800 Y0.979100 
G01 X-0.743200 Y0.984500 
G01 X-0.740800 Y0.990400 
G01 X-0.739500 Y0.996800 
G01 X-0.739500 Y1.003200 
G01 X-0.740800 Y1.009600 
G01 X-0.743200 Y1.015500 
G01 X-0.746800 Y1.020900 
G01 X-0.751400 Y1.025400 
G01 X-0.756700 Y1.029000 
G01 X-0.762700 Y1.031500 
G01 X-0.769000 Y1.032700 
G01 X-0.831000 Y1.032700 
G01 X-0.837300 Y1.031500 
G01 X-0.843300 Y1.029000 
G01 X-0.848600 Y1.025400 
G01 X-0.853200 Y1.020900 
G01 X-0.856800 Y1.015500 
G01 X-0.859200 Y1.009600 
G01 X-0.860500 Y1.003200 
G01 X-0.860500 Y0.996800 
G01 X-0.859200 Y0.990400 
G01 X-0.856800 Y0.984500 
G01 X-0.853200 Y0.979100 
G01 X-0.848600 Y0.974600 
G01 X-0.843300 Y0.971000 
G01 X-0.837300 Y0.968500 
G01 X-0.831000 Y0.967300 
G01 X-0.769000 Y0.967300 
G01 X-0.762700 Y0.968500 
G00 Z0.100000 
G00 X-0.762700 Y1.068500 
G01 Z-0.007000 F4.00  
G01 X-0.756700 Y1.071000 F10.00 
G01 X-0.751400 Y1.074600 
G01 X-0.746800 Y1.079100 
G01 X-0.743200 Y1.084500 
G01 X-0.740800 Y1.090400 
G01 X-0.739500 Y1.096800 
G01 X-0.739500 Y1.103200 
G01 X-0.740800 Y1.109600 
G01 X-0.743200 Y1.115500 
G01 X-0.746800 Y1.120900 
G01 X-0.751400 Y1.125400 
G01 X-0.756700 Y1.129000 
G01 X-0.762700 Y1.131500 
G01 X-0.769000 Y1.132700 
G01 X-0.831000 Y1.132700 
G01 X-0.837300 Y1.131500 
G01 X-0.843300 Y1.129000 
G01 X-0.848600 Y1.125400 
G01 X-0.853200 Y1.120900 
G01 X-0.856800 Y1.115500 
G01 X-0.859200 Y1.109600 
G01 X-0.860500 Y1.103200 
G01 X-0.860500 Y1.096800 
G01 X-0.859200 Y1.090400 
G01 X-0.856800 Y1.084500 
G01 X-0.853200 Y1.079100 
G01 X-0.848600 Y1.074600 
G01 X-0.843300 Y1.071000 
G01 X-0.837300 Y1.068500 
G01 X-0.831000 Y1.067300 
G01 X-0.769000 Y1.067300 
G01 X-0.762700 Y1.068500 
G00 Z0.100000 
G00 X-0.762700 Y1.168500 
G01 Z-0.007000 F4.00  
G01 X-0.756700 Y1.171000 F10.00 
G01 X-0.751400 Y1.174600 
G01 X-0.746800 Y1.179100 
G01 X-0.743200 Y1.184500 
G01 X-0.740800 Y1.190400 
G01 X-0.739500 Y1.196800 
G01 X-0.739500 Y1.203200 
G01 X-0.740800 Y1.209600 
G01 X-0.743200 Y1.215500 
G01 X-0.746800 Y1.220900 
G01 X-0.751400 Y1.225400 
G01 X-0.756700 Y1.229000 
G01 X-0.762700 Y1.231500 
G01 X-0.769000 Y1.232700 
G01 X-0.831000 Y1.232700 
G01 X-0.837300 Y1.231500 
G01 X-0.843300 Y1.229000 
G01 X-0.848600 Y1.225400 
G01 X-0.853200 Y1.220900 
G01 X-0.856800 Y1.215500 
G01 X-0.859200 Y1.209600 
G01 X-0.860500 Y1.203200 
G01 X-0.860500 Y1.196800 
G01 X-0.859200 Y1.190400 
G01 X-0.856800 Y1.184500 
G01 X-0.853200 Y1.179100 
G01 X-0.848600 Y1.174600 
G01 X-0.843300 Y1.171000 
G01 X-0.837300 Y1.168500 
G01 X-0.831000 Y1.167300 
G01 X-0.769000 Y1.167300 
G01 X-0.762700 Y1.168500 
G00 Z0.100000 
G00 X-0.762700 Y1.268500 
G01 Z-0.007000 F4.00  
G01 X-0.756700 Y1.271000 F10.00 
G01 X-0.751400 Y1.274600 
G01 X-0.746800 Y1.279100 
G01 X-0.743200 Y1.284500 
G01 X-0.740800 Y1.290400 
G01 X-0.739500 Y1.296800 
G01 X-0.739500 Y1.303200 
G01 X-0.740800 Y1.309600 
G01 X-0.743200 Y1.315500 
G01 X-0.746800 Y1.320900 
G01 X-0.751400 Y1.325400 
G01 X-0.756700 Y1.329000 
G01 X-0.762700 Y1.331500 
G01 X-0.769000 Y1.332700 
G01 X-0.831000 Y1.332700 
G01 X-0.837300 Y1.331500 
G01 X-0.843300 Y1.329000 
G01 X-0.848600 Y1.325400 
G01 X-0.853200 Y1.320900 
G01 X-0.856800 Y1.315500 
G01 X-0.859200 Y1.309600 
G01 X-0.860500 Y1.303200 
G01 X-0.860500 Y1.296800 
G01 X-0.859200 Y1.290400 
G01 X-0.856800 Y1.284500 
G01 X-0.853200 Y1.279100 
G01 X-0.848600 Y1.274600 
G01 X-0.843300 Y1.271000 
G01 X-0.837300 Y1.268500 
G01 X-0.831000 Y1.267300 
G01 X-0.769000 Y1.267300 
G01 X-0.762700 Y1.268500 
G00 Z0.100000 
G00 X-0.762700 Y1.368500 
G01 Z-0.007000 F4.00  
G01 X-0.756700 Y1.371000 F10.00 
G01 X-0.751400 Y1.374600 
G01 X-0.746800 Y1.379100 
G01 X-0.743200 Y1.384500 
G01 X-0.740800 Y1.390400 
G01 X-0.739500 Y1.396800 
G01 X-0.739500 Y1.403200 
G01 X-0.740800 Y1.409600 
G01 X-0.743200 Y1.415500 
G01 X-0.746800 Y1.420900 
G01 X-0.751400 Y1.425400 
G01 X-0.756700 Y1.429000 
G01 X-0.762700 Y1.431500 
G01 X-0.769000 Y1.432700 
G01 X-0.831000 Y1.432700 
G01 X-0.837300 Y1.431500 
G01 X-0.843300 Y1.429000 
G01 X-0.848600 Y1.425400 
G01 X-0.853200 Y1.420900 
G01 X-0.856800 Y1.415500 
G01 X-0.859200 Y1.409600 
G01 X-0.860500 Y1.403200 
G01 X-0.860500 Y1.396800 
G01 X-0.859200 Y1.390400 
G01 X-0.856800 Y1.384500 
G01 X-0.853200 Y1.379100 
G01 X-0.848600 Y1.374600 
G01 X-0.843300 Y1.371000 
G01 X-0.837300 Y1.368500 
G01 X-0.831000 Y1.367300 
G01 X-0.769000 Y1.367300 
G01 X-0.762700 Y1.368500 
G00 Z0.100000 
G00 X-0.248600 Y1.374600 
G01 Z-0.007000 F4.00  
G01 X-0.243300 Y1.371000 F10.00 
G01 X-0.237300 Y1.368500 
G01 X-0.231000 Y1.367300 
G01 X-0.169000 Y1.367300 
G01 X-0.162700 Y1.368500 
G01 X-0.156700 Y1.371000 
G01 X-0.151400 Y1.374600 
G01 X-0.146800 Y1.379100 
G01 X-0.143200 Y1.384500 
G01 X-0.140800 Y1.390400 
G01 X-0.139500 Y1.396800 
G01 X-0.139500 Y1.403200 
G01 X-0.140800 Y1.409600 
G01 X-0.143200 Y1.415500 
G01 X-0.146800 Y1.420900 
G01 X-0.151400 Y1.425400 
G01 X-0.156700 Y1.429000 
G01 X-0.162700 Y1.431500 
G01 X-0.169000 Y1.432700 
G01 X-0.231000 Y1.432700 
G01 X-0.237300 Y1.431500 
G01 X-0.243300 Y1.429000 
G01 X-0.248600 Y1.425400 
G01 X-0.253200 Y1.420900 
G01 X-0.256800 Y1.415500 
G01 X-0.259200 Y1.409600 
G01 X-0.260500 Y1.403200 
G01 X-0.260500 Y1.396800 
G01 X-0.259200 Y1.390400 
G01 X-0.256800 Y1.384500 
G01 X-0.253200 Y1.379100 
G01 X-0.248600 Y1.374600 
G00 Z0.100000 
G00 X-0.248600 Y1.325400 
G01 Z-0.007000 F4.00  
G01 X-0.253200 Y1.320900 F10.00 
G01 X-0.256800 Y1.315500 
G01 X-0.259200 Y1.309600 
G01 X-0.260500 Y1.303200 
G01 X-0.260500 Y1.296800 
G01 X-0.259200 Y1.290400 
G01 X-0.256800 Y1.284500 
G01 X-0.253200 Y1.279100 
G01 X-0.248600 Y1.274600 
G01 X-0.243300 Y1.271000 
G01 X-0.237300 Y1.268500 
G01 X-0.231000 Y1.267300 
G01 X-0.169000 Y1.267300 
G01 X-0.162700 Y1.268500 
G01 X-0.156700 Y1.271000 
G01 X-0.151400 Y1.274600 
G01 X-0.146800 Y1.279100 
G01 X-0.143200 Y1.284500 
G01 X-0.140800 Y1.290400 
G01 X-0.139500 Y1.296800 
G01 X-0.139500 Y1.303200 
G01 X-0.140800 Y1.309600 
G01 X-0.143200 Y1.315500 
G01 X-0.146800 Y1.320900 
G01 X-0.151400 Y1.325400 
G01 X-0.156700 Y1.329000 
G01 X-0.162700 Y1.331500 
G01 X-0.169000 Y1.332700 
G01 X-0.231000 Y1.332700 
G01 X-0.237300 Y1.331500 
G01 X-0.243300 Y1.329000 
G01 X-0.248600 Y1.325400 
G00 Z0.100000 
G00 X-0.248600 Y1.225400 
G01 Z-0.007000 F4.00  
G01 X-0.253200 Y1.220900 F10.00 
G01 X-0.256800 Y1.215500 
G01 X-0.259200 Y1.209600 
G01 X-0.260500 Y1.203200 
G01 X-0.260500 Y1.196800 
G01 X-0.259200 Y1.190400 
G01 X-0.256800 Y1.184500 
G01 X-0.253200 Y1.179100 
G01 X-0.248600 Y1.174600 
G01 X-0.243300 Y1.171000 
G01 X-0.237300 Y1.168500 
G01 X-0.231000 Y1.167300 
G01 X-0.169000 Y1.167300 
G01 X-0.162700 Y1.168500 
G01 X-0.159100 Y1.170000 
G01 X-0.102200 Y1.170000 
G01 X-0.101500 Y1.169900 
G01 X-0.099300 Y1.170000 
G01 X-0.097000 Y1.170000 
G01 X-0.096300 Y1.170100 
G01 X-0.095600 Y1.170200 
G01 X-0.093400 Y1.170700 
G01 X-0.091200 Y1.171200 
G01 X-0.090600 Y1.171400 
G01 X-0.089900 Y1.171600 
G01 X-0.087800 Y1.172600 
G01 X-0.085800 Y1.173400 
G01 X-0.085200 Y1.173800 
G01 X-0.084500 Y1.174100 
G01 X-0.082700 Y1.175500 
G01 X-0.080900 Y1.176700 
G01 X-0.080400 Y1.177200 
G01 X-0.079800 Y1.177700 
G01 X-0.078300 Y1.179300 
G01 X-0.076700 Y1.180900 
G01 X-0.076300 Y1.181500 
G01 X-0.075800 Y1.182000 
G01 X-0.074700 Y1.183900 
G01 X-0.073400 Y1.185800 
G01 X-0.073100 Y1.186500 
G01 X-0.044700 Y1.233900 
G01 X-0.043400 Y1.235800 
G01 X-0.043100 Y1.236500 
G01 X-0.042800 Y1.237100 
G01 X-0.042000 Y1.239200 
G01 X-0.041200 Y1.241200 
G01 X-0.041000 Y1.242000 
G01 X-0.040800 Y1.242700 
G01 X-0.040400 Y1.244900 
G01 X-0.040000 Y1.247000 
G01 X-0.040000 Y1.247800 
G01 X-0.039900 Y1.248500 
G01 X-0.040000 Y1.250700 
G01 X-0.040000 Y1.599200 
G01 X-0.039900 Y1.601400 
G01 X-0.040000 Y1.602200 
G01 X-0.040000 Y1.603000 
G01 X-0.040400 Y1.605100 
G01 X-0.040700 Y1.607200 
G01 X-0.041000 Y1.608000 
G01 X-0.041200 Y1.608800 
G01 X-0.042000 Y1.610800 
G01 X-0.042700 Y1.612800 
G01 X-0.043100 Y1.613500 
G01 X-0.043400 Y1.614200 
G01 X-0.044600 Y1.616000 
G01 X-0.045700 Y1.617900 
G01 X-0.046300 Y1.618500 
G01 X-0.046700 Y1.619100 
G01 X-0.048200 Y1.620700 
G01 X-0.226300 Y1.818500 
G01 X-0.226700 Y1.819100 
G01 X-0.228200 Y1.820700 
G01 X-0.229700 Y1.822300 
G01 X-0.230300 Y1.822700 
G01 X-0.230900 Y1.823300 
G01 X-0.232700 Y1.824500 
G01 X-0.234400 Y1.825800 
G01 X-0.235100 Y1.826100 
G01 X-0.235800 Y1.826600 
G01 X-0.237800 Y1.827400 
G01 X-0.239700 Y1.828300 
G01 X-0.240500 Y1.828500 
G01 X-0.241200 Y1.828800 
G01 X-0.243400 Y1.829300 
G01 X-0.245500 Y1.829800 
G01 X-0.246300 Y1.829800 
G01 X-0.247000 Y1.830000 
G01 X-0.249200 Y1.830000 
G01 X-0.251400 Y1.830100 
G01 X-0.252200 Y1.830000 
G01 X-1.153000 Y1.830000 
G01 X-1.158800 Y1.828800 
G01 X-1.164200 Y1.826600 
G01 X-1.169100 Y1.823300 
G01 X-1.173300 Y1.819100 
G01 X-1.473300 Y1.519100 
G01 X-1.476600 Y1.514200 
G01 X-1.478800 Y1.508800 
G01 X-1.480000 Y1.503000 
G01 X-1.480000 Y0.797000 
G01 X-1.478800 Y0.791200 
G01 X-1.476600 Y0.785800 
G01 X-1.473300 Y0.780900 
G01 X-1.469100 Y0.776700 
G01 X-1.369100 Y0.676700 
G01 X-1.364200 Y0.673400 
G01 X-1.358800 Y0.671200 
G01 X-1.353000 Y0.670000 
G01 X-1.290900 Y0.670000 
G01 X-1.287300 Y0.668500 
G01 X-1.281000 Y0.667300 
G01 X-1.219000 Y0.667300 
G01 X-1.212700 Y0.668500 
G01 X-1.206700 Y0.671000 
G01 X-1.201400 Y0.674600 
G01 X-1.196800 Y0.679100 
G01 X-1.193200 Y0.684500 
G01 X-1.190800 Y0.690400 
G01 X-1.189500 Y0.696800 
G01 X-1.189500 Y0.703200 
G01 X-1.190800 Y0.709600 
G01 X-1.193200 Y0.715500 
G01 X-1.196800 Y0.720900 
G01 X-1.201400 Y0.725400 
G01 X-1.206700 Y0.729000 
G01 X-1.212700 Y0.731500 
G01 X-1.219000 Y0.732700 
G01 X-1.281000 Y0.732700 
G01 X-1.287300 Y0.731500 
G01 X-1.290900 Y0.730000 
G01 X-1.337600 Y0.730000 
G01 X-1.420000 Y0.812400 
G01 X-1.420000 Y1.487600 
G01 X-1.137600 Y1.770000 
G01 X-0.263400 Y1.770000 
G01 X-0.100000 Y1.588500 
G01 X-0.100000 Y1.258300 
G01 X-0.117000 Y1.230000 
G01 X-0.159100 Y1.230000 
G01 X-0.162700 Y1.231500 
G01 X-0.169000 Y1.232700 
G01 X-0.231000 Y1.232700 
G01 X-0.237300 Y1.231500 
G01 X-0.243300 Y1.229000 
G01 X-0.248600 Y1.225400 
G00 Z0.100000 
G00 X-0.248600 Y1.125400 
G01 Z-0.007000 F4.00  
G01 X-0.253200 Y1.120900 F10.00 
G01 X-0.256800 Y1.115500 
G01 X-0.259200 Y1.109600 
G01 X-0.260500 Y1.103200 
G01 X-0.260500 Y1.096800 
G01 X-0.259200 Y1.090400 
G01 X-0.256800 Y1.084500 
G01 X-0.253200 Y1.079100 
G01 X-0.248600 Y1.074600 
G01 X-0.243300 Y1.071000 
G01 X-0.237300 Y1.068500 
G01 X-0.231000 Y1.067300 
G01 X-0.169000 Y1.067300 
G01 X-0.162700 Y1.068500 
G01 X-0.156700 Y1.071000 
G01 X-0.151400 Y1.074600 
G01 X-0.146800 Y1.079100 
G01 X-0.143200 Y1.084500 
G01 X-0.140800 Y1.090400 
G01 X-0.139500 Y1.096800 
G01 X-0.139500 Y1.103200 
G01 X-0.140800 Y1.109600 
G01 X-0.143200 Y1.115500 
G01 X-0.146800 Y1.120900 
G01 X-0.151400 Y1.125400 
G01 X-0.156700 Y1.129000 
G01 X-0.162700 Y1.131500 
G01 X-0.169000 Y1.132700 
G01 X-0.231000 Y1.132700 
G01 X-0.237300 Y1.131500 
G01 X-0.243300 Y1.129000 
G01 X-0.248600 Y1.125400 
G00 Z0.100000 
G00 X-0.248600 Y1.025400 
G01 Z-0.007000 F4.00  
G01 X-0.253200 Y1.020900 F10.00 
G01 X-0.256800 Y1.015500 
G01 X-0.259200 Y1.009600 
G01 X-0.260500 Y1.003200 
G01 X-0.260500 Y0.996800 
G01 X-0.259200 Y0.990400 
G01 X-0.256800 Y0.984500 
G01 X-0.253200 Y0.979100 
G01 X-0.248600 Y0.974600 
G01 X-0.243300 Y0.971000 
G01 X-0.237300 Y0.968500 
G01 X-0.231000 Y0.967300 
G01 X-0.169000 Y0.967300 
G01 X-0.162700 Y0.968500 
G01 X-0.156700 Y0.971000 
G01 X-0.151400 Y0.974600 
G01 X-0.146800 Y0.979100 
G01 X-0.143200 Y0.984500 
G01 X-0.140800 Y0.990400 
G01 X-0.139500 Y0.996800 
G01 X-0.139500 Y1.003200 
G01 X-0.140800 Y1.009600 
G01 X-0.143200 Y1.015500 
G01 X-0.146800 Y1.020900 
G01 X-0.151400 Y1.025400 
G01 X-0.156700 Y1.029000 
G01 X-0.162700 Y1.031500 
G01 X-0.169000 Y1.032700 
G01 X-0.231000 Y1.032700 
G01 X-0.237300 Y1.031500 
G01 X-0.243300 Y1.029000 
G01 X-0.248600 Y1.025400 
G00 Z0.100000 
G00 X-0.248600 Y0.925400 
G01 Z-0.007000 F4.00  
G01 X-0.253200 Y0.920900 F10.00 
G01 X-0.256800 Y0.915500 
G01 X-0.259200 Y0.909600 
G01 X-0.260500 Y0.903200 
G01 X-0.260500 Y0.896800 
G01 X-0.259200 Y0.890400 
G01 X-0.256800 Y0.884500 
G01 X-0.253200 Y0.879100 
G01 X-0.248600 Y0.874600 
G01 X-0.243300 Y0.871000 
G01 X-0.237300 Y0.868500 
G01 X-0.231000 Y0.867300 
G01 X-0.169000 Y0.867300 
G01 X-0.162700 Y0.868500 
G01 X-0.156700 Y0.871000 
G01 X-0.151400 Y0.874600 
G01 X-0.146800 Y0.879100 
G01 X-0.143200 Y0.884500 
G01 X-0.140800 Y0.890400 
G01 X-0.139500 Y0.896800 
G01 X-0.139500 Y0.903200 
G01 X-0.140800 Y0.909600 
G01 X-0.143200 Y0.915500 
G01 X-0.146800 Y0.920900 
G01 X-0.151400 Y0.925400 
G01 X-0.156700 Y0.929000 
G01 X-0.162700 Y0.931500 
G01 X-0.169000 Y0.932700 
G01 X-0.231000 Y0.932700 
G01 X-0.237300 Y0.931500 
G01 X-0.243300 Y0.929000 
G01 X-0.248600 Y0.925400 
G00 Z0.100000 
G00 X-0.248600 Y0.825400 
G01 Z-0.007000 F4.00  
G01 X-0.253200 Y0.820900 F10.00 
G01 X-0.256800 Y0.815500 
G01 X-0.259200 Y0.809600 
G01 X-0.260500 Y0.803200 
G01 X-0.260500 Y0.796800 
G01 X-0.259200 Y0.790400 
G01 X-0.256800 Y0.784500 
G01 X-0.253200 Y0.779100 
G01 X-0.248600 Y0.774600 
G01 X-0.243300 Y0.771000 
G01 X-0.237300 Y0.768500 
G01 X-0.231000 Y0.767300 
G01 X-0.169000 Y0.767300 
G01 X-0.162700 Y0.768500 
G01 X-0.156700 Y0.771000 
G01 X-0.151400 Y0.774600 
G01 X-0.146800 Y0.779100 
G01 X-0.143200 Y0.784500 
G01 X-0.140800 Y0.790400 
G01 X-0.139500 Y0.796800 
G01 X-0.139500 Y0.803200 
G01 X-0.140800 Y0.809600 
G01 X-0.143200 Y0.815500 
G01 X-0.146800 Y0.820900 
G01 X-0.151400 Y0.825400 
G01 X-0.156700 Y0.829000 
G01 X-0.162700 Y0.831500 
G01 X-0.169000 Y0.832700 
G01 X-0.231000 Y0.832700 
G01 X-0.237300 Y0.831500 
G01 X-0.243300 Y0.829000 
G01 X-0.248600 Y0.825400 
G00 Z0.100000 
G00 X-0.248600 Y0.725400 
G01 Z-0.007000 F4.00  
G01 X-0.253200 Y0.720900 F10.00 
G01 X-0.256800 Y0.715500 
G01 X-0.259200 Y0.709600 
G01 X-0.260500 Y0.703200 
G01 X-0.260500 Y0.696800 
G01 X-0.259200 Y0.690400 
G01 X-0.256800 Y0.684500 
G01 X-0.253200 Y0.679100 
G01 X-0.248600 Y0.674600 
G01 X-0.243300 Y0.671000 
G01 X-0.237300 Y0.668500 
G01 X-0.231000 Y0.667300 
G01 X-0.169000 Y0.667300 
G01 X-0.162700 Y0.668500 
G01 X-0.156700 Y0.671000 
G01 X-0.151400 Y0.674600 
G01 X-0.146800 Y0.679100 
G01 X-0.143200 Y0.684500 
G01 X-0.140800 Y0.690400 
G01 X-0.139500 Y0.696800 
G01 X-0.139500 Y0.703200 
G01 X-0.140800 Y0.709600 
G01 X-0.143200 Y0.715500 
G01 X-0.146800 Y0.720900 
G01 X-0.151400 Y0.725400 
G01 X-0.156700 Y0.729000 
G01 X-0.162700 Y0.731500 
G01 X-0.169000 Y0.732700 
G01 X-0.231000 Y0.732700 
G01 X-0.237300 Y0.731500 
G01 X-0.243300 Y0.729000 
G01 X-0.248600 Y0.725400 
G00 Z0.100000 
G00 X-0.248600 Y0.625400 
G01 Z-0.007000 F4.00  
G01 X-0.253200 Y0.620900 F10.00 
G01 X-0.256800 Y0.615500 
G01 X-0.259200 Y0.609600 
G01 X-0.260500 Y0.603200 
G01 X-0.260500 Y0.596800 
G01 X-0.259200 Y0.590400 
G01 X-0.256800 Y0.584500 
G01 X-0.253200 Y0.579100 
G01 X-0.248600 Y0.574600 
G01 X-0.243300 Y0.571000 
G01 X-0.237300 Y0.568500 
G01 X-0.231000 Y0.567300 
G01 X-0.169000 Y0.567300 
G01 X-0.162700 Y0.568500 
G01 X-0.156700 Y0.571000 
G01 X-0.151400 Y0.574600 
G01 X-0.146800 Y0.579100 
G01 X-0.143200 Y0.584500 
G01 X-0.140800 Y0.590400 
G01 X-0.139500 Y0.596800 
G01 X-0.139500 Y0.603200 
G01 X-0.140800 Y0.609600 
G01 X-0.143200 Y0.615500 
G01 X-0.146800 Y0.620900 
G01 X-0.151400 Y0.625400 
G01 X-0.156700 Y0.629000 
G01 X-0.162700 Y0.631500 
G01 X-0.169000 Y0.632700 
G01 X-0.231000 Y0.632700 
G01 X-0.237300 Y0.631500 
G01 X-0.243300 Y0.629000 
G01 X-0.248600 Y0.625400 
G00 Z0.100000 
G00 X-0.248600 Y0.525400 
G01 Z-0.007000 F4.00  
G01 X-0.253200 Y0.520900 F10.00 
G01 X-0.256800 Y0.515500 
G01 X-0.259200 Y0.509600 
G01 X-0.260500 Y0.503200 
G01 X-0.260500 Y0.496800 
G01 X-0.259200 Y0.490400 
G01 X-0.256800 Y0.484500 
G01 X-0.253200 Y0.479100 
G01 X-0.248600 Y0.474600 
G01 X-0.243300 Y0.471000 
G01 X-0.237300 Y0.468500 
G01 X-0.231000 Y0.467300 
G01 X-0.169000 Y0.467300 
G01 X-0.162700 Y0.468500 
G01 X-0.156700 Y0.471000 
G01 X-0.151400 Y0.474600 
G01 X-0.146800 Y0.479100 
G01 X-0.143200 Y0.484500 
G01 X-0.140800 Y0.490400 
G01 X-0.139500 Y0.496800 
G01 X-0.139500 Y0.503200 
G01 X-0.140800 Y0.509600 
G01 X-0.143200 Y0.515500 
G01 X-0.146800 Y0.520900 
G01 X-0.151400 Y0.525400 
G01 X-0.156700 Y0.529000 
G01 X-0.162700 Y0.531500 
G01 X-0.169000 Y0.532700 
G01 X-0.231000 Y0.532700 
G01 X-0.237300 Y0.531500 
G01 X-0.243300 Y0.529000 
G01 X-0.248600 Y0.525400 
G00 Z0.100000 
G00 X-0.248600 Y0.425400 
G01 Z-0.007000 F4.00  
G01 X-0.253200 Y0.420900 F10.00 
G01 X-0.256800 Y0.415500 
G01 X-0.259200 Y0.409600 
G01 X-0.260500 Y0.403200 
G01 X-0.260500 Y0.396800 
G01 X-0.259200 Y0.390400 
G01 X-0.256800 Y0.384500 
G01 X-0.253200 Y0.379100 
G01 X-0.248600 Y0.374600 
G01 X-0.243300 Y0.371000 
G01 X-0.237300 Y0.368500 
G01 X-0.231000 Y0.367300 
G01 X-0.169000 Y0.367300 
G01 X-0.162700 Y0.368500 
G01 X-0.156700 Y0.371000 
G01 X-0.151400 Y0.374600 
G01 X-0.146800 Y0.379100 
G01 X-0.143200 Y0.384500 
G01 X-0.140800 Y0.390400 
G01 X-0.139500 Y0.396800 
G01 X-0.139500 Y0.403200 
G01 X-0.140800 Y0.409600 
G01 X-0.143200 Y0.415500 
G01 X-0.146800 Y0.420900 
G01 X-0.151400 Y0.425400 
G01 X-0.156700 Y0.429000 
G01 X-0.162700 Y0.431500 
G01 X-0.169000 Y0.432700 
G01 X-0.231000 Y0.432700 
G01 X-0.237300 Y0.431500 
G01 X-0.243300 Y0.429000 
G01 X-0.248600 Y0.425400 
G00 Z0.100000 
G00 X-0.240000 Y0.316600 
G01 Z-0.007000 F4.00  
G01 X-0.240000 Y0.283400 F10.00 
G01 X-0.216600 Y0.260000 
G01 X-0.183400 Y0.260000 
G01 X-0.160000 Y0.283400 
G01 X-0.160000 Y0.316600 
G01 X-0.183400 Y0.340000 
G01 X-0.216600 Y0.340000 
G01 X-0.240000 Y0.316600 
G00 Z0.100000 
G00 X-1.196800 Y0.579100 
G01 Z-0.007000 F4.00  
G01 X-1.193200 Y0.584500 F10.00 
G01 X-1.190800 Y0.590400 
G01 X-1.189500 Y0.596800 
G01 X-1.189500 Y0.603200 
G01 X-1.190800 Y0.609600 
G01 X-1.193200 Y0.615500 
G01 X-1.196800 Y0.620900 
G01 X-1.201400 Y0.625400 
G01 X-1.206700 Y0.629000 
G01 X-1.212700 Y0.631500 
G01 X-1.219000 Y0.632700 
G01 X-1.281000 Y0.632700 
G01 X-1.287300 Y0.631500 
G01 X-1.293300 Y0.629000 
G01 X-1.298600 Y0.625400 
G01 X-1.303200 Y0.620900 
G01 X-1.306800 Y0.615500 
G01 X-1.309200 Y0.609600 
G01 X-1.310500 Y0.603200 
G01 X-1.310500 Y0.596800 
G01 X-1.309200 Y0.590400 
G01 X-1.306800 Y0.584500 
G01 X-1.303200 Y0.579100 
G01 X-1.298600 Y0.574600 
G01 X-1.293300 Y0.571000 
G01 X-1.287300 Y0.568500 
G01 X-1.281000 Y0.567300 
G01 X-1.219000 Y0.567300 
G01 X-1.212700 Y0.568500 
G01 X-1.206700 Y0.571000 
G01 X-1.201400 Y0.574600 
G01 X-1.196800 Y0.579100 
G00 Z0.100000 
G00 X-1.196800 Y0.779100 
G01 Z-0.007000 F4.00  
G01 X-1.193200 Y0.784500 F10.00 
G01 X-1.190800 Y0.790400 
G01 X-1.189500 Y0.796800 
G01 X-1.189500 Y0.803200 
G01 X-1.190800 Y0.809600 
G01 X-1.193200 Y0.815500 
G01 X-1.196800 Y0.820900 
G01 X-1.201400 Y0.825400 
G01 X-1.206700 Y0.829000 
G01 X-1.212700 Y0.831500 
G01 X-1.219000 Y0.832700 
G01 X-1.281000 Y0.832700 
G01 X-1.287300 Y0.831500 
G01 X-1.293300 Y0.829000 
G01 X-1.298600 Y0.825400 
G01 X-1.303200 Y0.820900 
G01 X-1.306800 Y0.815500 
G01 X-1.309200 Y0.809600 
G01 X-1.310500 Y0.803200 
G01 X-1.310500 Y0.796800 
G01 X-1.309200 Y0.790400 
G01 X-1.306800 Y0.784500 
G01 X-1.303200 Y0.779100 
G01 X-1.298600 Y0.774600 
G01 X-1.293300 Y0.771000 
G01 X-1.287300 Y0.768500 
G01 X-1.281000 Y0.767300 
G01 X-1.219000 Y0.767300 
G01 X-1.212700 Y0.768500 
G01 X-1.206700 Y0.771000 
G01 X-1.201400 Y0.774600 
G01 X-1.196800 Y0.779100 
G00 Z0.100000 
G00 X-2.124500 Y0.731100 
G01 Z-0.007000 F4.00  
G01 X-2.183000 Y0.789600 F10.00 
G01 X-2.183000 Y0.827800 
G01 X-2.222200 Y0.867000 
G01 X-2.277800 Y0.867000 
G01 X-2.317000 Y0.827800 
G01 X-2.317000 Y0.789600 
G01 X-2.331100 Y0.775500 
G01 X-2.335400 Y0.768900 
G01 X-2.338500 Y0.761700 
G01 X-2.340000 Y0.753900 
G01 X-2.340000 Y0.446100 
G01 X-2.338500 Y0.438300 
G01 X-2.335400 Y0.431100 
G01 X-2.331100 Y0.424500 
G01 X-2.325500 Y0.418900 
G01 X-2.318900 Y0.414600 
G01 X-2.311700 Y0.411500 
G01 X-2.303900 Y0.410000 
G01 X-2.296100 Y0.410000 
G01 X-2.288300 Y0.411500 
G01 X-2.287200 Y0.412000 
G01 X-2.146300 Y0.412000 
G01 X-2.139600 Y0.413300 
G01 X-2.114700 Y0.413300 
G01 X-2.107600 Y0.414700 
G01 X-2.100900 Y0.417500 
G01 X-2.094900 Y0.421500 
G01 X-2.089800 Y0.426600 
G01 X-2.085800 Y0.432600 
G01 X-2.083000 Y0.439300 
G01 X-2.081600 Y0.446400 
G01 X-2.081600 Y0.453600 
G01 X-2.083000 Y0.460700 
G01 X-2.085800 Y0.467400 
G01 X-2.089800 Y0.473400 
G01 X-2.094900 Y0.478500 
G01 X-2.100900 Y0.482500 
G01 X-2.107600 Y0.485300 
G01 X-2.114700 Y0.486700 
G01 X-2.139600 Y0.486700 
G01 X-2.146300 Y0.488000 
G01 X-2.260000 Y0.488000 
G01 X-2.260000 Y0.733000 
G01 X-2.239600 Y0.733000 
G01 X-2.190000 Y0.683400 
G01 X-2.190000 Y0.585700 
G01 X-2.192400 Y0.585300 
G01 X-2.199100 Y0.582500 
G01 X-2.205100 Y0.578500 
G01 X-2.210200 Y0.573400 
G01 X-2.214200 Y0.567400 
G01 X-2.217000 Y0.560700 
G01 X-2.218400 Y0.553600 
G01 X-2.218400 Y0.546400 
G01 X-2.217000 Y0.539300 
G01 X-2.214200 Y0.532600 
G01 X-2.210200 Y0.526600 
G01 X-2.205100 Y0.521500 
G01 X-2.199100 Y0.517500 
G01 X-2.192400 Y0.514700 
G01 X-2.185300 Y0.513300 
G01 X-2.166000 Y0.513300 
G01 X-2.161700 Y0.511500 
G01 X-2.153900 Y0.510000 
G01 X-2.146100 Y0.510000 
G01 X-2.138300 Y0.511500 
G01 X-2.134000 Y0.513300 
G01 X-2.114700 Y0.513300 
G01 X-2.107600 Y0.514700 
G01 X-2.100900 Y0.517500 
G01 X-2.094900 Y0.521500 
G01 X-2.089800 Y0.526600 
G01 X-2.085800 Y0.532600 
G01 X-2.083000 Y0.539300 
G01 X-2.081600 Y0.546400 
G01 X-2.081600 Y0.553600 
G01 X-2.083000 Y0.560700 
G01 X-2.085800 Y0.567400 
G01 X-2.089800 Y0.573400 
G01 X-2.094900 Y0.578500 
G01 X-2.100900 Y0.582500 
G01 X-2.107600 Y0.585300 
G01 X-2.110000 Y0.585700 
G01 X-2.110000 Y0.703900 
G01 X-2.111500 Y0.711700 
G01 X-2.114600 Y0.718900 
G01 X-2.118900 Y0.725500 
G01 X-2.124500 Y0.731100 
G00 Z0.100000 
G00 X-2.183000 Y0.972200 
G01 Z-0.007000 F4.00  
G01 X-2.183000 Y1.027800 F10.00 
G01 X-2.193300 Y1.038000 
G01 X-2.174700 Y1.459200 
G01 X-2.172900 Y1.459800 
G01 X-2.166800 Y1.462900 
G01 X-2.161300 Y1.466900 
G01 X-2.156500 Y1.471700 
G01 X-2.152500 Y1.477300 
G01 X-2.149400 Y1.483300 
G01 X-2.147200 Y1.489800 
G01 X-2.146200 Y1.496600 
G01 X-2.146200 Y1.503400 
G01 X-2.147200 Y1.510200 
G01 X-2.149400 Y1.516700 
G01 X-2.152500 Y1.522700 
G01 X-2.156500 Y1.528300 
G01 X-2.161300 Y1.533100 
G01 X-2.166800 Y1.537100 
G01 X-2.172900 Y1.540200 
G01 X-2.179400 Y1.542300 
G01 X-2.186200 Y1.543400 
G01 X-2.194100 Y1.543400 
G01 X-2.197100 Y1.545700 
G01 X-2.204600 Y1.550000 
G01 X-2.212700 Y1.553000 
G01 X-2.221200 Y1.554800 
G01 X-2.229900 Y1.555100 
G01 X-2.238500 Y1.554200 
G01 X-2.246800 Y1.551900 
G01 X-2.254700 Y1.548300 
G01 X-2.261900 Y1.543500 
G01 X-2.262000 Y1.543400 
G01 X-2.269800 Y1.543400 
G01 X-2.276500 Y1.542300 
G01 X-2.283000 Y1.540200 
G01 X-2.289100 Y1.537100 
G01 X-2.294600 Y1.533100 
G01 X-2.299400 Y1.528300 
G01 X-2.303400 Y1.522700 
G01 X-2.306500 Y1.516700 
G01 X-2.308700 Y1.510200 
G01 X-2.309700 Y1.503400 
G01 X-2.309700 Y1.496600 
G01 X-2.308700 Y1.489800 
G01 X-2.306500 Y1.483300 
G01 X-2.303400 Y1.477300 
G01 X-2.299400 Y1.471700 
G01 X-2.294600 Y1.466900 
G01 X-2.289100 Y1.462900 
G01 X-2.284700 Y1.460700 
G01 X-2.303200 Y1.041500 
G01 X-2.317000 Y1.027800 
G01 X-2.317000 Y0.972200 
G01 X-2.277800 Y0.933000 
G01 X-2.222200 Y0.933000 
G01 X-2.183000 Y0.972200 
G00 Z0.100000 
G00 Z0.500000 
M05
M02
