(Generated By: Line Grinder Version: 01.04)
(Home Page: http://www.OfItselfSo.com/LineGrinder/LineGrinder.php)
(Generated from file: R:\home\jkao\projects\rfglow\eagle\RF Glow Stick\gerbers\RF Glow Stick.GKO)
(Date Generated: Monday, 06 October 2014 21:31)

(The Line Grinder software is released under the MIT License. There)
(is no warranty or guarantee that the GCode files it produces)
(are without error. You use it, and run its output code entirely)
(at your own risk. In particular: )

(THE LINE GRINDER SOFTWARE, AND THE OUTPUT CODE IT GENERATES, ARE )
(PROVIDED "AS IS", WITHOUT WARRANTY OF ANY KIND, EXPRESS OR )
(IMPLIED, INCLUDING BUT NOT LIMITED TO THE WARRANTIES OF )
(MERCHANTABILITY, FITNESS FOR A PARTICULAR PURPOSE AND )
(NONINFRINGEMENT. IN NO EVENT SHALL THE AUTHORS OR COPYRIGHT )
(HOLDERS BE LIABLE FOR ANY CLAIM, DAMAGES OR OTHER LIABILITY, )
(WHETHER IN AN ACTION OF CONTRACT, TORT OR OTHERWISE, ARISING )
(FROM, OUT OF OR IN CONNECTION WITH THE SOFTWARE OR ITS OUTPUT)
(OR FROM THE USE OR OTHER DEALINGS IN THE SOFTWARE. )

G20 (Use Inches)
G90 (Set Absolute Coordinates)
G17 (XY plane selection)
G00 Z0.25
G00 X0 Y0
TR,12000,1
'
'
'Turning router ON
SO,1,1
PAUSE 2

(... start ...)
G00 X11.568 Y6.605
G01 Z-0.1 F10
G01 X11.568 Y0.105 F60
G01 X0.068 Y0.105
G01 X0.068 Y6.605
G01 X11.568 Y6.605
(... pass ...)
G01 X11.318 Y6.355
G01 X11.318 Y0.355
G01 X0.318 Y0.355
G01 X0.318 Y6.355
G01 X11.318 Y6.355
(... pass ...)
G01 X11.068 Y6.105
G01 X11.068 Y0.605
G01 X0.568 Y0.605
G01 X0.568 Y6.105
G01 X11.068 Y6.105
(... pass ...)
G01 X10.818 Y5.855
G01 X10.818 Y0.855
G01 X0.818 Y0.855
G01 X0.818 Y5.855
G01 X10.818 Y5.855
(... pass ...)
G01 X10.568 Y5.605
G01 X10.568 Y1.105
G01 X1.068 Y1.105
G01 X1.068 Y5.605
G01 X10.568 Y5.605
(... pass ...)
G01 X10.318 Y5.355
G01 X10.318 Y1.355
G01 X1.318 Y1.355
G01 X1.318 Y5.355
G01 X10.318 Y5.355
(... pass ...)
G01 X10.068 Y5.105
G01 X10.068 Y1.605
G01 X1.568 Y1.605
G01 X1.568 Y5.105
G01 X10.068 Y5.105
(... pass ...)
G01 X9.818 Y4.855
G01 X9.818 Y1.855
G01 X1.818 Y1.855
G01 X1.818 Y4.855
G01 X9.818 Y4.855
(... pass ...)
G01 X9.568 Y4.605
G01 X9.568 Y2.105
G01 X2.068 Y2.105
G01 X2.068 Y4.605
G01 X9.568 Y4.605
(... pass ...)
G01 X9.318 Y4.355
G01 X9.318 Y2.355
G01 X2.318 Y2.355
G01 X2.318 Y4.355
G01 X9.318 Y4.355
(... pass ...)
G01 X9.068 Y4.105
G01 X9.068 Y2.605
G01 X2.568 Y2.605
G01 X2.568 Y4.105
G01 X9.068 Y4.105
(... pass ...)
G01 X8.818 Y3.855
G01 X8.818 Y2.855
G01 X2.818 Y2.855
G01 X2.818 Y3.855
G01 X8.818 Y3.855
(... pass ...)
G01 X8.568 Y3.605
G01 X8.568 Y3.105
G01 X3.068 Y3.105
G01 X3.068 Y3.605
G01 X8.568 Y3.605
G01 X8.318 Y3.355
G01 X3.318 Y3.355
(... end ...)
G00 Z0.25
G00 X0 Y0
M05 (Stop spindle)
M02 (Program End)

