(.../pcb-gcode-3.6.2.4/pcb-gcode.ulp)
(Copyright 2005 - 2012 by John Johnson)
(See readme.txt for licensing terms.)
(This file generated from the board:)
(.../RF Glow Stick/RF Glow Stick.brd)
(Current profile is .../pcb-gcode-3.6.2.4/profiles/generic.pp  )
(This file generated 10/7/14 11:32 PM)
(Settings from pcb-machine.h)
(spindle on time = 3.0000)
(  Tool Size)
(0.0080 )
(spindle speed = 15000.0000)
(tool change at 0.0000 0.0000 1.0000 )
(feed rate xy = F10.00 )
(feed rate z  = F4.00  )
(Z Axis Settings)
(  High     Up        Down     Drill)
(0.5000 	0.1000 	-0.0070 	-0.0450 )
(Settings from pcb-defaults.h)
(isolate min = 0.0010)
(isolate max = 0.0200)
(isolate step = 0.0050)
(Generated top outlines, top drill, bottom outlines, bottom drill, )
(Unit of measure: inch)
(Inch Mode)
G20
(Absolute Coordinates)
G90
TR,12000,1
'
'
'Turning router ON
SO,1,1
PAUSE 3

G00 Z0.5000 
G00 X0.0000 Y0.0000 
G00 Z0.1000 
G00 X0.0096 Y0.0120 
G01 Z-0.0070 F4.00  
G01 X0.0079 Y0.0150 F10.00 
G01 X0.0070 Y0.0183 
G01 X0.0070 Y0.4572 
G01 X0.0069 Y0.4579 
G01 X0.0070 Y0.4589 
G01 X0.0070 Y0.4600 
G01 X0.0072 Y0.4606 
G01 X0.0073 Y0.4613 
G01 X0.0076 Y0.4623 
G01 X0.0079 Y0.4633 
G01 X0.0082 Y0.4639 
G01 X0.0085 Y0.4645 
G01 X0.0091 Y0.4654 
G01 X0.0096 Y0.4662 
G01 X0.0101 Y0.4667 
G01 X0.0105 Y0.4673 
G01 X0.0113 Y0.4679 
G01 X0.0120 Y0.4687 
G01 X0.0126 Y0.4690 
G01 X0.0132 Y0.4694 
G01 X0.0141 Y0.4699 
G01 X0.0150 Y0.4704 
G01 X0.0156 Y0.4706 
G01 X0.0163 Y0.4708 
G01 X0.0173 Y0.4710 
G01 X0.0183 Y0.4713 
G01 X0.0190 Y0.4713 
G01 X0.0197 Y0.4714 
G01 X0.0207 Y0.4713 
G01 X0.0217 Y0.4713 
G01 X0.0224 Y0.4711 
G01 X0.0231 Y0.4710 
G01 X0.0240 Y0.4706 
G01 X0.0250 Y0.4704 
G01 X0.0256 Y0.4700 
G01 X0.0263 Y0.4698 
G01 X0.0271 Y0.4692 
G01 X0.0280 Y0.4687 
G01 X0.0285 Y0.4682 
G01 X0.0290 Y0.4678 
G01 X0.0297 Y0.4670 
G01 X0.0304 Y0.4662 
G01 X0.0307 Y0.4656 
G01 X0.0312 Y0.4651 
G01 X0.0316 Y0.4642 
G01 X0.0321 Y0.4633 
G01 X0.0323 Y0.4626 
G01 X0.0326 Y0.4620 
G01 X0.0327 Y0.4610 
G01 X0.0330 Y0.4600 
G01 X0.0319 Y0.4654 
G01 X0.0319 Y0.4722 
G01 X0.0333 Y0.4790 
G01 X0.0359 Y0.4854 
G01 X0.0397 Y0.4911 
G01 X0.0446 Y0.4960 
G01 X0.0504 Y0.4998 
G01 X0.0567 Y0.5025 
G01 X0.0635 Y0.5038 
G01 X0.0704 Y0.5038 
G01 X0.0771 Y0.5025 
G01 X0.0835 Y0.4998 
G01 X0.0875 Y0.4971 
G01 X0.0870 Y0.4978 
G01 X0.0862 Y0.4986 
G01 X0.0859 Y0.4992 
G01 X0.0855 Y0.4997 
G01 X0.0850 Y0.5006 
G01 X0.0845 Y0.5015 
G01 X0.0844 Y0.5022 
G01 X0.0841 Y0.5028 
G01 X0.0839 Y0.5038 
G01 X0.0836 Y0.5048 
G01 X0.0836 Y0.5055 
G01 X0.0835 Y0.5062 
G01 X0.0836 Y0.5072 
G01 X0.0836 Y0.5083 
G01 X0.0838 Y0.5089 
G01 X0.0839 Y0.5096 
G01 X0.0843 Y0.5106 
G01 X0.0845 Y0.5116 
G01 X0.0849 Y0.5122 
G01 X0.0851 Y0.5128 
G01 X0.0857 Y0.5136 
G01 X0.0862 Y0.5145 
G01 X0.0867 Y0.5150 
G01 X0.0871 Y0.5156 
G01 X0.0879 Y0.5162 
G01 X0.0983 Y0.5266 
G01 X0.1039 Y0.5402 
G01 X0.1039 Y0.5549 
G01 X0.0983 Y0.5685 
G01 X0.0903 Y0.5765 
G01 X0.0879 Y0.5789 
G01 X0.0862 Y0.5819 
G01 X0.0853 Y0.5852 
G01 X0.0853 Y0.5886 
G01 X0.0862 Y0.5919 
G01 X0.0879 Y0.5949 
G01 X0.0893 Y0.5963 
G01 X0.0897 Y0.5969 
G01 X0.0905 Y0.5975 
G01 X0.0913 Y0.5983 
G01 X0.0918 Y0.5986 
G01 X0.0923 Y0.5990 
G01 X0.0933 Y0.5995 
G01 X0.0942 Y0.6000 
G01 X0.0949 Y0.6002 
G01 X0.0955 Y0.6004 
G01 X0.0965 Y0.6006 
G01 X0.0975 Y0.6009 
G01 X0.0982 Y0.6009 
G01 X0.0988 Y0.6010 
G01 X0.0999 Y0.6009 
G01 X0.1010 Y0.6009 
G01 X0.1016 Y0.6007 
G01 X0.1838 Y0.5926 
G01 X0.1851 Y0.5925 
G01 X0.1855 Y0.5924 
G01 X0.1859 Y0.5924 
G01 X0.1871 Y0.5919 
G01 X0.1884 Y0.5915 
G01 X0.1887 Y0.5913 
G01 X0.1891 Y0.5912 
G01 X0.1902 Y0.5904 
G01 X0.1958 Y0.5868 
G01 X0.2901 Y0.5705 
G01 X0.2907 Y0.5705 
G01 X0.2918 Y0.5702 
G01 X0.2929 Y0.5700 
G01 X0.2934 Y0.5697 
G01 X0.2940 Y0.5696 
G01 X0.2950 Y0.5690 
G01 X0.2960 Y0.5686 
G01 X0.2964 Y0.5682 
G01 X0.2969 Y0.5679 
G01 X0.2977 Y0.5671 
G01 X0.2986 Y0.5664 
G01 X0.2990 Y0.5659 
G01 X0.3053 Y0.5595 
G01 X0.3174 Y0.5545 
G01 X0.3826 Y0.5545 
G01 X0.3947 Y0.5595 
G01 X0.4040 Y0.5688 
G01 X0.4090 Y0.5809 
G01 X0.4090 Y0.5941 
G01 X0.4040 Y0.6062 
G01 X0.3947 Y0.6155 
G01 X0.3826 Y0.6205 
G01 X0.3194 Y0.6205 
G01 X0.3183 Y0.6204 
G01 X0.3177 Y0.6205 
G01 X0.3171 Y0.6205 
G01 X0.3160 Y0.6208 
G01 X0.2050 Y0.6400 
G01 X0.1942 Y0.6376 
G01 X0.1935 Y0.6373 
G01 X0.1924 Y0.6368 
G01 X0.1919 Y0.6367 
G01 X0.1915 Y0.6366 
G01 X0.1902 Y0.6365 
G01 X0.1890 Y0.6363 
G01 X0.1885 Y0.6363 
G01 X0.1881 Y0.6363 
G01 X0.1868 Y0.6365 
G01 X0.1057 Y0.6445 
G01 X0.1047 Y0.6445 
G01 X0.1040 Y0.6447 
G01 X0.1034 Y0.6448 
G01 X0.1024 Y0.6451 
G01 X0.1014 Y0.6454 
G01 X0.1008 Y0.6457 
G01 X0.1002 Y0.6460 
G01 X0.0993 Y0.6466 
G01 X0.0984 Y0.6471 
G01 X0.0979 Y0.6476 
G01 X0.0974 Y0.6480 
G01 X0.0967 Y0.6488 
G01 X0.0880 Y0.6575 
G01 X0.0879 Y0.6577 
G01 X0.0862 Y0.6606 
G01 X0.0853 Y0.6638 
G01 X0.0853 Y0.6639 
G01 X0.0853 Y0.6674 
G01 X0.0862 Y0.6707 
G01 X0.0879 Y0.6736 
G01 X0.0880 Y0.6738 
G01 X0.0903 Y0.6761 
G01 X0.0951 Y0.6809 
G01 X0.0961 Y0.6819 
G01 X0.0963 Y0.6821 
G01 X0.0966 Y0.6823 
G01 X0.0978 Y0.6830 
G01 X0.0989 Y0.6838 
G01 X0.0992 Y0.6839 
G01 X0.0995 Y0.6841 
G01 X0.1009 Y0.6844 
G01 X0.1022 Y0.6848 
G01 X0.1025 Y0.6849 
G01 X0.1029 Y0.6849 
G01 X0.1042 Y0.6849 
G01 X0.2064 Y0.6903 
G01 X0.2079 Y0.6904 
G01 X0.2081 Y0.6904 
G01 X0.2083 Y0.6904 
G01 X0.2098 Y0.6901 
G01 X0.2861 Y0.6765 
G01 X0.2875 Y0.6763 
G01 X0.2877 Y0.6762 
G01 X0.2880 Y0.6762 
G01 X0.2893 Y0.6756 
G01 X0.2906 Y0.6750 
G01 X0.2909 Y0.6749 
G01 X0.2911 Y0.6747 
G01 X0.2922 Y0.6738 
G01 X0.2934 Y0.6729 
G01 X0.2935 Y0.6727 
G01 X0.2938 Y0.6725 
G01 X0.2946 Y0.6714 
G01 X0.2954 Y0.6702 
G01 X0.2955 Y0.6700 
G01 X0.2957 Y0.6697 
G01 X0.2961 Y0.6688 
G01 X0.3053 Y0.6595 
G01 X0.3174 Y0.6545 
G01 X0.3826 Y0.6545 
G01 X0.3947 Y0.6595 
G01 X0.4040 Y0.6688 
G01 X0.4090 Y0.6809 
G01 X0.4090 Y0.6941 
G01 X0.4040 Y0.7062 
G01 X0.3947 Y0.7155 
G01 X0.3826 Y0.7205 
G01 X0.3174 Y0.7205 
G01 X0.3140 Y0.7191 
G01 X0.3138 Y0.7189 
G01 X0.3125 Y0.7184 
G01 X0.3112 Y0.7179 
G01 X0.3109 Y0.7179 
G01 X0.3106 Y0.7178 
G01 X0.3092 Y0.7176 
G01 X0.3078 Y0.7175 
G01 X0.3075 Y0.7175 
G01 X0.3072 Y0.7175 
G01 X0.3058 Y0.7177 
G01 X0.3044 Y0.7179 
G01 X0.3041 Y0.7180 
G01 X0.2168 Y0.7335 
G01 X0.2157 Y0.7336 
G01 X0.2151 Y0.7338 
G01 X0.2145 Y0.7340 
G01 X0.2135 Y0.7344 
G01 X0.2127 Y0.7347 
G01 X0.2125 Y0.7347 
G01 X0.2110 Y0.7346 
G01 X0.2108 Y0.7346 
G01 X0.2106 Y0.7346 
G01 X0.2091 Y0.7349 
G01 X0.2090 Y0.7349 
G01 X0.2082 Y0.7347 
G01 X0.2071 Y0.7344 
G01 X0.2065 Y0.7344 
G01 X0.2059 Y0.7342 
G01 X0.2048 Y0.7343 
G01 X0.1029 Y0.7289 
G01 X0.1025 Y0.7288 
G01 X0.1012 Y0.7288 
G01 X0.0998 Y0.7288 
G01 X0.0994 Y0.7288 
G01 X0.0991 Y0.7288 
G01 X0.0978 Y0.7292 
G01 X0.0964 Y0.7295 
G01 X0.0961 Y0.7296 
G01 X0.0958 Y0.7297 
G01 X0.0946 Y0.7304 
G01 X0.0934 Y0.7310 
G01 X0.0931 Y0.7313 
G01 X0.0928 Y0.7314 
G01 X0.0919 Y0.7324 
G01 X0.0908 Y0.7333 
G01 X0.0907 Y0.7336 
G01 X0.0903 Y0.7340 
G01 X0.0879 Y0.7364 
G01 X0.0862 Y0.7394 
G01 X0.0853 Y0.7427 
G01 X0.0853 Y0.7461 
G01 X0.0862 Y0.7494 
G01 X0.0879 Y0.7524 
G01 X0.0944 Y0.7589 
G01 X0.0955 Y0.7600 
G01 X0.0956 Y0.7601 
G01 X0.0958 Y0.7603 
G01 X0.0971 Y0.7610 
G01 X0.0984 Y0.7618 
G01 X0.0986 Y0.7619 
G01 X0.0987 Y0.7620 
G01 X0.1002 Y0.7624 
G01 X0.1016 Y0.7628 
G01 X0.1019 Y0.7628 
G01 X0.1020 Y0.7629 
G01 X0.1036 Y0.7629 
G01 X0.1868 Y0.7654 
G01 X0.1870 Y0.7655 
G01 X0.1885 Y0.7655 
G01 X0.1900 Y0.7655 
G01 X0.1902 Y0.7655 
G01 X0.2957 Y0.7655 
G01 X0.2990 Y0.7646 
G01 X0.3012 Y0.7633 
G01 X0.3019 Y0.7629 
G01 X0.3043 Y0.7605 
G01 X0.3053 Y0.7595 
G01 X0.3174 Y0.7545 
G01 X0.3826 Y0.7545 
G01 X0.3947 Y0.7595 
G01 X0.4040 Y0.7688 
G01 X0.4090 Y0.7809 
G01 X0.4090 Y0.7941 
G01 X0.4040 Y0.8062 
G01 X0.3947 Y0.8155 
G01 X0.3826 Y0.8205 
G01 X0.3174 Y0.8205 
G01 X0.3053 Y0.8155 
G01 X0.3043 Y0.8145 
G01 X0.3019 Y0.8121 
G01 X0.3011 Y0.8116 
G01 X0.2990 Y0.8104 
G01 X0.2957 Y0.8095 
G01 X0.1956 Y0.8095 
G01 X0.1950 Y0.8094 
G01 X0.1939 Y0.8095 
G01 X0.1929 Y0.8095 
G01 X0.1924 Y0.8096 
G01 X0.1896 Y0.8096 
G01 X0.1894 Y0.8095 
G01 X0.1879 Y0.8095 
G01 X0.1863 Y0.8095 
G01 X0.1861 Y0.8095 
G01 X0.1833 Y0.8095 
G01 X0.1828 Y0.8093 
G01 X0.1818 Y0.8093 
G01 X0.1807 Y0.8092 
G01 X0.1801 Y0.8093 
G01 X0.1035 Y0.8069 
G01 X0.1033 Y0.8068 
G01 X0.1018 Y0.8068 
G01 X0.1002 Y0.8068 
G01 X0.1000 Y0.8068 
G01 X0.0998 Y0.8068 
G01 X0.0984 Y0.8072 
G01 X0.0969 Y0.8076 
G01 X0.0967 Y0.8077 
G01 X0.0965 Y0.8077 
G01 X0.0952 Y0.8085 
G01 X0.0939 Y0.8092 
G01 X0.0937 Y0.8093 
G01 X0.0936 Y0.8094 
G01 X0.0925 Y0.8105 
G01 X0.0914 Y0.8115 
G01 X0.0913 Y0.8117 
G01 X0.0903 Y0.8127 
G01 X0.0879 Y0.8151 
G01 X0.0862 Y0.8181 
G01 X0.0861 Y0.8183 
G01 X0.0853 Y0.8214 
G01 X0.0853 Y0.8248 
G01 X0.0862 Y0.8281 
G01 X0.0879 Y0.8311 
G01 X0.0881 Y0.8313 
G01 X0.0903 Y0.8335 
G01 X0.0983 Y0.8415 
G01 X0.1039 Y0.8551 
G01 X0.1039 Y0.8699 
G01 X0.0983 Y0.8835 
G01 X0.0903 Y0.8915 
G01 X0.0879 Y0.8939 
G01 X0.0862 Y0.8969 
G01 X0.0861 Y0.8970 
G01 X0.0853 Y0.9002 
G01 X0.0853 Y0.9036 
G01 X0.0862 Y0.9069 
G01 X0.0879 Y0.9099 
G01 X0.0881 Y0.9101 
G01 X0.0903 Y0.9123 
G01 X0.0983 Y0.9203 
G01 X0.1039 Y0.9339 
G01 X0.1039 Y0.9407 
G01 X0.1048 Y0.9440 
G01 X0.1065 Y0.9470 
G01 X0.1089 Y0.9494 
G01 X0.1119 Y0.9511 
G01 X0.1121 Y0.9512 
G01 X0.1152 Y0.9520 
G01 X0.1186 Y0.9520 
G01 X0.1219 Y0.9511 
G01 X0.1249 Y0.9494 
G01 X0.1251 Y0.9492 
G01 X0.1273 Y0.9470 
G01 X0.1375 Y0.9368 
G01 X0.2097 Y0.8646 
G01 X0.2196 Y0.8605 
G01 X0.2995 Y0.8605 
G01 X0.3004 Y0.8606 
G01 X0.3012 Y0.8605 
G01 X0.3021 Y0.8605 
G01 X0.3029 Y0.8603 
G01 X0.3038 Y0.8602 
G01 X0.3046 Y0.8598 
G01 X0.3054 Y0.8596 
G01 X0.3061 Y0.8592 
G01 X0.3174 Y0.8545 
G01 X0.3826 Y0.8545 
G01 X0.3947 Y0.8595 
G01 X0.4040 Y0.8688 
G01 X0.4090 Y0.8809 
G01 X0.4090 Y0.8941 
G01 X0.4040 Y0.9062 
G01 X0.3947 Y0.9155 
G01 X0.3826 Y0.9205 
G01 X0.3174 Y0.9205 
G01 X0.3061 Y0.9158 
G01 X0.3054 Y0.9154 
G01 X0.3046 Y0.9152 
G01 X0.3038 Y0.9148 
G01 X0.3029 Y0.9147 
G01 X0.3021 Y0.9145 
G01 X0.3012 Y0.9145 
G01 X0.3004 Y0.9144 
G01 X0.2995 Y0.9145 
G01 X0.2399 Y0.9145 
G01 X0.2366 Y0.9154 
G01 X0.2336 Y0.9171 
G01 X0.1820 Y0.9687 
G01 X0.1796 Y0.9711 
G01 X0.1779 Y0.9741 
G01 X0.1770 Y0.9774 
G01 X0.1770 Y1.0166 
G01 X0.1769 Y1.0175 
G01 X0.1770 Y1.0183 
G01 X0.1770 Y1.0192 
G01 X0.1772 Y1.0200 
G01 X0.1773 Y1.0209 
G01 X0.1777 Y1.0217 
G01 X0.1779 Y1.0225 
G01 X0.1783 Y1.0232 
G01 X0.1786 Y1.0240 
G01 X0.1792 Y1.0247 
G01 X0.1796 Y1.0255 
G01 X0.1802 Y1.0261 
G01 X0.1807 Y1.0267 
G01 X0.1814 Y1.0273 
G01 X0.1820 Y1.0279 
G01 X0.1828 Y1.0283 
G01 X0.1834 Y1.0288 
G01 X0.1842 Y1.0292 
G01 X0.1850 Y1.0296 
G01 X0.1858 Y1.0298 
G01 X0.1866 Y1.0301 
G01 X0.1875 Y1.0303 
G01 X0.1883 Y1.0305 
G01 X0.1891 Y1.0305 
G01 X0.1900 Y1.0306 
G01 X0.1909 Y1.0305 
G01 X0.1917 Y1.0305 
G01 X0.1925 Y1.0303 
G01 X0.1934 Y1.0301 
G01 X0.1942 Y1.0298 
G01 X0.1950 Y1.0296 
G01 X0.1958 Y1.0292 
G01 X0.1966 Y1.0288 
G01 X0.1972 Y1.0283 
G01 X0.1980 Y1.0279 
G01 X0.1986 Y1.0273 
G01 X0.1993 Y1.0267 
G01 X0.1998 Y1.0261 
G01 X0.2004 Y1.0255 
G01 X0.2008 Y1.0247 
G01 X0.2014 Y1.0240 
G01 X0.2017 Y1.0232 
G01 X0.2021 Y1.0225 
G01 X0.2022 Y1.0221 
G01 X0.2103 Y1.0140 
G01 X0.2597 Y0.9646 
G01 X0.2696 Y0.9605 
G01 X0.2995 Y0.9605 
G01 X0.3004 Y0.9606 
G01 X0.3012 Y0.9605 
G01 X0.3021 Y0.9605 
G01 X0.3029 Y0.9603 
G01 X0.3038 Y0.9602 
G01 X0.3046 Y0.9598 
G01 X0.3054 Y0.9596 
G01 X0.3061 Y0.9592 
G01 X0.3174 Y0.9545 
G01 X0.3826 Y0.9545 
G01 X0.3947 Y0.9595 
G01 X0.4040 Y0.9688 
G01 X0.4090 Y0.9809 
G01 X0.4090 Y0.9941 
G01 X0.4040 Y1.0062 
G01 X0.3947 Y1.0155 
G01 X0.3826 Y1.0205 
G01 X0.3174 Y1.0205 
G01 X0.3061 Y1.0158 
G01 X0.3054 Y1.0154 
G01 X0.3046 Y1.0152 
G01 X0.3038 Y1.0148 
G01 X0.3029 Y1.0147 
G01 X0.3021 Y1.0145 
G01 X0.3012 Y1.0145 
G01 X0.3004 Y1.0144 
G01 X0.2995 Y1.0145 
G01 X0.2899 Y1.0145 
G01 X0.2866 Y1.0154 
G01 X0.2836 Y1.0171 
G01 X0.2812 Y1.0195 
G01 X0.2570 Y1.0437 
G01 X0.2546 Y1.0461 
G01 X0.2529 Y1.0491 
G01 X0.2520 Y1.0524 
G01 X0.2520 Y1.1100 
G01 X0.2519 Y1.1108 
G01 X0.2520 Y1.1117 
G01 X0.2520 Y1.1125 
G01 X0.2522 Y1.1134 
G01 X0.2523 Y1.1142 
G01 X0.2527 Y1.1150 
G01 X0.2529 Y1.1159 
G01 X0.2533 Y1.1166 
G01 X0.2536 Y1.1174 
G01 X0.2542 Y1.1181 
G01 X0.2546 Y1.1188 
G01 X0.2552 Y1.1194 
G01 X0.2557 Y1.1201 
G01 X0.2564 Y1.1206 
G01 X0.2570 Y1.1212 
G01 X0.2577 Y1.1217 
G01 X0.2584 Y1.1222 
G01 X0.2592 Y1.1225 
G01 X0.2600 Y1.1229 
G01 X0.2608 Y1.1232 
G01 X0.2888 Y1.1349 
G01 X0.2896 Y1.1353 
G01 X0.2904 Y1.1355 
G01 X0.2912 Y1.1358 
G01 X0.2921 Y1.1359 
G01 X0.2929 Y1.1362 
G01 X0.2938 Y1.1362 
G01 X0.2946 Y1.1363 
G01 X0.2955 Y1.1362 
G01 X0.2963 Y1.1362 
G01 X0.2972 Y1.1360 
G01 X0.2980 Y1.1358 
G01 X0.2988 Y1.1355 
G01 X0.2996 Y1.1353 
G01 X0.3004 Y1.1349 
G01 X0.3012 Y1.1345 
G01 X0.3018 Y1.1340 
G01 X0.3026 Y1.1336 
G01 X0.3032 Y1.1330 
G01 X0.3039 Y1.1325 
G01 X0.3044 Y1.1318 
G01 X0.3050 Y1.1312 
G01 X0.3054 Y1.1304 
G01 X0.3060 Y1.1298 
G01 X0.3063 Y1.1290 
G01 X0.3067 Y1.1282 
G01 X0.3070 Y1.1274 
G01 X0.3073 Y1.1266 
G01 X0.3074 Y1.1257 
G01 X0.3076 Y1.1249 
G01 X0.3076 Y1.1240 
G01 X0.3077 Y1.1232 
G01 X0.3076 Y1.1223 
G01 X0.3076 Y1.1215 
G01 X0.3074 Y1.1206 
G01 X0.3073 Y1.1198 
G01 X0.3070 Y1.1190 
G01 X0.3067 Y1.1182 
G01 X0.3063 Y1.1174 
G01 X0.3060 Y1.1166 
G01 X0.3055 Y1.1159 
G01 X0.3050 Y1.1152 
G01 X0.3044 Y1.1146 
G01 X0.3039 Y1.1139 
G01 X0.3032 Y1.1134 
G01 X0.2960 Y1.1062 
G01 X0.2910 Y1.0941 
G01 X0.2910 Y1.0809 
G01 X0.2960 Y1.0688 
G01 X0.3053 Y1.0595 
G01 X0.3174 Y1.0545 
G01 X0.3826 Y1.0545 
G01 X0.3947 Y1.0595 
G01 X0.4040 Y1.0688 
G01 X0.4090 Y1.0809 
G01 X0.4090 Y1.0941 
G01 X0.4040 Y1.1062 
G01 X0.3947 Y1.1155 
G01 X0.3826 Y1.1205 
G01 X0.3203 Y1.1205 
G01 X0.3194 Y1.1204 
G01 X0.3186 Y1.1205 
G01 X0.3177 Y1.1205 
G01 X0.3169 Y1.1207 
G01 X0.3160 Y1.1208 
G01 X0.3152 Y1.1212 
G01 X0.3144 Y1.1214 
G01 X0.3136 Y1.1218 
G01 X0.3129 Y1.1221 
G01 X0.3122 Y1.1227 
G01 X0.3114 Y1.1231 
G01 X0.3108 Y1.1237 
G01 X0.3101 Y1.1242 
G01 X0.3096 Y1.1249 
G01 X0.3090 Y1.1255 
G01 X0.3086 Y1.1262 
G01 X0.3081 Y1.1269 
G01 X0.3077 Y1.1277 
G01 X0.3073 Y1.1285 
G01 X0.3071 Y1.1293 
G01 X0.3067 Y1.1301 
G01 X0.3066 Y1.1309 
G01 X0.3064 Y1.1318 
G01 X0.3064 Y1.1326 
G01 X0.3063 Y1.1335 
G01 X0.3064 Y1.1343 
G01 X0.3064 Y1.1352 
G01 X0.3066 Y1.1360 
G01 X0.3067 Y1.1369 
G01 X0.3071 Y1.1377 
G01 X0.3073 Y1.1385 
G01 X0.3077 Y1.1392 
G01 X0.3080 Y1.1400 
G01 X0.3086 Y1.1407 
G01 X0.3090 Y1.1415 
G01 X0.3096 Y1.1421 
G01 X0.3101 Y1.1428 
G01 X0.3108 Y1.1433 
G01 X0.3114 Y1.1439 
G01 X0.3121 Y1.1443 
G01 X0.3128 Y1.1448 
G01 X0.3136 Y1.1452 
G01 X0.3144 Y1.1456 
G01 X0.3152 Y1.1458 
G01 X0.5403 Y1.2396 
G01 X0.5479 Y1.2473 
G01 X0.5520 Y1.2572 
G01 X0.5520 Y1.2679 
G01 X0.5508 Y1.2708 
G01 X0.5502 Y1.2722 
G01 X0.5501 Y1.2724 
G01 X0.5499 Y1.2740 
G01 X0.5497 Y1.2756 
G01 X0.5497 Y1.2758 
G01 X0.5499 Y1.2774 
G01 X0.5579 Y1.3472 
G01 X0.5579 Y1.3482 
G01 X0.5581 Y1.3489 
G01 X0.5582 Y1.3496 
G01 X0.5585 Y1.3505 
G01 X0.5588 Y1.3515 
G01 X0.5591 Y1.3521 
G01 X0.5594 Y1.3528 
G01 X0.5600 Y1.3536 
G01 X0.5605 Y1.3544 
G01 X0.5610 Y1.3550 
G01 X0.5615 Y1.3556 
G01 X0.5622 Y1.3562 
G01 X0.5629 Y1.3568 
G01 X0.5636 Y1.3572 
G01 X0.5641 Y1.3577 
G01 X0.5650 Y1.3581 
G01 X0.5659 Y1.3586 
G01 X0.5666 Y1.3587 
G01 X0.5673 Y1.3590 
G01 X0.5682 Y1.3592 
G01 X0.5692 Y1.3594 
G01 X0.5699 Y1.3594 
G01 X0.5707 Y1.3595 
G01 X0.5716 Y1.3594 
G01 X0.5726 Y1.3594 
G01 X0.5733 Y1.3592 
G01 X0.5741 Y1.3592 
G01 X0.5750 Y1.3588 
G01 X0.5759 Y1.3586 
G01 X0.5766 Y1.3582 
G01 X0.5773 Y1.3579 
G01 X0.5780 Y1.3573 
G01 X0.5789 Y1.3568 
G01 X0.5794 Y1.3563 
G01 X0.5800 Y1.3559 
G01 X0.5806 Y1.3551 
G01 X0.5852 Y1.3505 
G01 X0.6510 Y1.3505 
G01 X0.6551 Y1.3546 
G01 X0.6551 Y1.4204 
G01 X0.6510 Y1.4245 
G01 X0.5852 Y1.4245 
G01 X0.5804 Y1.4196 
G01 X0.5779 Y1.4172 
G01 X0.5750 Y1.4155 
G01 X0.5718 Y1.4147 
G01 X0.5717 Y1.4146 
G01 X0.5682 Y1.4146 
G01 X0.5649 Y1.4155 
G01 X0.5620 Y1.4172 
G01 X0.5603 Y1.4189 
G01 X0.5467 Y1.4245 
G01 X0.5320 Y1.4245 
G01 X0.5184 Y1.4189 
G01 X0.5104 Y1.4109 
G01 X0.5080 Y1.4084 
G01 X0.5050 Y1.4067 
G01 X0.5049 Y1.4067 
G01 X0.5017 Y1.4058 
G01 X0.4983 Y1.4058 
G01 X0.4950 Y1.4067 
G01 X0.4920 Y1.4084 
G01 X0.4918 Y1.4086 
G01 X0.4896 Y1.4109 
G01 X0.4816 Y1.4189 
G01 X0.4680 Y1.4245 
G01 X0.4533 Y1.4245 
G01 X0.4397 Y1.4189 
G01 X0.4317 Y1.4109 
G01 X0.4292 Y1.4084 
G01 X0.4263 Y1.4067 
G01 X0.4231 Y1.4059 
G01 X0.4230 Y1.4058 
G01 X0.4195 Y1.4058 
G01 X0.4162 Y1.4067 
G01 X0.4133 Y1.4084 
G01 X0.4028 Y1.4189 
G01 X0.3892 Y1.4245 
G01 X0.3745 Y1.4245 
G01 X0.3609 Y1.4189 
G01 X0.3505 Y1.4085 
G01 X0.3449 Y1.3949 
G01 X0.3449 Y1.3801 
G01 X0.3505 Y1.3665 
G01 X0.3609 Y1.3561 
G01 X0.3745 Y1.3505 
G01 X0.3892 Y1.3505 
G01 X0.4028 Y1.3561 
G01 X0.4098 Y1.3631 
G01 X0.4104 Y1.3639 
G01 X0.4110 Y1.3643 
G01 X0.4116 Y1.3649 
G01 X0.4124 Y1.3654 
G01 X0.4131 Y1.3659 
G01 X0.4139 Y1.3662 
G01 X0.4146 Y1.3666 
G01 X0.4155 Y1.3668 
G01 X0.4163 Y1.3672 
G01 X0.4171 Y1.3673 
G01 X0.4179 Y1.3675 
G01 X0.4188 Y1.3675 
G01 X0.4197 Y1.3676 
G01 X0.4205 Y1.3675 
G01 X0.4213 Y1.3675 
G01 X0.4222 Y1.3673 
G01 X0.4231 Y1.3671 
G01 X0.4238 Y1.3668 
G01 X0.4246 Y1.3666 
G01 X0.4254 Y1.3661 
G01 X0.4263 Y1.3658 
G01 X0.4269 Y1.3653 
G01 X0.4276 Y1.3649 
G01 X0.4282 Y1.3642 
G01 X0.4290 Y1.3637 
G01 X0.4294 Y1.3630 
G01 X0.4300 Y1.3625 
G01 X0.4305 Y1.3617 
G01 X0.4310 Y1.3609 
G01 X0.4313 Y1.3602 
G01 X0.4317 Y1.3595 
G01 X0.4319 Y1.3586 
G01 X0.4323 Y1.3578 
G01 X0.4324 Y1.3570 
G01 X0.4326 Y1.3562 
G01 X0.4326 Y1.3553 
G01 X0.4327 Y1.3544 
G01 X0.4326 Y1.3536 
G01 X0.4326 Y1.3528 
G01 X0.4324 Y1.3519 
G01 X0.4312 Y1.3435 
G01 X0.4312 Y1.3431 
G01 X0.4309 Y1.3418 
G01 X0.4307 Y1.3405 
G01 X0.4306 Y1.3401 
G01 X0.4305 Y1.3398 
G01 X0.4299 Y1.3386 
G01 X0.4294 Y1.3374 
G01 X0.4292 Y1.3370 
G01 X0.4290 Y1.3367 
G01 X0.4281 Y1.3357 
G01 X0.4273 Y1.3347 
G01 X0.4270 Y1.3344 
G01 X0.4267 Y1.3341 
G01 X0.4256 Y1.3334 
G01 X0.4246 Y1.3326 
G01 X0.4242 Y1.3325 
G01 X0.4238 Y1.3322 
G01 X0.4226 Y1.3318 
G01 X0.4214 Y1.3313 
G01 X0.4210 Y1.3313 
G01 X0.1489 Y1.2406 
G01 X0.1485 Y1.2404 
G01 X0.1473 Y1.2400 
G01 X0.1460 Y1.2396 
G01 X0.1456 Y1.2396 
G01 X0.1452 Y1.2395 
G01 X0.1446 Y1.2395 
G01 X0.1421 Y1.2385 
G01 X0.1417 Y1.2382 
G01 X0.1406 Y1.2378 
G01 X0.1394 Y1.2373 
G01 X0.1389 Y1.2373 
G01 X0.1364 Y1.2364 
G01 X0.1359 Y1.2360 
G01 X0.1356 Y1.2359 
G01 X0.1353 Y1.2356 
G01 X0.1347 Y1.2354 
G01 X0.1328 Y1.2335 
G01 X0.1325 Y1.2331 
G01 X0.1316 Y1.2323 
G01 X0.1307 Y1.2314 
G01 X0.1303 Y1.2312 
G01 X0.1283 Y1.2294 
G01 X0.1280 Y1.2288 
G01 X0.1277 Y1.2286 
G01 X0.1275 Y1.2282 
G01 X0.1271 Y1.2278 
G01 X0.1261 Y1.2253 
G01 X0.1260 Y1.2248 
G01 X0.1254 Y1.2237 
G01 X0.1249 Y1.2226 
G01 X0.1247 Y1.2222 
G01 X0.1234 Y1.2198 
G01 X0.1234 Y1.2192 
G01 X0.1233 Y1.2188 
G01 X0.1232 Y1.2184 
G01 X0.1230 Y1.2179 
G01 X0.1230 Y1.2152 
G01 X0.1231 Y1.2147 
G01 X0.1230 Y1.2135 
G01 X0.1230 Y1.2122 
G01 X0.1229 Y1.2118 
G01 X0.1227 Y1.2091 
G01 X0.1229 Y1.2085 
G01 X0.1229 Y1.2081 
G01 X0.1230 Y1.2077 
G01 X0.1230 Y1.2064 
G01 X0.1231 Y1.2051 
G01 X0.1230 Y1.2048 
G01 X0.1231 Y1.2041 
G01 X0.1230 Y1.2033 
G01 X0.1230 Y1.2024 
G01 X0.1228 Y1.2016 
G01 X0.1227 Y1.2007 
G01 X0.1223 Y1.1999 
G01 X0.1221 Y1.1991 
G01 X0.1217 Y1.1984 
G01 X0.1214 Y1.1976 
G01 X0.1208 Y1.1969 
G01 X0.1204 Y1.1962 
G01 X0.1198 Y1.1955 
G01 X0.1193 Y1.1949 
G01 X0.1186 Y1.1943 
G01 X0.1180 Y1.1937 
G01 X0.1172 Y1.1933 
G01 X0.1166 Y1.1928 
G01 X0.1158 Y1.1924 
G01 X0.1150 Y1.1920 
G01 X0.1142 Y1.1918 
G01 X0.1134 Y1.1915 
G01 X0.1125 Y1.1914 
G01 X0.1117 Y1.1911 
G01 X0.1109 Y1.1911 
G01 X0.1100 Y1.1910 
G01 X0.1091 Y1.1911 
G01 X0.1083 Y1.1911 
G01 X0.1075 Y1.1914 
G01 X0.1066 Y1.1915 
G01 X0.1058 Y1.1918 
G01 X0.1050 Y1.1920 
G01 X0.1042 Y1.1924 
G01 X0.1034 Y1.1928 
G01 X0.1028 Y1.1933 
G01 X0.1020 Y1.1937 
G01 X0.1014 Y1.1943 
G01 X0.1007 Y1.1949 
G01 X0.1002 Y1.1955 
G01 X0.0996 Y1.1962 
G01 X0.0992 Y1.1969 
G01 X0.0986 Y1.1976 
G01 X0.0983 Y1.1984 
G01 X0.0879 Y1.2088 
G01 X0.0743 Y1.2145 
G01 X0.0596 Y1.2145 
G01 X0.0460 Y1.2088 
G01 X0.0356 Y1.1984 
G01 X0.0323 Y1.1906 
G01 X0.0321 Y1.1898 
G01 X0.0317 Y1.1891 
G01 X0.0314 Y1.1883 
G01 X0.0308 Y1.1876 
G01 X0.0304 Y1.1868 
G01 X0.0298 Y1.1862 
G01 X0.0293 Y1.1855 
G01 X0.0286 Y1.1850 
G01 X0.0280 Y1.1844 
G01 X0.0272 Y1.1840 
G01 X0.0266 Y1.1835 
G01 X0.0258 Y1.1831 
G01 X0.0250 Y1.1827 
G01 X0.0242 Y1.1825 
G01 X0.0234 Y1.1822 
G01 X0.0225 Y1.1820 
G01 X0.0217 Y1.1818 
G01 X0.0209 Y1.1818 
G01 X0.0200 Y1.1817 
G01 X0.0191 Y1.1818 
G01 X0.0183 Y1.1818 
G01 X0.0175 Y1.1820 
G01 X0.0166 Y1.1822 
G01 X0.0158 Y1.1825 
G01 X0.0150 Y1.1827 
G01 X0.0142 Y1.1831 
G01 X0.0134 Y1.1835 
G01 X0.0128 Y1.1840 
G01 X0.0120 Y1.1844 
G01 X0.0114 Y1.1850 
G01 X0.0107 Y1.1855 
G01 X0.0102 Y1.1862 
G01 X0.0096 Y1.1868 
G01 X0.0092 Y1.1876 
G01 X0.0086 Y1.1883 
G01 X0.0083 Y1.1891 
G01 X0.0079 Y1.1898 
G01 X0.0077 Y1.1906 
G01 X0.0073 Y1.1914 
G01 X0.0072 Y1.1923 
G01 X0.0070 Y1.1931 
G01 X0.0070 Y1.1940 
G01 X0.0069 Y1.1948 
G01 X0.0070 Y1.1957 
G01 X0.0070 Y1.8942 
G01 X0.0079 Y1.8975 
G01 X0.0096 Y1.9005 
G01 X0.0120 Y1.9029 
G01 X0.0150 Y1.9046 
G01 X0.0183 Y1.9055 
G01 X0.9817 Y1.9055 
G01 X0.9850 Y1.9046 
G01 X0.9880 Y1.9029 
G01 X0.9904 Y1.9005 
G01 X0.9921 Y1.8975 
G01 X0.9930 Y1.8942 
G01 X0.9930 Y1.1957 
G01 X0.9931 Y1.1948 
G01 X0.9930 Y1.1940 
G01 X0.9930 Y1.1931 
G01 X0.9928 Y1.1923 
G01 X0.9927 Y1.1914 
G01 X0.9923 Y1.1906 
G01 X0.9921 Y1.1898 
G01 X0.9917 Y1.1891 
G01 X0.9914 Y1.1883 
G01 X0.9908 Y1.1876 
G01 X0.9904 Y1.1868 
G01 X0.9898 Y1.1862 
G01 X0.9893 Y1.1855 
G01 X0.9886 Y1.1850 
G01 X0.9880 Y1.1844 
G01 X0.9872 Y1.1840 
G01 X0.9866 Y1.1835 
G01 X0.9858 Y1.1831 
G01 X0.9850 Y1.1827 
G01 X0.9842 Y1.1825 
G01 X0.9834 Y1.1822 
G01 X0.9825 Y1.1820 
G01 X0.9817 Y1.1818 
G01 X0.9809 Y1.1818 
G01 X0.9800 Y1.1817 
G01 X0.9791 Y1.1818 
G01 X0.9783 Y1.1818 
G01 X0.9775 Y1.1820 
G01 X0.9766 Y1.1822 
G01 X0.9758 Y1.1825 
G01 X0.9750 Y1.1827 
G01 X0.9742 Y1.1831 
G01 X0.9734 Y1.1835 
G01 X0.9728 Y1.1840 
G01 X0.9720 Y1.1844 
G01 X0.9714 Y1.1850 
G01 X0.9707 Y1.1855 
G01 X0.9702 Y1.1862 
G01 X0.9696 Y1.1868 
G01 X0.9692 Y1.1876 
G01 X0.9686 Y1.1883 
G01 X0.9683 Y1.1891 
G01 X0.9679 Y1.1898 
G01 X0.9677 Y1.1906 
G01 X0.9644 Y1.1984 
G01 X0.9553 Y1.2075 
G01 X0.9547 Y1.2080 
G01 X0.9541 Y1.2087 
G01 X0.9535 Y1.2094 
G01 X0.9531 Y1.2101 
G01 X0.9526 Y1.2107 
G01 X0.9522 Y1.2116 
G01 X0.9518 Y1.2124 
G01 X0.9515 Y1.2131 
G01 X0.9512 Y1.2139 
G01 X0.9511 Y1.2148 
G01 X0.9509 Y1.2157 
G01 X0.9509 Y1.2165 
G01 X0.9504 Y1.2195 
G01 X0.9502 Y1.2212 
G01 X0.9500 Y1.2229 
G01 X0.9502 Y1.2246 
G01 X0.9504 Y1.2263 
G01 X0.9511 Y1.2279 
G01 X0.9517 Y1.2294 
G01 X0.9520 Y1.2302 
G01 X0.9520 Y1.6554 
G01 X0.9479 Y1.6653 
G01 X0.9397 Y1.6735 
G01 X0.7961 Y1.8171 
G01 X0.7956 Y1.8174 
G01 X0.7949 Y1.8183 
G01 X0.7941 Y1.8191 
G01 X0.7938 Y1.8196 
G01 X0.7922 Y1.8215 
G01 X0.7914 Y1.8219 
G01 X0.7912 Y1.8221 
G01 X0.7909 Y1.8223 
G01 X0.7903 Y1.8229 
G01 X0.7880 Y1.8239 
G01 X0.7874 Y1.8240 
G01 X0.7864 Y1.8245 
G01 X0.7853 Y1.8249 
G01 X0.7849 Y1.8253 
G01 X0.7826 Y1.8264 
G01 X0.7818 Y1.8265 
G01 X0.7815 Y1.8266 
G01 X0.7812 Y1.8267 
G01 X0.7804 Y1.8270 
G01 X0.7779 Y1.8270 
G01 X0.7773 Y1.8269 
G01 X0.7761 Y1.8270 
G01 X0.7750 Y1.8270 
G01 X0.7744 Y1.8271 
G01 X0.7163 Y1.8321 
G01 X0.7160 Y1.8320 
G01 X0.7146 Y1.8322 
G01 X0.7132 Y1.8324 
G01 X0.7129 Y1.8325 
G01 X0.7126 Y1.8325 
G01 X0.7113 Y1.8330 
G01 X0.7100 Y1.8335 
G01 X0.7097 Y1.8337 
G01 X0.7094 Y1.8338 
G01 X0.7083 Y1.8347 
G01 X0.7072 Y1.8355 
G01 X0.7070 Y1.8357 
G01 X0.7067 Y1.8359 
G01 X0.7059 Y1.8370 
G01 X0.7051 Y1.8379 
G01 X0.6920 Y1.8510 
G01 X0.6754 Y1.8579 
G01 X0.5805 Y1.8579 
G01 X0.5639 Y1.8510 
G01 X0.5511 Y1.8382 
G01 X0.5442 Y1.8215 
G01 X0.5442 Y1.8035 
G01 X0.5511 Y1.7868 
G01 X0.5639 Y1.7740 
G01 X0.5805 Y1.7671 
G01 X0.6754 Y1.7671 
G01 X0.6920 Y1.7740 
G01 X0.6924 Y1.7744 
G01 X0.6927 Y1.7749 
G01 X0.6936 Y1.7756 
G01 X0.6945 Y1.7764 
G01 X0.6949 Y1.7767 
G01 X0.6954 Y1.7771 
G01 X0.6964 Y1.7776 
G01 X0.6974 Y1.7781 
G01 X0.6980 Y1.7783 
G01 X0.6985 Y1.7785 
G01 X0.6996 Y1.7787 
G01 X0.7007 Y1.7790 
G01 X0.7013 Y1.7790 
G01 X0.7018 Y1.7791 
G01 X0.7030 Y1.7790 
G01 X0.7041 Y1.7790 
G01 X0.7047 Y1.7789 
G01 X0.7576 Y1.7744 
G01 X0.7588 Y1.7744 
G01 X0.7593 Y1.7742 
G01 X0.7599 Y1.7742 
G01 X0.7609 Y1.7738 
G01 X0.7621 Y1.7735 
G01 X0.7626 Y1.7732 
G01 X0.7631 Y1.7730 
G01 X0.7640 Y1.7724 
G01 X0.7650 Y1.7718 
G01 X0.7654 Y1.7714 
G01 X0.7659 Y1.7711 
G01 X0.7666 Y1.7702 
G01 X0.8930 Y1.6438 
G01 X0.8954 Y1.6414 
G01 X0.8971 Y1.6384 
G01 X0.8980 Y1.6351 
G01 X0.8980 Y1.2302 
G01 X0.9021 Y1.2202 
G01 X0.9023 Y1.2200 
G01 X0.9027 Y1.2193 
G01 X0.9032 Y1.2187 
G01 X0.9036 Y1.2178 
G01 X0.9040 Y1.2171 
G01 X0.9042 Y1.2163 
G01 X0.9046 Y1.2155 
G01 X0.9047 Y1.2146 
G01 X0.9049 Y1.2138 
G01 X0.9049 Y1.2129 
G01 X0.9053 Y1.2102 
G01 X0.9055 Y1.2093 
G01 X0.9055 Y1.2085 
G01 X0.9056 Y1.2077 
G01 X0.9055 Y1.2068 
G01 X0.9055 Y1.2059 
G01 X0.9053 Y1.2051 
G01 X0.9052 Y1.2043 
G01 X0.9049 Y1.2035 
G01 X0.9046 Y1.2026 
G01 X0.9042 Y1.2019 
G01 X0.9039 Y1.2012 
G01 X0.9034 Y1.2004 
G01 X0.9029 Y1.1996 
G01 X0.9024 Y1.1991 
G01 X0.9019 Y1.1984 
G01 X0.9016 Y1.1982 
G01 X0.8961 Y1.1848 
G01 X0.8961 Y1.1701 
G01 X0.9017 Y1.1565 
G01 X0.9097 Y1.1485 
G01 X0.9121 Y1.1461 
G01 X0.9138 Y1.1431 
G01 X0.9147 Y1.1399 
G01 X0.9147 Y1.1398 
G01 X0.9147 Y1.1364 
G01 X0.9138 Y1.1331 
G01 X0.9121 Y1.1301 
G01 X0.9017 Y1.1197 
G01 X0.8961 Y1.1061 
G01 X0.8961 Y1.0914 
G01 X0.9017 Y1.0778 
G01 X0.9097 Y1.0698 
G01 X0.9121 Y1.0673 
G01 X0.9138 Y1.0644 
G01 X0.9147 Y1.0612 
G01 X0.9147 Y1.0611 
G01 X0.9147 Y1.0576 
G01 X0.9138 Y1.0543 
G01 X0.9121 Y1.0514 
G01 X0.9017 Y1.0409 
G01 X0.8961 Y1.0273 
G01 X0.8961 Y1.0126 
G01 X0.9017 Y0.9990 
G01 X0.9097 Y0.9910 
G01 X0.9121 Y0.9886 
G01 X0.9138 Y0.9856 
G01 X0.9147 Y0.9825 
G01 X0.9147 Y0.9823 
G01 X0.9147 Y0.9789 
G01 X0.9138 Y0.9756 
G01 X0.9121 Y0.9726 
G01 X0.9017 Y0.9622 
G01 X0.8961 Y0.9486 
G01 X0.8961 Y0.9339 
G01 X0.9017 Y0.9203 
G01 X0.9097 Y0.9123 
G01 X0.9121 Y0.9099 
G01 X0.9138 Y0.9069 
G01 X0.9147 Y0.9037 
G01 X0.9147 Y0.9036 
G01 X0.9147 Y0.9002 
G01 X0.9138 Y0.8969 
G01 X0.9121 Y0.8939 
G01 X0.9017 Y0.8835 
G01 X0.8961 Y0.8699 
G01 X0.8961 Y0.8551 
G01 X0.9017 Y0.8415 
G01 X0.9097 Y0.8335 
G01 X0.9121 Y0.8311 
G01 X0.9138 Y0.8281 
G01 X0.9147 Y0.8250 
G01 X0.9147 Y0.8248 
G01 X0.9147 Y0.8214 
G01 X0.9138 Y0.8181 
G01 X0.9121 Y0.8151 
G01 X0.9017 Y0.8047 
G01 X0.8961 Y0.7911 
G01 X0.8961 Y0.7764 
G01 X0.9017 Y0.7628 
G01 X0.9097 Y0.7548 
G01 X0.9121 Y0.7524 
G01 X0.9138 Y0.7494 
G01 X0.9147 Y0.7462 
G01 X0.9147 Y0.7461 
G01 X0.9147 Y0.7427 
G01 X0.9138 Y0.7394 
G01 X0.9121 Y0.7364 
G01 X0.9017 Y0.7260 
G01 X0.8961 Y0.7124 
G01 X0.8961 Y0.6977 
G01 X0.9017 Y0.6841 
G01 X0.9097 Y0.6761 
G01 X0.9121 Y0.6736 
G01 X0.9138 Y0.6707 
G01 X0.9147 Y0.6675 
G01 X0.9147 Y0.6674 
G01 X0.9147 Y0.6639 
G01 X0.9138 Y0.6606 
G01 X0.9121 Y0.6577 
G01 X0.9017 Y0.6472 
G01 X0.8961 Y0.6336 
G01 X0.8961 Y0.6189 
G01 X0.9017 Y0.6053 
G01 X0.9097 Y0.5973 
G01 X0.9121 Y0.5949 
G01 X0.9138 Y0.5919 
G01 X0.9147 Y0.5888 
G01 X0.9147 Y0.5886 
G01 X0.9147 Y0.5852 
G01 X0.9138 Y0.5819 
G01 X0.9121 Y0.5789 
G01 X0.9017 Y0.5685 
G01 X0.8961 Y0.5549 
G01 X0.8961 Y0.5402 
G01 X0.9017 Y0.5266 
G01 X0.9097 Y0.5186 
G01 X0.9121 Y0.5162 
G01 X0.9138 Y0.5132 
G01 X0.9147 Y0.5100 
G01 X0.9147 Y0.5099 
G01 X0.9147 Y0.5065 
G01 X0.9138 Y0.5032 
G01 X0.9121 Y0.5002 
G01 X0.9017 Y0.4898 
G01 X0.8961 Y0.4762 
G01 X0.8961 Y0.4614 
G01 X0.9017 Y0.4478 
G01 X0.9121 Y0.4374 
G01 X0.9257 Y0.4318 
G01 X0.9404 Y0.4318 
G01 X0.9540 Y0.4374 
G01 X0.9644 Y0.4478 
G01 X0.9677 Y0.4556 
G01 X0.9679 Y0.4565 
G01 X0.9683 Y0.4572 
G01 X0.9686 Y0.4580 
G01 X0.9692 Y0.4587 
G01 X0.9696 Y0.4594 
G01 X0.9702 Y0.4600 
G01 X0.9707 Y0.4607 
G01 X0.9714 Y0.4612 
G01 X0.9720 Y0.4618 
G01 X0.9728 Y0.4623 
G01 X0.9734 Y0.4628 
G01 X0.9742 Y0.4631 
G01 X0.9750 Y0.4636 
G01 X0.9758 Y0.4638 
G01 X0.9766 Y0.4641 
G01 X0.9775 Y0.4642 
G01 X0.9783 Y0.4644 
G01 X0.9791 Y0.4644 
G01 X0.9800 Y0.4646 
G01 X0.9809 Y0.4644 
G01 X0.9817 Y0.4644 
G01 X0.9825 Y0.4642 
G01 X0.9834 Y0.4641 
G01 X0.9842 Y0.4638 
G01 X0.9850 Y0.4636 
G01 X0.9858 Y0.4631 
G01 X0.9866 Y0.4628 
G01 X0.9872 Y0.4623 
G01 X0.9880 Y0.4618 
G01 X0.9886 Y0.4612 
G01 X0.9893 Y0.4607 
G01 X0.9898 Y0.4600 
G01 X0.9904 Y0.4594 
G01 X0.9908 Y0.4587 
G01 X0.9914 Y0.4580 
G01 X0.9917 Y0.4572 
G01 X0.9921 Y0.4565 
G01 X0.9923 Y0.4556 
G01 X0.9927 Y0.4548 
G01 X0.9928 Y0.4540 
G01 X0.9930 Y0.4532 
G01 X0.9930 Y0.4523 
G01 X0.9931 Y0.4514 
G01 X0.9930 Y0.4506 
G01 X0.9930 Y0.0183 
G01 X0.9921 Y0.0150 
G01 X0.9904 Y0.0120 
G01 X0.9880 Y0.0096 
G01 X0.9850 Y0.0079 
G01 X0.9817 Y0.0070 
G01 X0.0183 Y0.0070 
G01 X0.0150 Y0.0079 
G01 X0.0120 Y0.0096 
G01 X0.0096 Y0.0120 
G00 Z0.1000 
G00 X0.2174 Y0.1008 
G01 Z-0.0070 F4.00  
G01 X0.2826 Y0.1008 F10.00 
G01 X0.2867 Y0.1049 
G01 X0.2867 Y0.1701 
G01 X0.2826 Y0.1742 
G01 X0.2174 Y0.1742 
G01 X0.2133 Y0.1701 
G01 X0.2133 Y0.1049 
G01 X0.2174 Y0.1008 
G00 Z0.1000 
G00 X0.2175 Y0.1036 
G01 Z-0.0070 F4.00  
G01 X0.2161 Y0.1050 F10.00 
G01 X0.2153 Y0.1068 
G01 X0.2153 Y0.1682 
G01 X0.2161 Y0.1700 
G01 X0.2175 Y0.1714 
G01 X0.2193 Y0.1722 
G01 X0.2807 Y0.1722 
G01 X0.2825 Y0.1714 
G01 X0.2839 Y0.1700 
G01 X0.2847 Y0.1682 
G01 X0.2847 Y0.1068 
G01 X0.2839 Y0.1050 
G01 X0.2825 Y0.1036 
G01 X0.2807 Y0.1028 
G01 X0.2193 Y0.1028 
G01 X0.2175 Y0.1036 
G00 Z0.1000 
G00 X0.3163 Y0.1047 
G01 Z-0.0070 F4.00  
G01 X0.3172 Y0.1038 F10.00 
G01 X0.3163 Y0.1047 
G00 Z0.1000 
G00 X0.3158 Y0.1056 
G01 Z-0.0070 F4.00  
G01 X0.3156 Y0.1062 F10.00 
G01 X0.3157 Y0.1059 
G01 X0.3158 Y0.1056 
G00 Z0.1000 
G00 X0.3153 Y0.1072 
G01 Z-0.0070 F4.00  
G01 X0.3153 Y0.1227 F10.00 
G01 X0.3153 Y0.1072 
G00 Z0.1000 
G00 X0.3181 Y0.1033 
G01 Z-0.0070 F4.00  
G01 X0.3184 Y0.1032 F10.00 
G01 X0.3187 Y0.1031 
G01 X0.3181 Y0.1033 
G00 Z0.1000 
G00 X0.3197 Y0.1028 
G01 Z-0.0070 F4.00  
G01 X0.3197 Y0.1028 F10.00 
G01 X0.3352 Y0.1028 
G01 X0.3197 Y0.1028 
G00 Z0.1000 
G00 X0.3648 Y0.1028 
G01 Z-0.0070 F4.00  
G01 X0.3648 Y0.1028 F10.00 
G01 X0.3803 Y0.1028 
G01 X0.3648 Y0.1028 
G00 Z0.1000 
G00 X0.3813 Y0.1031 
G01 Z-0.0070 F4.00  
G01 X0.3816 Y0.1032 F10.00 
G01 X0.3819 Y0.1033 
G01 X0.3813 Y0.1031 
G00 Z0.1000 
G00 X0.3828 Y0.1038 
G01 Z-0.0070 F4.00  
G01 X0.3828 Y0.1038 F10.00 
G01 X0.3837 Y0.1047 
G01 X0.3828 Y0.1038 
G00 Z0.1000 
G00 X0.3842 Y0.1056 
G01 Z-0.0070 F4.00  
G01 X0.3843 Y0.1059 F10.00 
G01 X0.3844 Y0.1062 
G01 X0.3842 Y0.1056 
G00 Z0.1000 
G00 X0.3847 Y0.1072 
G01 Z-0.0070 F4.00  
G01 X0.3847 Y0.1072 F10.00 
G01 X0.3847 Y0.1227 
G01 X0.3847 Y0.1072 
G00 Z0.1000 
G00 X0.4133 Y0.1049 
G01 Z-0.0070 F4.00  
G01 X0.4174 Y0.1008 F10.00 
G01 X0.4826 Y0.1008 
G01 X0.4867 Y0.1049 
G01 X0.4867 Y0.1701 
G01 X0.4826 Y0.1742 
G01 X0.4174 Y0.1742 
G01 X0.4133 Y0.1701 
G01 X0.4133 Y0.1049 
G00 Z0.1000 
G00 X0.4161 Y0.1050 
G01 Z-0.0070 F4.00  
G01 X0.4153 Y0.1068 F10.00 
G01 X0.4153 Y0.1682 
G01 X0.4161 Y0.1700 
G01 X0.4175 Y0.1714 
G01 X0.4193 Y0.1722 
G01 X0.4807 Y0.1722 
G01 X0.4825 Y0.1714 
G01 X0.4839 Y0.1700 
G01 X0.4847 Y0.1682 
G01 X0.4847 Y0.1068 
G01 X0.4839 Y0.1050 
G01 X0.4825 Y0.1036 
G01 X0.4807 Y0.1028 
G01 X0.4193 Y0.1028 
G01 X0.4175 Y0.1036 
G01 X0.4161 Y0.1050 
G00 Z0.1000 
G00 X0.3847 Y0.1523 
G01 Z-0.0070 F4.00  
G01 X0.3847 Y0.1678 F10.00 
G01 X0.3847 Y0.1523 
G00 Z0.1000 
G00 X0.3844 Y0.1688 
G01 Z-0.0070 F4.00  
G01 X0.3843 Y0.1691 F10.00 
G01 X0.3842 Y0.1694 
G01 X0.3844 Y0.1688 
G00 Z0.1000 
G00 X0.3837 Y0.1703 
G01 Z-0.0070 F4.00  
G01 X0.3837 Y0.1703 F10.00 
G01 X0.3828 Y0.1712 
G01 X0.3837 Y0.1703 
G00 Z0.1000 
G00 X0.3819 Y0.1717 
G01 Z-0.0070 F4.00  
G01 X0.3816 Y0.1718 F10.00 
G01 X0.3813 Y0.1719 
G01 X0.3819 Y0.1717 
G00 Z0.1000 
G00 X0.3803 Y0.1722 
G01 Z-0.0070 F4.00  
G01 X0.3803 Y0.1722 F10.00 
G01 X0.3648 Y0.1722 
G01 X0.3803 Y0.1722 
G00 Z0.1000 
G00 X0.3352 Y0.1722 
G01 Z-0.0070 F4.00  
G01 X0.3197 Y0.1722 F10.00 
G01 X0.3352 Y0.1722 
G00 Z0.1000 
G00 X0.3187 Y0.1719 
G01 Z-0.0070 F4.00  
G01 X0.3184 Y0.1718 F10.00 
G01 X0.3181 Y0.1717 
G01 X0.3187 Y0.1719 
G00 Z0.1000 
G00 X0.3172 Y0.1712 
G01 Z-0.0070 F4.00  
G01 X0.3172 Y0.1712 F10.00 
G01 X0.3163 Y0.1703 
G01 X0.3172 Y0.1712 
G00 Z0.1000 
G00 X0.3158 Y0.1694 
G01 Z-0.0070 F4.00  
G01 X0.3157 Y0.1691 F10.00 
G01 X0.3156 Y0.1688 
G01 X0.3158 Y0.1694 
G00 Z0.1000 
G00 X0.3153 Y0.1678 
G01 Z-0.0070 F4.00  
G01 X0.3153 Y0.1678 F10.00 
G01 X0.3153 Y0.1523 
G01 X0.3153 Y0.1678 
G00 Z0.1000 
G00 X0.5133 Y0.1701 
G01 Z-0.0070 F4.00  
G01 X0.5133 Y0.1049 F10.00 
G01 X0.5174 Y0.1008 
G01 X0.5826 Y0.1008 
G01 X0.5867 Y0.1049 
G01 X0.5867 Y0.1701 
G01 X0.5820 Y0.1748 
G01 X0.5796 Y0.1772 
G01 X0.5779 Y0.1801 
G01 X0.5770 Y0.1833 
G01 X0.5770 Y0.1834 
G01 X0.5770 Y0.2297 
G01 X0.5769 Y0.2301 
G01 X0.5770 Y0.2314 
G01 X0.5770 Y0.2327 
G01 X0.5771 Y0.2331 
G01 X0.5771 Y0.2335 
G01 X0.5773 Y0.2341 
G01 X0.5771 Y0.2368 
G01 X0.5770 Y0.2372 
G01 X0.5770 Y0.2385 
G01 X0.5769 Y0.2397 
G01 X0.5770 Y0.2402 
G01 X0.5770 Y0.2429 
G01 X0.5768 Y0.2434 
G01 X0.5767 Y0.2438 
G01 X0.5766 Y0.2442 
G01 X0.5766 Y0.2448 
G01 X0.5753 Y0.2472 
G01 X0.5751 Y0.2476 
G01 X0.5746 Y0.2487 
G01 X0.5740 Y0.2498 
G01 X0.5739 Y0.2503 
G01 X0.5729 Y0.2528 
G01 X0.5725 Y0.2532 
G01 X0.5723 Y0.2536 
G01 X0.5720 Y0.2538 
G01 X0.5717 Y0.2544 
G01 X0.5697 Y0.2562 
G01 X0.5693 Y0.2564 
G01 X0.5684 Y0.2573 
G01 X0.5675 Y0.2581 
G01 X0.5672 Y0.2585 
G01 X0.5653 Y0.2604 
G01 X0.5647 Y0.2606 
G01 X0.5644 Y0.2609 
G01 X0.5641 Y0.2610 
G01 X0.5636 Y0.2614 
G01 X0.5611 Y0.2623 
G01 X0.5606 Y0.2623 
G01 X0.5594 Y0.2628 
G01 X0.5583 Y0.2632 
G01 X0.5579 Y0.2635 
G01 X0.5554 Y0.2645 
G01 X0.5548 Y0.2645 
G01 X0.5544 Y0.2646 
G01 X0.5540 Y0.2646 
G01 X0.5527 Y0.2650 
G01 X0.5515 Y0.2654 
G01 X0.5511 Y0.2656 
G01 X0.5113 Y0.2789 
G01 X0.5100 Y0.2792 
G01 X0.5096 Y0.2794 
G01 X0.5093 Y0.2795 
G01 X0.5082 Y0.2803 
G01 X0.5070 Y0.2809 
G01 X0.5067 Y0.2812 
G01 X0.5064 Y0.2814 
G01 X0.5055 Y0.2824 
G01 X0.5046 Y0.2833 
G01 X0.5044 Y0.2837 
G01 X0.5041 Y0.2840 
G01 X0.5035 Y0.2852 
G01 X0.5029 Y0.2863 
G01 X0.5028 Y0.2867 
G01 X0.5026 Y0.2870 
G01 X0.5023 Y0.2883 
G01 X0.5020 Y0.2896 
G01 X0.5020 Y0.2900 
G01 X0.5019 Y0.2904 
G01 X0.5020 Y0.2917 
G01 X0.5020 Y1.1122 
G01 X0.5020 Y1.1124 
G01 X0.5020 Y1.1139 
G01 X0.5020 Y1.1155 
G01 X0.5020 Y1.1156 
G01 X0.5020 Y1.1158 
G01 X0.5025 Y1.1173 
G01 X0.5029 Y1.1188 
G01 X0.5030 Y1.1189 
G01 X0.5030 Y1.1191 
G01 X0.5038 Y1.1204 
G01 X0.5046 Y1.1217 
G01 X0.5047 Y1.1219 
G01 X0.5048 Y1.1220 
G01 X0.5059 Y1.1231 
G01 X0.5070 Y1.1242 
G01 X0.5072 Y1.1242 
G01 X0.5073 Y1.1243 
G01 X0.5086 Y1.1251 
G01 X0.5100 Y1.1259 
G01 X0.5101 Y1.1259 
G01 X0.7602 Y1.2623 
G01 X0.7607 Y1.2627 
G01 X0.7617 Y1.2631 
G01 X0.7626 Y1.2636 
G01 X0.7632 Y1.2638 
G01 X0.7653 Y1.2646 
G01 X0.7662 Y1.2655 
G01 X0.7664 Y1.2656 
G01 X0.7665 Y1.2657 
G01 X0.7676 Y1.2664 
G01 X0.7690 Y1.2681 
G01 X0.7694 Y1.2687 
G01 X0.7701 Y1.2694 
G01 X0.7707 Y1.2702 
G01 X0.7713 Y1.2706 
G01 X0.7729 Y1.2722 
G01 X0.7734 Y1.2734 
G01 X0.7735 Y1.2736 
G01 X0.7736 Y1.2737 
G01 X0.7744 Y1.2747 
G01 X0.7750 Y1.2769 
G01 X0.7751 Y1.2776 
G01 X0.7755 Y1.2785 
G01 X0.7758 Y1.2795 
G01 X0.7761 Y1.2801 
G01 X0.7770 Y1.2821 
G01 X0.7770 Y1.2835 
G01 X0.7770 Y1.2836 
G01 X0.7770 Y1.2838 
G01 X0.7774 Y1.2850 
G01 X0.7772 Y1.2872 
G01 X0.7770 Y1.2879 
G01 X0.7770 Y1.2889 
G01 X0.7769 Y1.2900 
G01 X0.7770 Y1.2906 
G01 X0.7770 Y1.6179 
G01 X0.7729 Y1.6278 
G01 X0.7653 Y1.6354 
G01 X0.7554 Y1.6395 
G01 X0.6508 Y1.6395 
G01 X0.6475 Y1.6404 
G01 X0.6445 Y1.6421 
G01 X0.6421 Y1.6445 
G01 X0.6404 Y1.6475 
G01 X0.6395 Y1.6508 
G01 X0.6395 Y1.6528 
G01 X0.6335 Y1.6673 
G01 X0.6224 Y1.6785 
G01 X0.6079 Y1.6845 
G01 X0.5921 Y1.6845 
G01 X0.5776 Y1.6785 
G01 X0.5665 Y1.6673 
G01 X0.5612 Y1.6545 
G01 X0.5611 Y1.6540 
G01 X0.5605 Y1.6529 
G01 X0.5601 Y1.6518 
G01 X0.5598 Y1.6514 
G01 X0.5595 Y1.6509 
G01 X0.5587 Y1.6500 
G01 X0.5580 Y1.6491 
G01 X0.5576 Y1.6488 
G01 X0.5572 Y1.6484 
G01 X0.5562 Y1.6477 
G01 X0.5553 Y1.6470 
G01 X0.5548 Y1.6468 
G01 X0.5544 Y1.6465 
G01 X0.5532 Y1.6461 
G01 X0.5521 Y1.6457 
G01 X0.5516 Y1.6456 
G01 X0.5511 Y1.6455 
G01 X0.5499 Y1.6454 
G01 X0.5487 Y1.6452 
G01 X0.5482 Y1.6453 
G01 X0.5477 Y1.6453 
G01 X0.5465 Y1.6455 
G01 X0.5453 Y1.6457 
G01 X0.5449 Y1.6459 
G01 X0.5444 Y1.6460 
G01 X0.5433 Y1.6465 
G01 X0.5422 Y1.6470 
G01 X0.5418 Y1.6473 
G01 X0.5413 Y1.6475 
G01 X0.5404 Y1.6483 
G01 X0.5395 Y1.6491 
G01 X0.5391 Y1.6495 
G01 X0.5388 Y1.6498 
G01 X0.5381 Y1.6508 
G01 X0.5374 Y1.6518 
G01 X0.5372 Y1.6523 
G01 X0.5369 Y1.6527 
G01 X0.5365 Y1.6538 
G01 X0.5364 Y1.6542 
G01 X0.5375 Y1.6487 
G01 X0.5375 Y1.5763 
G01 X0.5364 Y1.5708 
G01 X0.5365 Y1.5712 
G01 X0.5369 Y1.5723 
G01 X0.5372 Y1.5727 
G01 X0.5374 Y1.5732 
G01 X0.5381 Y1.5742 
G01 X0.5388 Y1.5752 
G01 X0.5391 Y1.5755 
G01 X0.5395 Y1.5759 
G01 X0.5404 Y1.5767 
G01 X0.5413 Y1.5775 
G01 X0.5418 Y1.5777 
G01 X0.5422 Y1.5780 
G01 X0.5433 Y1.5785 
G01 X0.5444 Y1.5790 
G01 X0.5449 Y1.5791 
G01 X0.5453 Y1.5793 
G01 X0.5465 Y1.5795 
G01 X0.5477 Y1.5797 
G01 X0.5482 Y1.5797 
G01 X0.5487 Y1.5798 
G01 X0.5499 Y1.5796 
G01 X0.5511 Y1.5795 
G01 X0.5516 Y1.5794 
G01 X0.5521 Y1.5793 
G01 X0.5532 Y1.5789 
G01 X0.5544 Y1.5785 
G01 X0.5548 Y1.5782 
G01 X0.5553 Y1.5780 
G01 X0.5562 Y1.5773 
G01 X0.5572 Y1.5766 
G01 X0.5576 Y1.5762 
G01 X0.5580 Y1.5759 
G01 X0.5587 Y1.5750 
G01 X0.5595 Y1.5741 
G01 X0.5598 Y1.5736 
G01 X0.5601 Y1.5732 
G01 X0.5605 Y1.5721 
G01 X0.5611 Y1.5710 
G01 X0.5612 Y1.5705 
G01 X0.5665 Y1.5577 
G01 X0.5776 Y1.5465 
G01 X0.5921 Y1.5405 
G01 X0.6079 Y1.5405 
G01 X0.6224 Y1.5465 
G01 X0.6335 Y1.5577 
G01 X0.6395 Y1.5722 
G01 X0.6395 Y1.5742 
G01 X0.6404 Y1.5775 
G01 X0.6421 Y1.5805 
G01 X0.6445 Y1.5829 
G01 X0.6475 Y1.5846 
G01 X0.6508 Y1.5855 
G01 X0.7117 Y1.5855 
G01 X0.7150 Y1.5846 
G01 X0.7180 Y1.5829 
G01 X0.7204 Y1.5805 
G01 X0.7221 Y1.5775 
G01 X0.7230 Y1.5742 
G01 X0.7230 Y1.3128 
G01 X0.7230 Y1.3126 
G01 X0.7230 Y1.3111 
G01 X0.7230 Y1.3095 
G01 X0.7230 Y1.3094 
G01 X0.7230 Y1.3092 
G01 X0.7225 Y1.3077 
G01 X0.7221 Y1.3062 
G01 X0.7220 Y1.3061 
G01 X0.7220 Y1.3059 
G01 X0.7212 Y1.3046 
G01 X0.7204 Y1.3033 
G01 X0.7203 Y1.3031 
G01 X0.7202 Y1.3030 
G01 X0.7191 Y1.3019 
G01 X0.7180 Y1.3008 
G01 X0.7178 Y1.3008 
G01 X0.7177 Y1.3007 
G01 X0.7164 Y1.2999 
G01 X0.7150 Y1.2991 
G01 X0.7149 Y1.2991 
G01 X0.4648 Y1.1627 
G01 X0.4643 Y1.1623 
G01 X0.4633 Y1.1619 
G01 X0.4624 Y1.1614 
G01 X0.4618 Y1.1612 
G01 X0.4597 Y1.1604 
G01 X0.4588 Y1.1595 
G01 X0.4586 Y1.1594 
G01 X0.4585 Y1.1593 
G01 X0.4574 Y1.1586 
G01 X0.4560 Y1.1569 
G01 X0.4556 Y1.1563 
G01 X0.4549 Y1.1556 
G01 X0.4543 Y1.1548 
G01 X0.4537 Y1.1544 
G01 X0.4521 Y1.1528 
G01 X0.4516 Y1.1516 
G01 X0.4515 Y1.1514 
G01 X0.4514 Y1.1513 
G01 X0.4506 Y1.1503 
G01 X0.4500 Y1.1481 
G01 X0.4499 Y1.1474 
G01 X0.4495 Y1.1465 
G01 X0.4492 Y1.1455 
G01 X0.4489 Y1.1449 
G01 X0.4480 Y1.1429 
G01 X0.4480 Y1.1415 
G01 X0.4480 Y1.1414 
G01 X0.4480 Y1.1412 
G01 X0.4476 Y1.1400 
G01 X0.4478 Y1.1378 
G01 X0.4480 Y1.1371 
G01 X0.4480 Y1.1361 
G01 X0.4481 Y1.1350 
G01 X0.4480 Y1.1344 
G01 X0.4480 Y0.2703 
G01 X0.4481 Y0.2699 
G01 X0.4480 Y0.2686 
G01 X0.4480 Y0.2673 
G01 X0.4479 Y0.2669 
G01 X0.4479 Y0.2665 
G01 X0.4477 Y0.2659 
G01 X0.4479 Y0.2632 
G01 X0.4480 Y0.2628 
G01 X0.4480 Y0.2615 
G01 X0.4481 Y0.2603 
G01 X0.4480 Y0.2598 
G01 X0.4480 Y0.2571 
G01 X0.4482 Y0.2566 
G01 X0.4483 Y0.2562 
G01 X0.4484 Y0.2558 
G01 X0.4484 Y0.2552 
G01 X0.4497 Y0.2528 
G01 X0.4499 Y0.2524 
G01 X0.4504 Y0.2513 
G01 X0.4510 Y0.2502 
G01 X0.4511 Y0.2497 
G01 X0.4521 Y0.2472 
G01 X0.4525 Y0.2468 
G01 X0.4527 Y0.2464 
G01 X0.4530 Y0.2461 
G01 X0.4533 Y0.2456 
G01 X0.4553 Y0.2438 
G01 X0.4557 Y0.2436 
G01 X0.4566 Y0.2427 
G01 X0.4575 Y0.2419 
G01 X0.4578 Y0.2415 
G01 X0.4597 Y0.2396 
G01 X0.4603 Y0.2394 
G01 X0.4606 Y0.2391 
G01 X0.4609 Y0.2390 
G01 X0.4614 Y0.2386 
G01 X0.4639 Y0.2377 
G01 X0.4644 Y0.2377 
G01 X0.4656 Y0.2372 
G01 X0.4667 Y0.2368 
G01 X0.4671 Y0.2365 
G01 X0.4696 Y0.2355 
G01 X0.4702 Y0.2355 
G01 X0.4706 Y0.2354 
G01 X0.4710 Y0.2354 
G01 X0.4723 Y0.2350 
G01 X0.4735 Y0.2346 
G01 X0.4739 Y0.2344 
G01 X0.5137 Y0.2211 
G01 X0.5150 Y0.2208 
G01 X0.5154 Y0.2206 
G01 X0.5157 Y0.2205 
G01 X0.5168 Y0.2197 
G01 X0.5180 Y0.2191 
G01 X0.5183 Y0.2188 
G01 X0.5186 Y0.2186 
G01 X0.5195 Y0.2176 
G01 X0.5204 Y0.2167 
G01 X0.5206 Y0.2163 
G01 X0.5209 Y0.2160 
G01 X0.5215 Y0.2148 
G01 X0.5221 Y0.2137 
G01 X0.5222 Y0.2133 
G01 X0.5224 Y0.2130 
G01 X0.5227 Y0.2117 
G01 X0.5230 Y0.2104 
G01 X0.5230 Y0.2100 
G01 X0.5231 Y0.2096 
G01 X0.5230 Y0.2083 
G01 X0.5230 Y0.1834 
G01 X0.5221 Y0.1801 
G01 X0.5204 Y0.1772 
G01 X0.5202 Y0.1770 
G01 X0.5180 Y0.1748 
G01 X0.5133 Y0.1701 
G00 Z0.1000 
G00 X0.5161 Y0.1700 
G01 Z-0.0070 F4.00  
G01 X0.5175 Y0.1714 F10.00 
G01 X0.5193 Y0.1722 
G01 X0.5250 Y0.1722 
G01 X0.5250 Y0.2195 
G01 X0.4686 Y0.2383 
G01 X0.4677 Y0.2385 
G01 X0.4663 Y0.2391 
G01 X0.4648 Y0.2396 
G01 X0.4640 Y0.2400 
G01 X0.4632 Y0.2403 
G01 X0.4618 Y0.2412 
G01 X0.4605 Y0.2420 
G01 X0.4598 Y0.2426 
G01 X0.4591 Y0.2431 
G01 X0.4579 Y0.2442 
G01 X0.4568 Y0.2452 
G01 X0.4562 Y0.2459 
G01 X0.4556 Y0.2466 
G01 X0.4547 Y0.2479 
G01 X0.4537 Y0.2491 
G01 X0.4533 Y0.2499 
G01 X0.4528 Y0.2507 
G01 X0.4522 Y0.2521 
G01 X0.4515 Y0.2535 
G01 X0.4513 Y0.2544 
G01 X0.4510 Y0.2552 
G01 X0.4507 Y0.2568 
G01 X0.4502 Y0.2583 
G01 X0.4502 Y0.2592 
G01 X0.4500 Y0.2600 
G01 X0.4500 Y0.2616 
G01 X0.4499 Y0.2632 
G01 X0.4500 Y0.2641 
G01 X0.4500 Y1.1362 
G01 X0.4499 Y1.1373 
G01 X0.4500 Y1.1386 
G01 X0.4500 Y1.1400 
G01 X0.4502 Y1.1411 
G01 X0.4503 Y1.1422 
G01 X0.4507 Y1.1435 
G01 X0.4510 Y1.1448 
G01 X0.4514 Y1.1458 
G01 X0.4517 Y1.1469 
G01 X0.4523 Y1.1481 
G01 X0.4528 Y1.1493 
G01 X0.4535 Y1.1503 
G01 X0.4540 Y1.1513 
G01 X0.4548 Y1.1523 
G01 X0.4556 Y1.1534 
G01 X0.4564 Y1.1542 
G01 X0.4571 Y1.1551 
G01 X0.4581 Y1.1560 
G01 X0.4591 Y1.1569 
G01 X0.4600 Y1.1575 
G01 X0.4609 Y1.1583 
G01 X0.4620 Y1.1589 
G01 X0.4632 Y1.1597 
G01 X0.4642 Y1.1601 
G01 X0.7250 Y1.3023 
G01 X0.7250 Y1.5875 
G01 X0.6375 Y1.5875 
G01 X0.6375 Y1.5763 
G01 X0.6360 Y1.5691 
G01 X0.6332 Y1.5623 
G01 X0.6291 Y1.5561 
G01 X0.6239 Y1.5509 
G01 X0.6178 Y1.5468 
G01 X0.6109 Y1.5440 
G01 X0.6037 Y1.5425 
G01 X0.5963 Y1.5425 
G01 X0.5891 Y1.5440 
G01 X0.5822 Y1.5468 
G01 X0.5761 Y1.5509 
G01 X0.5709 Y1.5561 
G01 X0.5668 Y1.5623 
G01 X0.5640 Y1.5691 
G01 X0.5625 Y1.5763 
G01 X0.5625 Y1.6487 
G01 X0.5640 Y1.6559 
G01 X0.5668 Y1.6627 
G01 X0.5709 Y1.6689 
G01 X0.5761 Y1.6741 
G01 X0.5822 Y1.6782 
G01 X0.5891 Y1.6810 
G01 X0.5963 Y1.6825 
G01 X0.6037 Y1.6825 
G01 X0.6109 Y1.6810 
G01 X0.6178 Y1.6782 
G01 X0.6239 Y1.6741 
G01 X0.6291 Y1.6689 
G01 X0.6332 Y1.6627 
G01 X0.6360 Y1.6559 
G01 X0.6375 Y1.6487 
G01 X0.6375 Y1.6375 
G01 X0.7525 Y1.6375 
G01 X0.7573 Y1.6365 
G01 X0.7618 Y1.6347 
G01 X0.7659 Y1.6319 
G01 X0.7694 Y1.6284 
G01 X0.7722 Y1.6243 
G01 X0.7740 Y1.6198 
G01 X0.7750 Y1.6150 
G01 X0.7750 Y1.2888 
G01 X0.7751 Y1.2877 
G01 X0.7750 Y1.2864 
G01 X0.7750 Y1.2850 
G01 X0.7748 Y1.2839 
G01 X0.7747 Y1.2828 
G01 X0.7743 Y1.2815 
G01 X0.7740 Y1.2802 
G01 X0.7736 Y1.2792 
G01 X0.7733 Y1.2781 
G01 X0.7727 Y1.2769 
G01 X0.7722 Y1.2757 
G01 X0.7715 Y1.2747 
G01 X0.7710 Y1.2737 
G01 X0.7702 Y1.2727 
G01 X0.7694 Y1.2716 
G01 X0.7686 Y1.2708 
G01 X0.7679 Y1.2699 
G01 X0.7669 Y1.2690 
G01 X0.7659 Y1.2681 
G01 X0.7650 Y1.2675 
G01 X0.7641 Y1.2667 
G01 X0.7630 Y1.2661 
G01 X0.7618 Y1.2653 
G01 X0.7608 Y1.2649 
G01 X0.5000 Y1.1227 
G01 X0.5000 Y0.2805 
G01 X0.5564 Y0.2617 
G01 X0.5573 Y0.2615 
G01 X0.5587 Y0.2609 
G01 X0.5602 Y0.2604 
G01 X0.5610 Y0.2600 
G01 X0.5618 Y0.2597 
G01 X0.5632 Y0.2588 
G01 X0.5645 Y0.2580 
G01 X0.5652 Y0.2574 
G01 X0.5659 Y0.2569 
G01 X0.5671 Y0.2558 
G01 X0.5682 Y0.2548 
G01 X0.5688 Y0.2541 
G01 X0.5694 Y0.2534 
G01 X0.5703 Y0.2521 
G01 X0.5713 Y0.2509 
G01 X0.5717 Y0.2501 
G01 X0.5722 Y0.2493 
G01 X0.5728 Y0.2479 
G01 X0.5735 Y0.2465 
G01 X0.5737 Y0.2456 
G01 X0.5740 Y0.2448 
G01 X0.5743 Y0.2432 
G01 X0.5748 Y0.2417 
G01 X0.5748 Y0.2408 
G01 X0.5750 Y0.2400 
G01 X0.5750 Y0.2384 
G01 X0.5751 Y0.2368 
G01 X0.5750 Y0.2359 
G01 X0.5750 Y0.1722 
G01 X0.5807 Y0.1722 
G01 X0.5825 Y0.1714 
G01 X0.5839 Y0.1700 
G01 X0.5847 Y0.1682 
G01 X0.5847 Y0.1068 
G01 X0.5839 Y0.1050 
G01 X0.5825 Y0.1036 
G01 X0.5807 Y0.1028 
G01 X0.5193 Y0.1028 
G01 X0.5175 Y0.1036 
G01 X0.5161 Y0.1050 
G01 X0.5153 Y0.1068 
G01 X0.5153 Y0.1682 
G01 X0.5161 Y0.1700 
G00 Z0.1000 
G00 X0.7310 Y0.1661 
G01 Z-0.0070 F4.00  
G01 X0.7310 Y0.1089 F10.00 
G01 X0.7714 Y0.0685 
G01 X0.8286 Y0.0685 
G01 X0.8690 Y0.1089 
G01 X0.8690 Y0.1661 
G01 X0.8286 Y0.2065 
G01 X0.7714 Y0.2065 
G01 X0.7310 Y0.1661 
G00 Z0.1000 
G00 X0.7330 Y0.1653 
G01 Z-0.0070 F4.00  
G01 X0.7722 Y0.2045 F10.00 
G01 X0.8278 Y0.2045 
G01 X0.8670 Y0.1653 
G01 X0.8670 Y0.1097 
G01 X0.8278 Y0.0705 
G01 X0.7722 Y0.0705 
G01 X0.7330 Y0.1097 
G01 X0.7330 Y0.1653 
G00 Z0.1000 
G00 X0.7722 Y0.2705 
G01 Z-0.0070 F4.00  
G01 X0.7840 Y0.2705 F10.00 
G01 X0.7722 Y0.2705 
G01 X0.7330 Y0.3097 
G01 X0.7330 Y0.3215 
G01 X0.7330 Y0.3097 
G01 X0.7722 Y0.2705 
G00 Z0.1000 
G00 X0.8160 Y0.2705 
G01 Z-0.0070 F4.00  
G01 X0.8278 Y0.2705 F10.00 
G01 X0.8670 Y0.3097 
G01 X0.8278 Y0.2705 
G01 X0.8160 Y0.2705 
G00 Z0.1000 
G00 X0.8670 Y0.3097 
G01 Z-0.0070 F4.00  
G01 X0.8670 Y0.3215 F10.00 
G01 X0.8670 Y0.3097 
G00 Z0.1000 
G00 X0.8670 Y0.3535 
G01 Z-0.0070 F4.00  
G01 X0.8670 Y0.3653 F10.00 
G01 X0.8670 Y0.3535 
G00 Z0.1000 
G00 X0.8670 Y0.3653 
G01 Z-0.0070 F4.00  
G01 X0.8278 Y0.4045 F10.00 
G01 X0.8160 Y0.4045 
G01 X0.8278 Y0.4045 
G01 X0.8670 Y0.3653 
G00 Z0.1000 
G00 X0.9059 Y0.4465 
G01 Z-0.0070 F4.00  
G01 X0.9021 Y0.4522 F10.00 
G01 X0.8994 Y0.4586 
G01 X0.8981 Y0.4654 
G01 X0.8981 Y0.4722 
G01 X0.8994 Y0.4790 
G01 X0.9021 Y0.4854 
G01 X0.9059 Y0.4911 
G01 X0.9108 Y0.4960 
G01 X0.9165 Y0.4998 
G01 X0.9229 Y0.5025 
G01 X0.9296 Y0.5038 
G01 X0.9365 Y0.5038 
G01 X0.9433 Y0.5025 
G01 X0.9496 Y0.4998 
G01 X0.9554 Y0.4960 
G01 X0.9603 Y0.4911 
G01 X0.9641 Y0.4854 
G01 X0.9667 Y0.4790 
G01 X0.9681 Y0.4722 
G01 X0.9681 Y0.4654 
G01 X0.9667 Y0.4586 
G01 X0.9641 Y0.4522 
G01 X0.9603 Y0.4465 
G01 X0.9554 Y0.4416 
G01 X0.9496 Y0.4378 
G01 X0.9433 Y0.4351 
G01 X0.9365 Y0.4338 
G01 X0.9296 Y0.4338 
G01 X0.9229 Y0.4351 
G01 X0.9165 Y0.4378 
G01 X0.9108 Y0.4416 
G01 X0.9059 Y0.4465 
G00 Z0.1000 
G00 X0.9059 Y0.5252 
G01 Z-0.0070 F4.00  
G01 X0.9021 Y0.5310 F10.00 
G01 X0.8994 Y0.5373 
G01 X0.8981 Y0.5441 
G01 X0.8981 Y0.5510 
G01 X0.8994 Y0.5577 
G01 X0.9021 Y0.5641 
G01 X0.9059 Y0.5699 
G01 X0.9108 Y0.5747 
G01 X0.9165 Y0.5786 
G01 X0.9229 Y0.5812 
G01 X0.9296 Y0.5825 
G01 X0.9365 Y0.5825 
G01 X0.9433 Y0.5812 
G01 X0.9496 Y0.5786 
G01 X0.9554 Y0.5747 
G01 X0.9603 Y0.5699 
G01 X0.9641 Y0.5641 
G01 X0.9667 Y0.5577 
G01 X0.9681 Y0.5510 
G01 X0.9681 Y0.5441 
G01 X0.9667 Y0.5373 
G01 X0.9641 Y0.5310 
G01 X0.9603 Y0.5252 
G01 X0.9554 Y0.5204 
G01 X0.9496 Y0.5165 
G01 X0.9433 Y0.5139 
G01 X0.9365 Y0.5125 
G01 X0.9296 Y0.5125 
G01 X0.9229 Y0.5139 
G01 X0.9165 Y0.5165 
G01 X0.9108 Y0.5204 
G01 X0.9059 Y0.5252 
G00 Z0.1000 
G00 X0.9059 Y0.6040 
G01 Z-0.0070 F4.00  
G01 X0.9021 Y0.6097 F10.00 
G01 X0.8994 Y0.6161 
G01 X0.8981 Y0.6228 
G01 X0.8981 Y0.6297 
G01 X0.8994 Y0.6365 
G01 X0.9021 Y0.6429 
G01 X0.9059 Y0.6486 
G01 X0.9108 Y0.6535 
G01 X0.9165 Y0.6573 
G01 X0.9229 Y0.6599 
G01 X0.9296 Y0.6613 
G01 X0.9365 Y0.6613 
G01 X0.9433 Y0.6599 
G01 X0.9496 Y0.6573 
G01 X0.9554 Y0.6535 
G01 X0.9603 Y0.6486 
G01 X0.9641 Y0.6429 
G01 X0.9667 Y0.6365 
G01 X0.9681 Y0.6297 
G01 X0.9681 Y0.6228 
G01 X0.9667 Y0.6161 
G01 X0.9641 Y0.6097 
G01 X0.9603 Y0.6040 
G01 X0.9554 Y0.5991 
G01 X0.9496 Y0.5953 
G01 X0.9433 Y0.5926 
G01 X0.9365 Y0.5913 
G01 X0.9296 Y0.5913 
G01 X0.9229 Y0.5926 
G01 X0.9165 Y0.5953 
G01 X0.9108 Y0.5991 
G01 X0.9059 Y0.6040 
G00 Z0.1000 
G00 X0.9059 Y0.6827 
G01 Z-0.0070 F4.00  
G01 X0.9021 Y0.6884 F10.00 
G01 X0.8994 Y0.6948 
G01 X0.8981 Y0.7016 
G01 X0.8981 Y0.7085 
G01 X0.8994 Y0.7152 
G01 X0.9021 Y0.7216 
G01 X0.9059 Y0.7273 
G01 X0.9108 Y0.7322 
G01 X0.9165 Y0.7360 
G01 X0.9229 Y0.7387 
G01 X0.9296 Y0.7400 
G01 X0.9365 Y0.7400 
G01 X0.9433 Y0.7387 
G01 X0.9496 Y0.7360 
G01 X0.9554 Y0.7322 
G01 X0.9603 Y0.7273 
G01 X0.9641 Y0.7216 
G01 X0.9667 Y0.7152 
G01 X0.9681 Y0.7085 
G01 X0.9681 Y0.7016 
G01 X0.9667 Y0.6948 
G01 X0.9641 Y0.6884 
G01 X0.9603 Y0.6827 
G01 X0.9554 Y0.6778 
G01 X0.9496 Y0.6740 
G01 X0.9433 Y0.6714 
G01 X0.9365 Y0.6700 
G01 X0.9296 Y0.6700 
G01 X0.9229 Y0.6714 
G01 X0.9165 Y0.6740 
G01 X0.9108 Y0.6778 
G01 X0.9059 Y0.6827 
G00 Z0.1000 
G00 X0.8400 Y0.6791 
G01 Z-0.0070 F4.00  
G01 X0.8166 Y0.7025 F10.00 
G01 X0.7834 Y0.7025 
G01 X0.7600 Y0.6791 
G01 X0.7600 Y0.6459 
G01 X0.7834 Y0.6225 
G01 X0.8166 Y0.6225 
G01 X0.8400 Y0.6459 
G01 X0.8400 Y0.6791 
G00 Z0.1000 
G00 X0.8380 Y0.6782 
G01 Z-0.0070 F4.00  
G01 X0.8380 Y0.6468 F10.00 
G01 X0.8157 Y0.6245 
G01 X0.7843 Y0.6245 
G01 X0.7620 Y0.6468 
G01 X0.7620 Y0.6782 
G01 X0.7843 Y0.7005 
G01 X0.8157 Y0.7005 
G01 X0.8380 Y0.6782 
G00 Z0.1000 
G00 X0.7090 Y0.6809 
G01 Z-0.0070 F4.00  
G01 X0.7090 Y0.6941 F10.00 
G01 X0.7040 Y0.7062 
G01 X0.6947 Y0.7155 
G01 X0.6826 Y0.7205 
G01 X0.6174 Y0.7205 
G01 X0.6053 Y0.7155 
G01 X0.5960 Y0.7062 
G01 X0.5910 Y0.6941 
G01 X0.5910 Y0.6809 
G01 X0.5960 Y0.6688 
G01 X0.6053 Y0.6595 
G01 X0.6174 Y0.6545 
G01 X0.6826 Y0.6545 
G01 X0.6947 Y0.6595 
G01 X0.7040 Y0.6688 
G01 X0.7090 Y0.6809 
G00 Z0.1000 
G00 X0.7070 Y0.6844 
G01 Z-0.0070 F4.00  
G01 X0.7058 Y0.6785 F10.00 
G01 X0.7035 Y0.6728 
G01 X0.7001 Y0.6677 
G01 X0.6958 Y0.6634 
G01 X0.6907 Y0.6600 
G01 X0.6850 Y0.6577 
G01 X0.6791 Y0.6565 
G01 X0.6209 Y0.6565 
G01 X0.6150 Y0.6577 
G01 X0.6093 Y0.6600 
G01 X0.6042 Y0.6634 
G01 X0.5999 Y0.6677 
G01 X0.5965 Y0.6728 
G01 X0.5942 Y0.6785 
G01 X0.5930 Y0.6844 
G01 X0.5930 Y0.6906 
G01 X0.5942 Y0.6965 
G01 X0.5965 Y0.7022 
G01 X0.5999 Y0.7073 
G01 X0.6042 Y0.7116 
G01 X0.6093 Y0.7150 
G01 X0.6150 Y0.7173 
G01 X0.6209 Y0.7185 
G01 X0.6791 Y0.7185 
G01 X0.6850 Y0.7173 
G01 X0.6907 Y0.7150 
G01 X0.6958 Y0.7116 
G01 X0.7001 Y0.7073 
G01 X0.7035 Y0.7022 
G01 X0.7058 Y0.6965 
G01 X0.7070 Y0.6906 
G01 X0.7070 Y0.6844 
G00 Z0.1000 
G00 X0.6947 Y0.6155 
G01 Z-0.0070 F4.00  
G01 X0.6826 Y0.6205 F10.00 
G01 X0.6174 Y0.6205 
G01 X0.6053 Y0.6155 
G01 X0.5960 Y0.6062 
G01 X0.5910 Y0.5941 
G01 X0.5910 Y0.5809 
G01 X0.5960 Y0.5688 
G01 X0.6053 Y0.5595 
G01 X0.6174 Y0.5545 
G01 X0.6826 Y0.5545 
G01 X0.6947 Y0.5595 
G01 X0.7040 Y0.5688 
G01 X0.7090 Y0.5809 
G01 X0.7090 Y0.5941 
G01 X0.7040 Y0.6062 
G01 X0.6947 Y0.6155 
G00 Z0.1000 
G00 X0.6907 Y0.6150 
G01 Z-0.0070 F4.00  
G01 X0.6958 Y0.6116 F10.00 
G01 X0.7001 Y0.6073 
G01 X0.7035 Y0.6022 
G01 X0.7058 Y0.5965 
G01 X0.7070 Y0.5906 
G01 X0.7070 Y0.5844 
G01 X0.7058 Y0.5785 
G01 X0.7035 Y0.5728 
G01 X0.7001 Y0.5677 
G01 X0.6958 Y0.5634 
G01 X0.6907 Y0.5600 
G01 X0.6850 Y0.5577 
G01 X0.6791 Y0.5565 
G01 X0.6209 Y0.5565 
G01 X0.6150 Y0.5577 
G01 X0.6093 Y0.5600 
G01 X0.6042 Y0.5634 
G01 X0.5999 Y0.5677 
G01 X0.5965 Y0.5728 
G01 X0.5942 Y0.5785 
G01 X0.5930 Y0.5844 
G01 X0.5930 Y0.5906 
G01 X0.5942 Y0.5965 
G01 X0.5965 Y0.6022 
G01 X0.5999 Y0.6073 
G01 X0.6042 Y0.6116 
G01 X0.6093 Y0.6150 
G01 X0.6150 Y0.6173 
G01 X0.6209 Y0.6185 
G01 X0.6791 Y0.6185 
G01 X0.6850 Y0.6173 
G01 X0.6907 Y0.6150 
G00 Z0.1000 
G00 X0.6907 Y0.5150 
G01 Z-0.0070 F4.00  
G01 X0.6958 Y0.5116 F10.00 
G01 X0.7001 Y0.5073 
G01 X0.7035 Y0.5022 
G01 X0.7058 Y0.4965 
G01 X0.7070 Y0.4906 
G01 X0.7070 Y0.4844 
G01 X0.7058 Y0.4785 
G01 X0.7035 Y0.4728 
G01 X0.7001 Y0.4677 
G01 X0.6958 Y0.4634 
G01 X0.6907 Y0.4600 
G01 X0.6850 Y0.4577 
G01 X0.6791 Y0.4565 
G01 X0.6209 Y0.4565 
G01 X0.6150 Y0.4577 
G01 X0.6093 Y0.4600 
G01 X0.6042 Y0.4634 
G01 X0.5999 Y0.4677 
G01 X0.5965 Y0.4728 
G01 X0.5942 Y0.4785 
G01 X0.5930 Y0.4844 
G01 X0.5930 Y0.4906 
G01 X0.5942 Y0.4965 
G01 X0.5965 Y0.5022 
G01 X0.5999 Y0.5073 
G01 X0.6042 Y0.5116 
G01 X0.6093 Y0.5150 
G01 X0.6150 Y0.5173 
G01 X0.6209 Y0.5185 
G01 X0.6791 Y0.5185 
G01 X0.6850 Y0.5173 
G01 X0.6907 Y0.5150 
G00 Z0.1000 
G00 X0.6947 Y0.5155 
G01 Z-0.0070 F4.00  
G01 X0.6826 Y0.5205 F10.00 
G01 X0.6174 Y0.5205 
G01 X0.6053 Y0.5155 
G01 X0.5960 Y0.5062 
G01 X0.5910 Y0.4941 
G01 X0.5910 Y0.4809 
G01 X0.5960 Y0.4688 
G01 X0.6053 Y0.4595 
G01 X0.6174 Y0.4545 
G01 X0.6826 Y0.4545 
G01 X0.6947 Y0.4595 
G01 X0.7040 Y0.4688 
G01 X0.7090 Y0.4809 
G01 X0.7090 Y0.4941 
G01 X0.7040 Y0.5062 
G01 X0.6947 Y0.5155 
G00 Z0.1000 
G00 X0.7330 Y0.3653 
G01 Z-0.0070 F4.00  
G01 X0.7330 Y0.3535 F10.00 
G01 X0.7330 Y0.3653 
G01 X0.7722 Y0.4045 
G01 X0.7837 Y0.4045 
G01 X0.7722 Y0.4045 
G01 X0.7330 Y0.3653 
G00 Z0.1000 
G00 X0.6962 Y0.7639 
G01 Z-0.0070 F4.00  
G01 X0.6996 Y0.7673 F10.00 
G01 X0.6962 Y0.7639 
G00 Z0.1000 
G00 X0.6937 Y0.7621 
G01 Z-0.0070 F4.00  
G01 X0.6917 Y0.7607 F10.00 
G01 X0.6922 Y0.7610 
G01 X0.6937 Y0.7621 
G00 Z0.1000 
G00 X0.6890 Y0.7593 
G01 Z-0.0070 F4.00  
G01 X0.6867 Y0.7584 F10.00 
G01 X0.6879 Y0.7588 
G01 X0.6890 Y0.7593 
G00 Z0.1000 
G00 X0.6838 Y0.7575 
G01 Z-0.0070 F4.00  
G01 X0.6814 Y0.7570 F10.00 
G01 X0.6833 Y0.7573 
G01 X0.6838 Y0.7575 
G00 Z0.1000 
G00 X0.6784 Y0.7565 
G01 Z-0.0070 F4.00  
G01 X0.6630 Y0.7565 F10.00 
G01 X0.6784 Y0.7565 
G00 Z0.1000 
G00 X0.7014 Y0.7698 
G01 Z-0.0070 F4.00  
G01 X0.7025 Y0.7713 F10.00 
G01 X0.7028 Y0.7718 
G01 X0.7014 Y0.7698 
G00 Z0.1000 
G00 X0.7028 Y0.8032 
G01 Z-0.0070 F4.00  
G01 X0.7025 Y0.8037 F10.00 
G01 X0.7014 Y0.8052 
G01 X0.7028 Y0.8032 
G00 Z0.1000 
G00 X0.6996 Y0.8077 
G01 Z-0.0070 F4.00  
G01 X0.6996 Y0.8077 F10.00 
G01 X0.6962 Y0.8111 
G01 X0.6996 Y0.8077 
G00 Z0.1000 
G00 X0.6937 Y0.8129 
G01 Z-0.0070 F4.00  
G01 X0.6922 Y0.8140 F10.00 
G01 X0.6917 Y0.8143 
G01 X0.6937 Y0.8129 
G00 Z0.1000 
G00 X0.6890 Y0.8157 
G01 Z-0.0070 F4.00  
G01 X0.6879 Y0.8162 F10.00 
G01 X0.6867 Y0.8166 
G01 X0.6890 Y0.8157 
G00 Z0.1000 
G00 X0.6838 Y0.8175 
G01 Z-0.0070 F4.00  
G01 X0.6833 Y0.8177 F10.00 
G01 X0.6814 Y0.8180 
G01 X0.6838 Y0.8175 
G00 Z0.1000 
G00 X0.6784 Y0.8185 
G01 Z-0.0070 F4.00  
G01 X0.6784 Y0.8185 F10.00 
G01 X0.6708 Y0.8185 
G01 X0.6784 Y0.8185 
G00 Z0.1000 
G00 X0.6791 Y0.8565 
G01 Z-0.0070 F4.00  
G01 X0.6209 Y0.8565 F10.00 
G01 X0.6150 Y0.8577 
G01 X0.6093 Y0.8600 
G01 X0.6042 Y0.8634 
G01 X0.5999 Y0.8677 
G01 X0.5965 Y0.8728 
G01 X0.5942 Y0.8785 
G01 X0.5930 Y0.8844 
G01 X0.5930 Y0.8906 
G01 X0.5942 Y0.8965 
G01 X0.5965 Y0.9022 
G01 X0.5999 Y0.9073 
G01 X0.6042 Y0.9116 
G01 X0.6093 Y0.9150 
G01 X0.6150 Y0.9173 
G01 X0.6209 Y0.9185 
G01 X0.6791 Y0.9185 
G01 X0.6850 Y0.9173 
G01 X0.6907 Y0.9150 
G01 X0.6958 Y0.9116 
G01 X0.7001 Y0.9073 
G01 X0.7035 Y0.9022 
G01 X0.7058 Y0.8965 
G01 X0.7070 Y0.8906 
G01 X0.7070 Y0.8844 
G01 X0.7058 Y0.8785 
G01 X0.7035 Y0.8728 
G01 X0.7001 Y0.8677 
G01 X0.6958 Y0.8634 
G01 X0.6907 Y0.8600 
G01 X0.6850 Y0.8577 
G01 X0.6791 Y0.8565 
G00 Z0.1000 
G00 X0.6826 Y0.8545 
G01 Z-0.0070 F4.00  
G01 X0.6947 Y0.8595 F10.00 
G01 X0.7040 Y0.8688 
G01 X0.7090 Y0.8809 
G01 X0.7090 Y0.8941 
G01 X0.7040 Y0.9062 
G01 X0.6947 Y0.9155 
G01 X0.6826 Y0.9205 
G01 X0.6174 Y0.9205 
G01 X0.6053 Y0.9155 
G01 X0.5960 Y0.9062 
G01 X0.5910 Y0.8941 
G01 X0.5910 Y0.8809 
G01 X0.5960 Y0.8688 
G01 X0.6053 Y0.8595 
G01 X0.6174 Y0.8545 
G01 X0.6826 Y0.8545 
G00 Z0.1000 
G00 X0.6370 Y0.8185 
G01 Z-0.0070 F4.00  
G01 X0.6216 Y0.8185 F10.00 
G01 X0.6370 Y0.8185 
G00 Z0.1000 
G00 X0.6186 Y0.8180 
G01 Z-0.0070 F4.00  
G01 X0.6167 Y0.8177 F10.00 
G01 X0.6162 Y0.8175 
G01 X0.6186 Y0.8180 
G00 Z0.1000 
G00 X0.6133 Y0.8166 
G01 Z-0.0070 F4.00  
G01 X0.6121 Y0.8162 F10.00 
G01 X0.6110 Y0.8157 
G01 X0.6133 Y0.8166 
G00 Z0.1000 
G00 X0.6083 Y0.8143 
G01 Z-0.0070 F4.00  
G01 X0.6078 Y0.8140 F10.00 
G01 X0.6063 Y0.8129 
G01 X0.6083 Y0.8143 
G00 Z0.1000 
G00 X0.6038 Y0.8111 
G01 Z-0.0070 F4.00  
G01 X0.6038 Y0.8111 F10.00 
G01 X0.6004 Y0.8077 
G01 X0.6038 Y0.8111 
G00 Z0.1000 
G00 X0.5986 Y0.8052 
G01 Z-0.0070 F4.00  
G01 X0.5975 Y0.8037 F10.00 
G01 X0.5972 Y0.8032 
G01 X0.5986 Y0.8052 
G00 Z0.1000 
G00 X0.5972 Y0.7718 
G01 Z-0.0070 F4.00  
G01 X0.5975 Y0.7713 F10.00 
G01 X0.5986 Y0.7698 
G01 X0.5972 Y0.7718 
G00 Z0.1000 
G00 X0.6004 Y0.7673 
G01 Z-0.0070 F4.00  
G01 X0.6004 Y0.7673 F10.00 
G01 X0.6038 Y0.7639 
G01 X0.6004 Y0.7673 
G00 Z0.1000 
G00 X0.6063 Y0.7621 
G01 Z-0.0070 F4.00  
G01 X0.6078 Y0.7610 F10.00 
G01 X0.6083 Y0.7607 
G01 X0.6063 Y0.7621 
G00 Z0.1000 
G00 X0.6110 Y0.7593 
G01 Z-0.0070 F4.00  
G01 X0.6121 Y0.7588 F10.00 
G01 X0.6133 Y0.7584 
G01 X0.6110 Y0.7593 
G00 Z0.1000 
G00 X0.6162 Y0.7575 
G01 Z-0.0070 F4.00  
G01 X0.6167 Y0.7573 F10.00 
G01 X0.6186 Y0.7570 
G01 X0.6162 Y0.7575 
G00 Z0.1000 
G00 X0.6216 Y0.7565 
G01 Z-0.0070 F4.00  
G01 X0.6216 Y0.7565 F10.00 
G01 X0.6370 Y0.7565 
G01 X0.6216 Y0.7565 
G00 Z0.1000 
G00 X0.6209 Y0.9565 
G01 Z-0.0070 F4.00  
G01 X0.6150 Y0.9577 F10.00 
G01 X0.6093 Y0.9600 
G01 X0.6042 Y0.9634 
G01 X0.5999 Y0.9677 
G01 X0.5965 Y0.9728 
G01 X0.5942 Y0.9785 
G01 X0.5930 Y0.9844 
G01 X0.5930 Y0.9906 
G01 X0.5942 Y0.9965 
G01 X0.5965 Y1.0022 
G01 X0.5999 Y1.0073 
G01 X0.6042 Y1.0116 
G01 X0.6093 Y1.0150 
G01 X0.6150 Y1.0173 
G01 X0.6209 Y1.0185 
G01 X0.6791 Y1.0185 
G01 X0.6850 Y1.0173 
G01 X0.6907 Y1.0150 
G01 X0.6958 Y1.0116 
G01 X0.7001 Y1.0073 
G01 X0.7035 Y1.0022 
G01 X0.7058 Y0.9965 
G01 X0.7070 Y0.9906 
G01 X0.7070 Y0.9844 
G01 X0.7058 Y0.9785 
G01 X0.7035 Y0.9728 
G01 X0.7001 Y0.9677 
G01 X0.6958 Y0.9634 
G01 X0.6907 Y0.9600 
G01 X0.6850 Y0.9577 
G01 X0.6791 Y0.9565 
G01 X0.6209 Y0.9565 
G00 Z0.1000 
G00 X0.6174 Y0.9545 
G01 Z-0.0070 F4.00  
G01 X0.6826 Y0.9545 F10.00 
G01 X0.6947 Y0.9595 
G01 X0.7040 Y0.9688 
G01 X0.7090 Y0.9809 
G01 X0.7090 Y0.9941 
G01 X0.7040 Y1.0062 
G01 X0.6947 Y1.0155 
G01 X0.6826 Y1.0205 
G01 X0.6174 Y1.0205 
G01 X0.6053 Y1.0155 
G01 X0.5960 Y1.0062 
G01 X0.5910 Y0.9941 
G01 X0.5910 Y0.9809 
G01 X0.5960 Y0.9688 
G01 X0.6053 Y0.9595 
G01 X0.6174 Y0.9545 
G00 Z0.1000 
G00 X0.6174 Y1.0545 
G01 Z-0.0070 F4.00  
G01 X0.6826 Y1.0545 F10.00 
G01 X0.6947 Y1.0595 
G01 X0.7040 Y1.0688 
G01 X0.7090 Y1.0809 
G01 X0.7090 Y1.0941 
G01 X0.7040 Y1.1062 
G01 X0.6947 Y1.1155 
G01 X0.6826 Y1.1205 
G01 X0.6174 Y1.1205 
G01 X0.6053 Y1.1155 
G01 X0.5960 Y1.1062 
G01 X0.5910 Y1.0941 
G01 X0.5910 Y1.0809 
G01 X0.5960 Y1.0688 
G01 X0.6053 Y1.0595 
G01 X0.6174 Y1.0545 
G00 Z0.1000 
G00 X0.6209 Y1.0565 
G01 Z-0.0070 F4.00  
G01 X0.6150 Y1.0577 F10.00 
G01 X0.6093 Y1.0600 
G01 X0.6042 Y1.0634 
G01 X0.5999 Y1.0677 
G01 X0.5965 Y1.0728 
G01 X0.5942 Y1.0785 
G01 X0.5930 Y1.0844 
G01 X0.5930 Y1.0906 
G01 X0.5942 Y1.0965 
G01 X0.5965 Y1.1022 
G01 X0.5999 Y1.1073 
G01 X0.6042 Y1.1116 
G01 X0.6093 Y1.1150 
G01 X0.6150 Y1.1173 
G01 X0.6209 Y1.1185 
G01 X0.6791 Y1.1185 
G01 X0.6850 Y1.1173 
G01 X0.6907 Y1.1150 
G01 X0.6958 Y1.1116 
G01 X0.7001 Y1.1073 
G01 X0.7035 Y1.1022 
G01 X0.7058 Y1.0965 
G01 X0.7070 Y1.0906 
G01 X0.7070 Y1.0844 
G01 X0.7058 Y1.0785 
G01 X0.7035 Y1.0728 
G01 X0.7001 Y1.0677 
G01 X0.6958 Y1.0634 
G01 X0.6907 Y1.0600 
G01 X0.6850 Y1.0577 
G01 X0.6791 Y1.0565 
G01 X0.6209 Y1.0565 
G00 Z0.1000 
G00 X0.7843 Y1.1245 
G01 Z-0.0070 F4.00  
G01 X0.7870 Y1.1245 F10.00 
G01 X0.7843 Y1.1245 
G01 X0.7620 Y1.1468 
G01 X0.7620 Y1.1495 
G01 X0.7620 Y1.1468 
G01 X0.7843 Y1.1245 
G00 Z0.1000 
G00 X0.8130 Y1.1245 
G01 Z-0.0070 F4.00  
G01 X0.8157 Y1.1245 F10.00 
G01 X0.8380 Y1.1468 
G01 X0.8157 Y1.1245 
G01 X0.8130 Y1.1245 
G00 Z0.1000 
G00 X0.8380 Y1.1468 
G01 Z-0.0070 F4.00  
G01 X0.8380 Y1.1495 F10.00 
G01 X0.8380 Y1.1468 
G00 Z0.1000 
G00 X0.8380 Y1.1755 
G01 Z-0.0070 F4.00  
G01 X0.8380 Y1.1782 F10.00 
G01 X0.8157 Y1.2005 
G01 X0.8130 Y1.2005 
G01 X0.8157 Y1.2005 
G01 X0.8380 Y1.1782 
G01 X0.8380 Y1.1755 
G00 Z0.1000 
G00 X0.8981 Y1.1740 
G01 Z-0.0070 F4.00  
G01 X0.8981 Y1.1809 F10.00 
G01 X0.8994 Y1.1877 
G01 X0.9021 Y1.1940 
G01 X0.9059 Y1.1998 
G01 X0.9084 Y1.2023 
G01 X0.9061 Y1.2191 
G01 X0.9056 Y1.2196 
G01 X0.9028 Y1.2237 
G01 X0.9010 Y1.2282 
G01 X0.9000 Y1.2331 
G01 X0.9000 Y1.6396 
G01 X0.7638 Y1.7759 
G01 X0.6968 Y1.7816 
G01 X0.6946 Y1.7794 
G01 X0.6891 Y1.7754 
G01 X0.6830 Y1.7723 
G01 X0.6765 Y1.7702 
G01 X0.6698 Y1.7691 
G01 X0.5862 Y1.7691 
G01 X0.5794 Y1.7702 
G01 X0.5729 Y1.7723 
G01 X0.5668 Y1.7754 
G01 X0.5613 Y1.7794 
G01 X0.5565 Y1.7842 
G01 X0.5525 Y1.7898 
G01 X0.5494 Y1.7958 
G01 X0.5472 Y1.8023 
G01 X0.5462 Y1.8091 
G01 X0.5462 Y1.8159 
G01 X0.5472 Y1.8227 
G01 X0.5494 Y1.8292 
G01 X0.5525 Y1.8352 
G01 X0.5565 Y1.8408 
G01 X0.5613 Y1.8456 
G01 X0.5668 Y1.8496 
G01 X0.5729 Y1.8527 
G01 X0.5794 Y1.8548 
G01 X0.5862 Y1.8559 
G01 X0.6698 Y1.8559 
G01 X0.6765 Y1.8548 
G01 X0.6830 Y1.8527 
G01 X0.6891 Y1.8496 
G01 X0.6946 Y1.8456 
G01 X0.6994 Y1.8408 
G01 X0.7034 Y1.8352 
G01 X0.7056 Y1.8310 
G01 X0.7761 Y1.8250 
G01 X0.7775 Y1.8250 
G01 X0.7785 Y1.8248 
G01 X0.7796 Y1.8247 
G01 X0.7809 Y1.8243 
G01 X0.7823 Y1.8240 
G01 X0.7833 Y1.8236 
G01 X0.7843 Y1.8233 
G01 X0.7855 Y1.8227 
G01 X0.7868 Y1.8222 
G01 X0.7877 Y1.8216 
G01 X0.7887 Y1.8211 
G01 X0.7898 Y1.8202 
G01 X0.7909 Y1.8194 
G01 X0.7917 Y1.8187 
G01 X0.7925 Y1.8180 
G01 X0.7934 Y1.8169 
G01 X0.9444 Y1.6659 
G01 X0.9472 Y1.6618 
G01 X0.9490 Y1.6573 
G01 X0.9500 Y1.6525 
G01 X0.9500 Y1.2331 
G01 X0.9490 Y1.2282 
G01 X0.9477 Y1.2249 
G01 X0.9500 Y1.2082 
G01 X0.9554 Y1.2046 
G01 X0.9603 Y1.1998 
G01 X0.9641 Y1.1940 
G01 X0.9667 Y1.1877 
G01 X0.9681 Y1.1809 
G01 X0.9681 Y1.1740 
G01 X0.9667 Y1.1673 
G01 X0.9641 Y1.1609 
G01 X0.9603 Y1.1551 
G01 X0.9554 Y1.1503 
G01 X0.9496 Y1.1464 
G01 X0.9433 Y1.1438 
G01 X0.9365 Y1.1425 
G01 X0.9296 Y1.1425 
G01 X0.9229 Y1.1438 
G01 X0.9165 Y1.1464 
G01 X0.9108 Y1.1503 
G01 X0.9059 Y1.1551 
G01 X0.9021 Y1.1609 
G01 X0.8994 Y1.1673 
G01 X0.8981 Y1.1740 
G00 Z0.1000 
G00 X0.9108 Y1.1259 
G01 Z-0.0070 F4.00  
G01 X0.9165 Y1.1297 F10.00 
G01 X0.9229 Y1.1324 
G01 X0.9296 Y1.1337 
G01 X0.9365 Y1.1337 
G01 X0.9433 Y1.1324 
G01 X0.9496 Y1.1297 
G01 X0.9554 Y1.1259 
G01 X0.9603 Y1.1210 
G01 X0.9641 Y1.1153 
G01 X0.9667 Y1.1089 
G01 X0.9681 Y1.1022 
G01 X0.9681 Y1.0953 
G01 X0.9667 Y1.0885 
G01 X0.9641 Y1.0821 
G01 X0.9603 Y1.0764 
G01 X0.9554 Y1.0715 
G01 X0.9496 Y1.0677 
G01 X0.9433 Y1.0651 
G01 X0.9365 Y1.0637 
G01 X0.9296 Y1.0637 
G01 X0.9229 Y1.0651 
G01 X0.9165 Y1.0677 
G01 X0.9108 Y1.0715 
G01 X0.9059 Y1.0764 
G01 X0.9021 Y1.0821 
G01 X0.8994 Y1.0885 
G01 X0.8981 Y1.0953 
G01 X0.8981 Y1.1022 
G01 X0.8994 Y1.1089 
G01 X0.9021 Y1.1153 
G01 X0.9059 Y1.1210 
G01 X0.9108 Y1.1259 
G00 Z0.1000 
G00 X0.9108 Y1.0472 
G01 Z-0.0070 F4.00  
G01 X0.9165 Y1.0510 F10.00 
G01 X0.9229 Y1.0536 
G01 X0.9296 Y1.0550 
G01 X0.9365 Y1.0550 
G01 X0.9433 Y1.0536 
G01 X0.9496 Y1.0510 
G01 X0.9554 Y1.0472 
G01 X0.9603 Y1.0423 
G01 X0.9641 Y1.0366 
G01 X0.9667 Y1.0302 
G01 X0.9681 Y1.0234 
G01 X0.9681 Y1.0165 
G01 X0.9667 Y1.0098 
G01 X0.9641 Y1.0034 
G01 X0.9603 Y0.9977 
G01 X0.9554 Y0.9928 
G01 X0.9496 Y0.9890 
G01 X0.9433 Y0.9863 
G01 X0.9365 Y0.9850 
G01 X0.9296 Y0.9850 
G01 X0.9229 Y0.9863 
G01 X0.9165 Y0.9890 
G01 X0.9108 Y0.9928 
G01 X0.9059 Y0.9977 
G01 X0.9021 Y1.0034 
G01 X0.8994 Y1.0098 
G01 X0.8981 Y1.0165 
G01 X0.8981 Y1.0234 
G01 X0.8994 Y1.0302 
G01 X0.9021 Y1.0366 
G01 X0.9059 Y1.0423 
G01 X0.9108 Y1.0472 
G00 Z0.1000 
G00 X0.9108 Y0.9684 
G01 Z-0.0070 F4.00  
G01 X0.9165 Y0.9723 F10.00 
G01 X0.9229 Y0.9749 
G01 X0.9296 Y0.9762 
G01 X0.9365 Y0.9762 
G01 X0.9433 Y0.9749 
G01 X0.9496 Y0.9723 
G01 X0.9554 Y0.9684 
G01 X0.9603 Y0.9636 
G01 X0.9641 Y0.9578 
G01 X0.9667 Y0.9514 
G01 X0.9681 Y0.9447 
G01 X0.9681 Y0.9378 
G01 X0.9667 Y0.9310 
G01 X0.9641 Y0.9247 
G01 X0.9603 Y0.9189 
G01 X0.9554 Y0.9141 
G01 X0.9496 Y0.9102 
G01 X0.9433 Y0.9076 
G01 X0.9365 Y0.9062 
G01 X0.9296 Y0.9062 
G01 X0.9229 Y0.9076 
G01 X0.9165 Y0.9102 
G01 X0.9108 Y0.9141 
G01 X0.9059 Y0.9189 
G01 X0.9021 Y0.9247 
G01 X0.8994 Y0.9310 
G01 X0.8981 Y0.9378 
G01 X0.8981 Y0.9447 
G01 X0.8994 Y0.9514 
G01 X0.9021 Y0.9578 
G01 X0.9059 Y0.9636 
G01 X0.9108 Y0.9684 
G00 Z0.1000 
G00 X0.9108 Y0.8897 
G01 Z-0.0070 F4.00  
G01 X0.9165 Y0.8935 F10.00 
G01 X0.9229 Y0.8962 
G01 X0.9296 Y0.8975 
G01 X0.9365 Y0.8975 
G01 X0.9433 Y0.8962 
G01 X0.9496 Y0.8935 
G01 X0.9554 Y0.8897 
G01 X0.9603 Y0.8848 
G01 X0.9641 Y0.8791 
G01 X0.9667 Y0.8727 
G01 X0.9681 Y0.8659 
G01 X0.9681 Y0.8591 
G01 X0.9667 Y0.8523 
G01 X0.9641 Y0.8459 
G01 X0.9603 Y0.8402 
G01 X0.9554 Y0.8353 
G01 X0.9496 Y0.8315 
G01 X0.9433 Y0.8288 
G01 X0.9365 Y0.8275 
G01 X0.9296 Y0.8275 
G01 X0.9229 Y0.8288 
G01 X0.9165 Y0.8315 
G01 X0.9108 Y0.8353 
G01 X0.9059 Y0.8402 
G01 X0.9021 Y0.8459 
G01 X0.8994 Y0.8523 
G01 X0.8981 Y0.8591 
G01 X0.8981 Y0.8659 
G01 X0.8994 Y0.8727 
G01 X0.9021 Y0.8791 
G01 X0.9059 Y0.8848 
G01 X0.9108 Y0.8897 
G00 Z0.1000 
G00 X0.9108 Y0.8109 
G01 Z-0.0070 F4.00  
G01 X0.9165 Y0.8148 F10.00 
G01 X0.9229 Y0.8174 
G01 X0.9296 Y0.8188 
G01 X0.9365 Y0.8188 
G01 X0.9433 Y0.8174 
G01 X0.9496 Y0.8148 
G01 X0.9554 Y0.8109 
G01 X0.9603 Y0.8061 
G01 X0.9641 Y0.8003 
G01 X0.9667 Y0.7940 
G01 X0.9681 Y0.7872 
G01 X0.9681 Y0.7803 
G01 X0.9667 Y0.7736 
G01 X0.9641 Y0.7672 
G01 X0.9603 Y0.7614 
G01 X0.9554 Y0.7566 
G01 X0.9496 Y0.7527 
G01 X0.9433 Y0.7501 
G01 X0.9365 Y0.7488 
G01 X0.9296 Y0.7488 
G01 X0.9229 Y0.7501 
G01 X0.9165 Y0.7527 
G01 X0.9108 Y0.7566 
G01 X0.9059 Y0.7614 
G01 X0.9021 Y0.7672 
G01 X0.8994 Y0.7736 
G01 X0.8981 Y0.7803 
G01 X0.8981 Y0.7872 
G01 X0.8994 Y0.7940 
G01 X0.9021 Y0.8003 
G01 X0.9059 Y0.8061 
G01 X0.9108 Y0.8109 
G00 Z0.1000 
G00 X0.7620 Y1.1755 
G01 Z-0.0070 F4.00  
G01 X0.7620 Y1.1782 F10.00 
G01 X0.7843 Y1.2005 
G01 X0.7870 Y1.2005 
G01 X0.7843 Y1.2005 
G01 X0.7620 Y1.1782 
G01 X0.7620 Y1.1755 
G00 Z0.1000 
G00 X0.5410 Y1.2431 
G01 Z-0.0070 F4.00  
G01 X0.5369 Y1.2404 F10.00 
G01 X0.2500 Y1.1208 
G01 X0.2500 Y1.0479 
G01 X0.2854 Y1.0125 
G01 X0.3056 Y1.0125 
G01 X0.3093 Y1.0150 
G01 X0.3150 Y1.0173 
G01 X0.3209 Y1.0185 
G01 X0.3791 Y1.0185 
G01 X0.3850 Y1.0173 
G01 X0.3907 Y1.0150 
G01 X0.3958 Y1.0116 
G01 X0.4001 Y1.0073 
G01 X0.4035 Y1.0022 
G01 X0.4058 Y0.9965 
G01 X0.4070 Y0.9906 
G01 X0.4070 Y0.9844 
G01 X0.4058 Y0.9785 
G01 X0.4035 Y0.9728 
G01 X0.4001 Y0.9677 
G01 X0.3958 Y0.9634 
G01 X0.3907 Y0.9600 
G01 X0.3850 Y0.9577 
G01 X0.3791 Y0.9565 
G01 X0.3209 Y0.9565 
G01 X0.3150 Y0.9577 
G01 X0.3093 Y0.9600 
G01 X0.3056 Y0.9625 
G01 X0.2725 Y0.9625 
G01 X0.2677 Y0.9635 
G01 X0.2632 Y0.9653 
G01 X0.2591 Y0.9681 
G01 X0.2091 Y1.0181 
G01 X0.2056 Y1.0216 
G01 X0.2028 Y1.0257 
G01 X0.2010 Y1.0302 
G01 X0.2000 Y1.0350 
G01 X0.2000 Y1.1375 
G01 X0.2000 Y1.1399 
G01 X0.2005 Y1.1424 
G01 X0.2009 Y1.1447 
G01 X0.2019 Y1.1470 
G01 X0.2028 Y1.1493 
G01 X0.2042 Y1.1514 
G01 X0.2055 Y1.1534 
G01 X0.2073 Y1.1552 
G01 X0.2090 Y1.1569 
G01 X0.2111 Y1.1583 
G01 X0.2131 Y1.1596 
G01 X0.2154 Y1.1606 
G01 X0.5061 Y1.2817 
G01 X0.5153 Y1.3621 
G01 X0.5122 Y1.3652 
G01 X0.5084 Y1.3709 
G01 X0.5057 Y1.3773 
G01 X0.5044 Y1.3841 
G01 X0.5044 Y1.3909 
G01 X0.5057 Y1.3977 
G01 X0.5084 Y1.4041 
G01 X0.5122 Y1.4098 
G01 X0.5171 Y1.4147 
G01 X0.5228 Y1.4185 
G01 X0.5292 Y1.4212 
G01 X0.5359 Y1.4225 
G01 X0.5428 Y1.4225 
G01 X0.5496 Y1.4212 
G01 X0.5559 Y1.4185 
G01 X0.5617 Y1.4147 
G01 X0.5666 Y1.4098 
G01 X0.5704 Y1.4041 
G01 X0.5730 Y1.3977 
G01 X0.5744 Y1.3909 
G01 X0.5744 Y1.3841 
G01 X0.5730 Y1.3773 
G01 X0.5704 Y1.3709 
G01 X0.5666 Y1.3652 
G01 X0.5617 Y1.3603 
G01 X0.5570 Y1.3572 
G01 X0.5474 Y1.2737 
G01 X0.5490 Y1.2698 
G01 X0.5500 Y1.2650 
G01 X0.5500 Y1.2601 
G01 X0.5491 Y1.2553 
G01 X0.5472 Y1.2507 
G01 X0.5445 Y1.2466 
G01 X0.5410 Y1.2431 
G00 Z0.1000 
G00 X0.4682 Y1.2952 
G01 Z-0.0070 F4.00  
G01 X0.4645 Y1.2920 F10.00 
G01 X0.4602 Y1.2896 
G01 X0.1750 Y1.1945 
G01 X0.1750 Y0.9729 
G01 X0.2354 Y0.9125 
G01 X0.3056 Y0.9125 
G01 X0.3093 Y0.9150 
G01 X0.3150 Y0.9173 
G01 X0.3209 Y0.9185 
G01 X0.3791 Y0.9185 
G01 X0.3850 Y0.9173 
G01 X0.3907 Y0.9150 
G01 X0.3958 Y0.9116 
G01 X0.4001 Y0.9073 
G01 X0.4035 Y0.9022 
G01 X0.4058 Y0.8965 
G01 X0.4070 Y0.8906 
G01 X0.4070 Y0.8844 
G01 X0.4058 Y0.8785 
G01 X0.4035 Y0.8728 
G01 X0.4001 Y0.8677 
G01 X0.3958 Y0.8634 
G01 X0.3907 Y0.8600 
G01 X0.3850 Y0.8577 
G01 X0.3791 Y0.8565 
G01 X0.3209 Y0.8565 
G01 X0.3150 Y0.8577 
G01 X0.3093 Y0.8600 
G01 X0.3056 Y0.8625 
G01 X0.2225 Y0.8625 
G01 X0.2177 Y0.8635 
G01 X0.2132 Y0.8653 
G01 X0.2091 Y0.8681 
G01 X0.1341 Y0.9431 
G01 X0.1306 Y0.9466 
G01 X0.1278 Y0.9507 
G01 X0.1260 Y0.9552 
G01 X0.1250 Y0.9600 
G01 X0.1250 Y1.2109 
G01 X0.1249 Y1.2118 
G01 X0.1250 Y1.2134 
G01 X0.1250 Y1.2150 
G01 X0.1252 Y1.2158 
G01 X0.1252 Y1.2167 
G01 X0.1257 Y1.2182 
G01 X0.1260 Y1.2198 
G01 X0.1263 Y1.2206 
G01 X0.1265 Y1.2215 
G01 X0.1272 Y1.2229 
G01 X0.1278 Y1.2243 
G01 X0.1283 Y1.2251 
G01 X0.1287 Y1.2259 
G01 X0.1297 Y1.2271 
G01 X0.1306 Y1.2284 
G01 X0.1312 Y1.2291 
G01 X0.1318 Y1.2298 
G01 X0.1329 Y1.2308 
G01 X0.1341 Y1.2319 
G01 X0.1348 Y1.2324 
G01 X0.1355 Y1.2330 
G01 X0.1368 Y1.2338 
G01 X0.1382 Y1.2347 
G01 X0.1390 Y1.2350 
G01 X0.1398 Y1.2354 
G01 X0.1413 Y1.2359 
G01 X0.1427 Y1.2365 
G01 X0.1436 Y1.2367 
G01 X0.4317 Y1.3327 
G01 X0.4359 Y1.3627 
G01 X0.4334 Y1.3652 
G01 X0.4296 Y1.3709 
G01 X0.4270 Y1.3773 
G01 X0.4256 Y1.3841 
G01 X0.4256 Y1.3909 
G01 X0.4270 Y1.3977 
G01 X0.4296 Y1.4041 
G01 X0.4334 Y1.4098 
G01 X0.4383 Y1.4147 
G01 X0.4441 Y1.4185 
G01 X0.4504 Y1.4212 
G01 X0.4572 Y1.4225 
G01 X0.4641 Y1.4225 
G01 X0.4708 Y1.4212 
G01 X0.4772 Y1.4185 
G01 X0.4829 Y1.4147 
G01 X0.4878 Y1.4098 
G01 X0.4916 Y1.4041 
G01 X0.4943 Y1.3977 
G01 X0.4956 Y1.3909 
G01 X0.4956 Y1.3841 
G01 X0.4943 Y1.3773 
G01 X0.4916 Y1.3709 
G01 X0.4878 Y1.3652 
G01 X0.4829 Y1.3603 
G01 X0.4775 Y1.3567 
G01 X0.4727 Y1.3231 
G01 X0.4729 Y1.3227 
G01 X0.4745 Y1.3181 
G01 X0.4751 Y1.3132 
G01 X0.4748 Y1.3083 
G01 X0.4735 Y1.3035 
G01 X0.4713 Y1.2991 
G01 X0.4682 Y1.2952 
G00 Z0.1000 
G00 X0.4042 Y1.3603 
G01 Z-0.0070 F4.00  
G01 X0.3985 Y1.3565 F10.00 
G01 X0.3921 Y1.3538 
G01 X0.3853 Y1.3525 
G01 X0.3784 Y1.3525 
G01 X0.3717 Y1.3538 
G01 X0.3653 Y1.3565 
G01 X0.3596 Y1.3603 
G01 X0.3547 Y1.3652 
G01 X0.3509 Y1.3709 
G01 X0.3482 Y1.3773 
G01 X0.3469 Y1.3841 
G01 X0.3469 Y1.3909 
G01 X0.3482 Y1.3977 
G01 X0.3509 Y1.4041 
G01 X0.3547 Y1.4098 
G01 X0.3596 Y1.4147 
G01 X0.3653 Y1.4185 
G01 X0.3717 Y1.4212 
G01 X0.3784 Y1.4225 
G01 X0.3853 Y1.4225 
G01 X0.3921 Y1.4212 
G01 X0.3985 Y1.4185 
G01 X0.4042 Y1.4147 
G01 X0.4091 Y1.4098 
G01 X0.4129 Y1.4041 
G01 X0.4155 Y1.3977 
G01 X0.4169 Y1.3909 
G01 X0.4169 Y1.3841 
G01 X0.4155 Y1.3773 
G01 X0.4129 Y1.3709 
G01 X0.4091 Y1.3652 
G01 X0.4042 Y1.3603 
G00 Z0.1000 
G00 X0.5831 Y1.3565 
G01 Z-0.0070 F4.00  
G01 X0.5831 Y1.4185 F10.00 
G01 X0.5839 Y1.4203 
G01 X0.5853 Y1.4217 
G01 X0.5871 Y1.4225 
G01 X0.6491 Y1.4225 
G01 X0.6509 Y1.4217 
G01 X0.6523 Y1.4203 
G01 X0.6531 Y1.4185 
G01 X0.6531 Y1.3565 
G01 X0.6523 Y1.3547 
G01 X0.6509 Y1.3533 
G01 X0.6491 Y1.3525 
G01 X0.5871 Y1.3525 
G01 X0.5853 Y1.3533 
G01 X0.5839 Y1.3547 
G01 X0.5831 Y1.3565 
G00 Z0.1000 
G00 X0.5244 Y1.5514 
G01 Z-0.0070 F4.00  
G01 X0.5286 Y1.5556 F10.00 
G01 X0.5244 Y1.5514 
G00 Z0.1000 
G00 X0.5214 Y1.5493 
G01 Z-0.0070 F4.00  
G01 X0.5190 Y1.5476 F10.00 
G01 X0.5196 Y1.5480 
G01 X0.5214 Y1.5493 
G00 Z0.1000 
G00 X0.5308 Y1.5586 
G01 Z-0.0070 F4.00  
G01 X0.5321 Y1.5604 F10.00 
G01 X0.5324 Y1.5610 
G01 X0.5308 Y1.5586 
G00 Z0.1000 
G00 X0.5341 Y1.5643 
G01 Z-0.0070 F4.00  
G01 X0.5347 Y1.5656 F10.00 
G01 X0.5352 Y1.5670 
G01 X0.5341 Y1.5643 
G00 Z0.1000 
G00 X0.4659 Y1.5643 
G01 Z-0.0070 F4.00  
G01 X0.4648 Y1.5670 F10.00 
G01 X0.4653 Y1.5656 
G01 X0.4659 Y1.5643 
G00 Z0.1000 
G00 X0.4676 Y1.5610 
G01 Z-0.0070 F4.00  
G01 X0.4679 Y1.5604 F10.00 
G01 X0.4692 Y1.5586 
G01 X0.4676 Y1.5610 
G00 Z0.1000 
G00 X0.4714 Y1.5556 
G01 Z-0.0070 F4.00  
G01 X0.4714 Y1.5556 F10.00 
G01 X0.4756 Y1.5514 
G01 X0.4714 Y1.5556 
G00 Z0.1000 
G00 X0.4786 Y1.5493 
G01 Z-0.0070 F4.00  
G01 X0.4804 Y1.5480 F10.00 
G01 X0.4810 Y1.5476 
G01 X0.4786 Y1.5493 
G00 Z0.1000 
G00 X0.4636 Y1.5708 
G01 Z-0.0070 F4.00  
G01 X0.4625 Y1.5763 F10.00 
G01 X0.4625 Y1.6487 
G01 X0.4636 Y1.6542 
G01 X0.4635 Y1.6538 
G01 X0.4631 Y1.6527 
G01 X0.4628 Y1.6523 
G01 X0.4626 Y1.6518 
G01 X0.4619 Y1.6508 
G01 X0.4612 Y1.6498 
G01 X0.4609 Y1.6495 
G01 X0.4605 Y1.6491 
G01 X0.4596 Y1.6483 
G01 X0.4587 Y1.6475 
G01 X0.4582 Y1.6473 
G01 X0.4578 Y1.6470 
G01 X0.4567 Y1.6465 
G01 X0.4556 Y1.6460 
G01 X0.4551 Y1.6459 
G01 X0.4547 Y1.6457 
G01 X0.4535 Y1.6455 
G01 X0.4523 Y1.6453 
G01 X0.4518 Y1.6453 
G01 X0.4513 Y1.6452 
G01 X0.4501 Y1.6454 
G01 X0.4489 Y1.6455 
G01 X0.4484 Y1.6456 
G01 X0.4479 Y1.6457 
G01 X0.4468 Y1.6461 
G01 X0.4456 Y1.6465 
G01 X0.4452 Y1.6468 
G01 X0.4447 Y1.6470 
G01 X0.4438 Y1.6477 
G01 X0.4428 Y1.6484 
G01 X0.4424 Y1.6488 
G01 X0.4420 Y1.6491 
G01 X0.4413 Y1.6500 
G01 X0.4405 Y1.6509 
G01 X0.4402 Y1.6514 
G01 X0.4399 Y1.6518 
G01 X0.4395 Y1.6529 
G01 X0.4389 Y1.6540 
G01 X0.4388 Y1.6545 
G01 X0.4335 Y1.6673 
G01 X0.4224 Y1.6785 
G01 X0.4079 Y1.6845 
G01 X0.3921 Y1.6845 
G01 X0.3776 Y1.6785 
G01 X0.3665 Y1.6673 
G01 X0.3605 Y1.6528 
G01 X0.3605 Y1.5722 
G01 X0.3665 Y1.5577 
G01 X0.3776 Y1.5465 
G01 X0.3921 Y1.5405 
G01 X0.4079 Y1.5405 
G01 X0.4224 Y1.5465 
G01 X0.4335 Y1.5577 
G01 X0.4388 Y1.5705 
G01 X0.4389 Y1.5710 
G01 X0.4395 Y1.5721 
G01 X0.4399 Y1.5732 
G01 X0.4402 Y1.5736 
G01 X0.4405 Y1.5741 
G01 X0.4413 Y1.5750 
G01 X0.4420 Y1.5759 
G01 X0.4424 Y1.5762 
G01 X0.4428 Y1.5766 
G01 X0.4438 Y1.5773 
G01 X0.4447 Y1.5780 
G01 X0.4452 Y1.5782 
G01 X0.4456 Y1.5785 
G01 X0.4468 Y1.5789 
G01 X0.4479 Y1.5793 
G01 X0.4484 Y1.5794 
G01 X0.4489 Y1.5795 
G01 X0.4501 Y1.5796 
G01 X0.4513 Y1.5798 
G01 X0.4518 Y1.5797 
G01 X0.4523 Y1.5797 
G01 X0.4535 Y1.5795 
G01 X0.4547 Y1.5793 
G01 X0.4551 Y1.5791 
G01 X0.4556 Y1.5790 
G01 X0.4567 Y1.5785 
G01 X0.4578 Y1.5780 
G01 X0.4582 Y1.5777 
G01 X0.4587 Y1.5775 
G01 X0.4596 Y1.5767 
G01 X0.4605 Y1.5759 
G01 X0.4609 Y1.5755 
G01 X0.4612 Y1.5752 
G01 X0.4619 Y1.5742 
G01 X0.4626 Y1.5732 
G01 X0.4628 Y1.5727 
G01 X0.4631 Y1.5723 
G01 X0.4635 Y1.5712 
G01 X0.4636 Y1.5708 
G00 Z0.1000 
G00 X0.4360 Y1.5691 
G01 Z-0.0070 F4.00  
G01 X0.4332 Y1.5623 F10.00 
G01 X0.4291 Y1.5561 
G01 X0.4239 Y1.5509 
G01 X0.4178 Y1.5468 
G01 X0.4109 Y1.5440 
G01 X0.4037 Y1.5425 
G01 X0.3963 Y1.5425 
G01 X0.3891 Y1.5440 
G01 X0.3822 Y1.5468 
G01 X0.3761 Y1.5509 
G01 X0.3709 Y1.5561 
G01 X0.3668 Y1.5623 
G01 X0.3640 Y1.5691 
G01 X0.3625 Y1.5763 
G01 X0.3625 Y1.6487 
G01 X0.3640 Y1.6559 
G01 X0.3668 Y1.6627 
G01 X0.3709 Y1.6689 
G01 X0.3761 Y1.6741 
G01 X0.3822 Y1.6782 
G01 X0.3891 Y1.6810 
G01 X0.3963 Y1.6825 
G01 X0.4037 Y1.6825 
G01 X0.4109 Y1.6810 
G01 X0.4178 Y1.6782 
G01 X0.4239 Y1.6741 
G01 X0.4291 Y1.6689 
G01 X0.4332 Y1.6627 
G01 X0.4360 Y1.6559 
G01 X0.4375 Y1.6487 
G01 X0.4375 Y1.5763 
G01 X0.4360 Y1.5691 
G00 Z0.1000 
G00 X0.4648 Y1.6580 
G01 Z-0.0070 F4.00  
G01 X0.4659 Y1.6607 F10.00 
G01 X0.4653 Y1.6594 
G01 X0.4648 Y1.6580 
G00 Z0.1000 
G00 X0.4676 Y1.6640 
G01 Z-0.0070 F4.00  
G01 X0.4692 Y1.6664 F10.00 
G01 X0.4679 Y1.6646 
G01 X0.4676 Y1.6640 
G00 Z0.1000 
G00 X0.4714 Y1.6694 
G01 Z-0.0070 F4.00  
G01 X0.4756 Y1.6736 F10.00 
G01 X0.4714 Y1.6694 
G00 Z0.1000 
G00 X0.4786 Y1.6757 
G01 Z-0.0070 F4.00  
G01 X0.4810 Y1.6774 F10.00 
G01 X0.4804 Y1.6770 
G01 X0.4786 Y1.6757 
G00 Z0.1000 
G00 X0.5190 Y1.6774 
G01 Z-0.0070 F4.00  
G01 X0.5214 Y1.6757 F10.00 
G01 X0.5196 Y1.6770 
G01 X0.5190 Y1.6774 
G00 Z0.1000 
G00 X0.5244 Y1.6736 
G01 Z-0.0070 F4.00  
G01 X0.5286 Y1.6694 F10.00 
G01 X0.5244 Y1.6736 
G00 Z0.1000 
G00 X0.5308 Y1.6664 
G01 Z-0.0070 F4.00  
G01 X0.5324 Y1.6640 F10.00 
G01 X0.5321 Y1.6646 
G01 X0.5308 Y1.6664 
G00 Z0.1000 
G00 X0.5341 Y1.6607 
G01 Z-0.0070 F4.00  
G01 X0.5352 Y1.6580 F10.00 
G01 X0.5347 Y1.6594 
G01 X0.5341 Y1.6607 
G00 Z0.1000 
G00 X0.4387 Y1.7794 
G01 Z-0.0070 F4.00  
G01 X0.4435 Y1.7842 F10.00 
G01 X0.4475 Y1.7898 
G01 X0.4501 Y1.7947 
G01 X0.4475 Y1.7898 
G01 X0.4435 Y1.7842 
G01 X0.4387 Y1.7794 
G01 X0.4332 Y1.7754 
G01 X0.4271 Y1.7723 
G01 X0.4206 Y1.7702 
G01 X0.4138 Y1.7691 
G01 X0.3898 Y1.7691 
G01 X0.4138 Y1.7691 
G01 X0.4206 Y1.7702 
G01 X0.4271 Y1.7723 
G01 X0.4332 Y1.7754 
G01 X0.4387 Y1.7794 
G00 Z0.1000 
G00 X0.4501 Y1.8303 
G01 Z-0.0070 F4.00  
G01 X0.4501 Y1.8303 F10.00 
G01 X0.4475 Y1.8352 
G01 X0.4435 Y1.8408 
G01 X0.4387 Y1.8456 
G01 X0.4332 Y1.8496 
G01 X0.4271 Y1.8527 
G01 X0.4206 Y1.8548 
G01 X0.4138 Y1.8559 
G01 X0.4206 Y1.8548 
G01 X0.4271 Y1.8527 
G01 X0.4332 Y1.8496 
G01 X0.4387 Y1.8456 
G01 X0.4435 Y1.8408 
G01 X0.4475 Y1.8352 
G01 X0.4501 Y1.8303 
G00 Z0.1000 
G00 X0.4138 Y1.8559 
G01 Z-0.0070 F4.00  
G01 X0.3898 Y1.8559 F10.00 
G01 X0.4138 Y1.8559 
G00 Z0.1000 
G00 X0.3543 Y1.8559 
G01 Z-0.0070 F4.00  
G01 X0.3302 Y1.8559 F10.00 
G01 X0.3235 Y1.8548 
G01 X0.3170 Y1.8527 
G01 X0.3109 Y1.8496 
G01 X0.3054 Y1.8456 
G01 X0.3006 Y1.8408 
G01 X0.2966 Y1.8352 
G01 X0.2940 Y1.8303 
G01 X0.2966 Y1.8352 
G01 X0.3006 Y1.8408 
G01 X0.3054 Y1.8456 
G01 X0.3109 Y1.8496 
G01 X0.3170 Y1.8527 
G01 X0.3235 Y1.8548 
G01 X0.3302 Y1.8559 
G01 X0.3543 Y1.8559 
G00 Z0.1000 
G00 X0.3543 Y1.7691 
G01 Z-0.0070 F4.00  
G01 X0.3302 Y1.7691 F10.00 
G01 X0.3235 Y1.7702 
G01 X0.3170 Y1.7723 
G01 X0.3109 Y1.7754 
G01 X0.3054 Y1.7794 
G01 X0.3006 Y1.7842 
G01 X0.2966 Y1.7898 
G01 X0.2940 Y1.7947 
G01 X0.2966 Y1.7898 
G01 X0.3006 Y1.7842 
G01 X0.3054 Y1.7794 
G01 X0.3109 Y1.7754 
G01 X0.3170 Y1.7723 
G01 X0.3235 Y1.7702 
G01 X0.3302 Y1.7691 
G01 X0.3543 Y1.7691 
G00 Z0.1000 
G00 X0.3791 Y1.1185 
G01 Z-0.0070 F4.00  
G01 X0.3850 Y1.1173 F10.00 
G01 X0.3907 Y1.1150 
G01 X0.3958 Y1.1116 
G01 X0.4001 Y1.1073 
G01 X0.4035 Y1.1022 
G01 X0.4058 Y1.0965 
G01 X0.4070 Y1.0906 
G01 X0.4070 Y1.0844 
G01 X0.4058 Y1.0785 
G01 X0.4035 Y1.0728 
G01 X0.4001 Y1.0677 
G01 X0.3958 Y1.0634 
G01 X0.3907 Y1.0600 
G01 X0.3850 Y1.0577 
G01 X0.3791 Y1.0565 
G01 X0.3209 Y1.0565 
G01 X0.3150 Y1.0577 
G01 X0.3093 Y1.0600 
G01 X0.3042 Y1.0634 
G01 X0.2999 Y1.0677 
G01 X0.2965 Y1.0728 
G01 X0.2942 Y1.0785 
G01 X0.2930 Y1.0844 
G01 X0.2930 Y1.0906 
G01 X0.2942 Y1.0965 
G01 X0.2965 Y1.1022 
G01 X0.2999 Y1.1073 
G01 X0.3042 Y1.1116 
G01 X0.3093 Y1.1150 
G01 X0.3150 Y1.1173 
G01 X0.3209 Y1.1185 
G01 X0.3791 Y1.1185 
G00 Z0.1000 
G00 X0.0979 Y1.1153 
G01 Z-0.0070 F4.00  
G01 X0.1006 Y1.1089 F10.00 
G01 X0.1019 Y1.1022 
G01 X0.1019 Y1.0953 
G01 X0.1006 Y1.0885 
G01 X0.0979 Y1.0821 
G01 X0.0941 Y1.0764 
G01 X0.0892 Y1.0715 
G01 X0.0835 Y1.0677 
G01 X0.0771 Y1.0651 
G01 X0.0704 Y1.0637 
G01 X0.0635 Y1.0637 
G01 X0.0567 Y1.0651 
G01 X0.0504 Y1.0677 
G01 X0.0446 Y1.0715 
G01 X0.0397 Y1.0764 
G01 X0.0359 Y1.0821 
G01 X0.0333 Y1.0885 
G01 X0.0319 Y1.0953 
G01 X0.0319 Y1.1022 
G01 X0.0333 Y1.1089 
G01 X0.0359 Y1.1153 
G01 X0.0397 Y1.1210 
G01 X0.0446 Y1.1259 
G01 X0.0504 Y1.1297 
G01 X0.0567 Y1.1324 
G01 X0.0635 Y1.1337 
G01 X0.0704 Y1.1337 
G01 X0.0771 Y1.1324 
G01 X0.0835 Y1.1297 
G01 X0.0892 Y1.1259 
G01 X0.0941 Y1.1210 
G01 X0.0979 Y1.1153 
G00 Z0.1000 
G00 X0.0892 Y1.1503 
G01 Z-0.0070 F4.00  
G01 X0.0835 Y1.1464 F10.00 
G01 X0.0771 Y1.1438 
G01 X0.0704 Y1.1425 
G01 X0.0635 Y1.1425 
G01 X0.0567 Y1.1438 
G01 X0.0504 Y1.1464 
G01 X0.0446 Y1.1503 
G01 X0.0397 Y1.1551 
G01 X0.0359 Y1.1609 
G01 X0.0333 Y1.1673 
G01 X0.0319 Y1.1740 
G01 X0.0319 Y1.1809 
G01 X0.0333 Y1.1877 
G01 X0.0359 Y1.1940 
G01 X0.0397 Y1.1998 
G01 X0.0446 Y1.2046 
G01 X0.0504 Y1.2085 
G01 X0.0567 Y1.2111 
G01 X0.0635 Y1.2125 
G01 X0.0704 Y1.2125 
G01 X0.0771 Y1.2111 
G01 X0.0835 Y1.2085 
G01 X0.0892 Y1.2046 
G01 X0.0941 Y1.1998 
G01 X0.0979 Y1.1940 
G01 X0.1006 Y1.1877 
G01 X0.1019 Y1.1809 
G01 X0.1019 Y1.1740 
G01 X0.1006 Y1.1673 
G01 X0.0979 Y1.1609 
G01 X0.0941 Y1.1551 
G01 X0.0892 Y1.1503 
G00 Z0.1000 
G00 X0.0892 Y1.0472 
G01 Z-0.0070 F4.00  
G01 X0.0941 Y1.0423 F10.00 
G01 X0.0979 Y1.0366 
G01 X0.1006 Y1.0302 
G01 X0.1019 Y1.0234 
G01 X0.1019 Y1.0165 
G01 X0.1006 Y1.0098 
G01 X0.0979 Y1.0034 
G01 X0.0941 Y0.9977 
G01 X0.0892 Y0.9928 
G01 X0.0835 Y0.9890 
G01 X0.0771 Y0.9863 
G01 X0.0704 Y0.9850 
G01 X0.0635 Y0.9850 
G01 X0.0567 Y0.9863 
G01 X0.0504 Y0.9890 
G01 X0.0446 Y0.9928 
G01 X0.0397 Y0.9977 
G01 X0.0359 Y1.0034 
G01 X0.0333 Y1.0098 
G01 X0.0319 Y1.0165 
G01 X0.0319 Y1.0234 
G01 X0.0333 Y1.0302 
G01 X0.0359 Y1.0366 
G01 X0.0397 Y1.0423 
G01 X0.0446 Y1.0472 
G01 X0.0504 Y1.0510 
G01 X0.0567 Y1.0536 
G01 X0.0635 Y1.0550 
G01 X0.0704 Y1.0550 
G01 X0.0771 Y1.0536 
G01 X0.0835 Y1.0510 
G01 X0.0892 Y1.0472 
G00 Z0.1000 
G00 X0.0892 Y0.9684 
G01 Z-0.0070 F4.00  
G01 X0.0941 Y0.9636 F10.00 
G01 X0.0979 Y0.9578 
G01 X0.1006 Y0.9514 
G01 X0.1019 Y0.9447 
G01 X0.1019 Y0.9378 
G01 X0.1006 Y0.9310 
G01 X0.0979 Y0.9247 
G01 X0.0941 Y0.9189 
G01 X0.0892 Y0.9141 
G01 X0.0835 Y0.9102 
G01 X0.0771 Y0.9076 
G01 X0.0704 Y0.9062 
G01 X0.0635 Y0.9062 
G01 X0.0567 Y0.9076 
G01 X0.0504 Y0.9102 
G01 X0.0446 Y0.9141 
G01 X0.0397 Y0.9189 
G01 X0.0359 Y0.9247 
G01 X0.0333 Y0.9310 
G01 X0.0319 Y0.9378 
G01 X0.0319 Y0.9447 
G01 X0.0333 Y0.9514 
G01 X0.0359 Y0.9578 
G01 X0.0397 Y0.9636 
G01 X0.0446 Y0.9684 
G01 X0.0504 Y0.9723 
G01 X0.0567 Y0.9749 
G01 X0.0635 Y0.9762 
G01 X0.0704 Y0.9762 
G01 X0.0771 Y0.9749 
G01 X0.0835 Y0.9723 
G01 X0.0892 Y0.9684 
G00 Z0.1000 
G00 X0.0892 Y0.8897 
G01 Z-0.0070 F4.00  
G01 X0.0941 Y0.8848 F10.00 
G01 X0.0979 Y0.8791 
G01 X0.1006 Y0.8727 
G01 X0.1019 Y0.8659 
G01 X0.1019 Y0.8591 
G01 X0.1006 Y0.8523 
G01 X0.0979 Y0.8459 
G01 X0.0941 Y0.8402 
G01 X0.0892 Y0.8353 
G01 X0.0835 Y0.8315 
G01 X0.0771 Y0.8288 
G01 X0.0704 Y0.8275 
G01 X0.0635 Y0.8275 
G01 X0.0567 Y0.8288 
G01 X0.0504 Y0.8315 
G01 X0.0446 Y0.8353 
G01 X0.0397 Y0.8402 
G01 X0.0359 Y0.8459 
G01 X0.0333 Y0.8523 
G01 X0.0319 Y0.8591 
G01 X0.0319 Y0.8659 
G01 X0.0333 Y0.8727 
G01 X0.0359 Y0.8791 
G01 X0.0397 Y0.8848 
G01 X0.0446 Y0.8897 
G01 X0.0504 Y0.8935 
G01 X0.0567 Y0.8962 
G01 X0.0635 Y0.8975 
G01 X0.0704 Y0.8975 
G01 X0.0771 Y0.8962 
G01 X0.0835 Y0.8935 
G01 X0.0892 Y0.8897 
G00 Z0.1000 
G00 X0.0892 Y0.8109 
G01 Z-0.0070 F4.00  
G01 X0.0941 Y0.8061 F10.00 
G01 X0.0951 Y0.8046 
G01 X0.1853 Y0.8074 
G01 X0.1856 Y0.8075 
G01 X0.1879 Y0.8075 
G01 X0.1902 Y0.8076 
G01 X0.1905 Y0.8075 
G01 X0.3002 Y0.8075 
G01 X0.3042 Y0.8116 
G01 X0.3093 Y0.8150 
G01 X0.3150 Y0.8173 
G01 X0.3209 Y0.8185 
G01 X0.3791 Y0.8185 
G01 X0.3850 Y0.8173 
G01 X0.3907 Y0.8150 
G01 X0.3958 Y0.8116 
G01 X0.4001 Y0.8073 
G01 X0.4035 Y0.8022 
G01 X0.4058 Y0.7965 
G01 X0.4070 Y0.7906 
G01 X0.4070 Y0.7844 
G01 X0.4058 Y0.7785 
G01 X0.4035 Y0.7728 
G01 X0.4001 Y0.7677 
G01 X0.3958 Y0.7634 
G01 X0.3907 Y0.7600 
G01 X0.3850 Y0.7577 
G01 X0.3791 Y0.7565 
G01 X0.3209 Y0.7565 
G01 X0.3150 Y0.7577 
G01 X0.3093 Y0.7600 
G01 X0.3042 Y0.7634 
G01 X0.3002 Y0.7675 
G01 X0.1885 Y0.7675 
G01 X0.0963 Y0.7647 
G01 X0.0941 Y0.7614 
G01 X0.0892 Y0.7566 
G01 X0.0835 Y0.7527 
G01 X0.0771 Y0.7501 
G01 X0.0704 Y0.7488 
G01 X0.0635 Y0.7488 
G01 X0.0567 Y0.7501 
G01 X0.0504 Y0.7527 
G01 X0.0446 Y0.7566 
G01 X0.0397 Y0.7614 
G01 X0.0359 Y0.7672 
G01 X0.0333 Y0.7736 
G01 X0.0319 Y0.7803 
G01 X0.0319 Y0.7872 
G01 X0.0333 Y0.7940 
G01 X0.0359 Y0.8003 
G01 X0.0397 Y0.8061 
G01 X0.0446 Y0.8109 
G01 X0.0504 Y0.8148 
G01 X0.0567 Y0.8174 
G01 X0.0635 Y0.8188 
G01 X0.0704 Y0.8188 
G01 X0.0771 Y0.8174 
G01 X0.0835 Y0.8148 
G01 X0.0892 Y0.8109 
G00 Z0.1000 
G00 X0.0892 Y0.7322 
G01 Z-0.0070 F4.00  
G01 X0.0941 Y0.7273 F10.00 
G01 X0.0947 Y0.7265 
G01 X0.2081 Y0.7325 
G01 X0.2104 Y0.7327 
G01 X0.2107 Y0.7326 
G01 X0.2110 Y0.7326 
G01 X0.2133 Y0.7321 
G01 X0.3094 Y0.7150 
G01 X0.3150 Y0.7173 
G01 X0.3209 Y0.7185 
G01 X0.3791 Y0.7185 
G01 X0.3850 Y0.7173 
G01 X0.3907 Y0.7150 
G01 X0.3958 Y0.7116 
G01 X0.4001 Y0.7073 
G01 X0.4035 Y0.7022 
G01 X0.4058 Y0.6965 
G01 X0.4070 Y0.6906 
G01 X0.4070 Y0.6844 
G01 X0.4058 Y0.6785 
G01 X0.4035 Y0.6728 
G01 X0.4001 Y0.6677 
G01 X0.3958 Y0.6634 
G01 X0.3907 Y0.6600 
G01 X0.3850 Y0.6577 
G01 X0.3791 Y0.6565 
G01 X0.3209 Y0.6565 
G01 X0.3150 Y0.6577 
G01 X0.3093 Y0.6600 
G01 X0.3042 Y0.6634 
G01 X0.2999 Y0.6677 
G01 X0.2965 Y0.6728 
G01 X0.2948 Y0.6770 
G01 X0.2082 Y0.6924 
G01 X0.0967 Y0.6866 
G01 X0.0941 Y0.6827 
G01 X0.0892 Y0.6778 
G01 X0.0835 Y0.6740 
G01 X0.0771 Y0.6714 
G01 X0.0704 Y0.6700 
G01 X0.0635 Y0.6700 
G01 X0.0567 Y0.6714 
G01 X0.0504 Y0.6740 
G01 X0.0446 Y0.6778 
G01 X0.0397 Y0.6827 
G01 X0.0359 Y0.6884 
G01 X0.0333 Y0.6948 
G01 X0.0319 Y0.7016 
G01 X0.0319 Y0.7085 
G01 X0.0333 Y0.7152 
G01 X0.0359 Y0.7216 
G01 X0.0397 Y0.7273 
G01 X0.0446 Y0.7322 
G01 X0.0504 Y0.7360 
G01 X0.0567 Y0.7387 
G01 X0.0635 Y0.7400 
G01 X0.0704 Y0.7400 
G01 X0.0771 Y0.7387 
G01 X0.0835 Y0.7360 
G01 X0.0892 Y0.7322 
G00 Z0.1000 
G00 X0.0892 Y0.6535 
G01 Z-0.0070 F4.00  
G01 X0.0941 Y0.6486 F10.00 
G01 X0.0976 Y0.6433 
G01 X0.1927 Y0.6339 
G01 X0.1933 Y0.6344 
G01 X0.1978 Y0.6364 
G01 X0.2026 Y0.6374 
G01 X0.2076 Y0.6376 
G01 X0.3194 Y0.6182 
G01 X0.3209 Y0.6185 
G01 X0.3791 Y0.6185 
G01 X0.3850 Y0.6173 
G01 X0.3907 Y0.6150 
G01 X0.3958 Y0.6116 
G01 X0.4001 Y0.6073 
G01 X0.4035 Y0.6022 
G01 X0.4058 Y0.5965 
G01 X0.4070 Y0.5906 
G01 X0.4070 Y0.5844 
G01 X0.4058 Y0.5785 
G01 X0.4035 Y0.5728 
G01 X0.4001 Y0.5677 
G01 X0.3958 Y0.5634 
G01 X0.3907 Y0.5600 
G01 X0.3850 Y0.5577 
G01 X0.3791 Y0.5565 
G01 X0.3209 Y0.5565 
G01 X0.3150 Y0.5577 
G01 X0.3093 Y0.5600 
G01 X0.3042 Y0.5634 
G01 X0.2999 Y0.5677 
G01 X0.2976 Y0.5712 
G01 X0.1990 Y0.5883 
G01 X0.1944 Y0.5901 
G01 X0.1903 Y0.5927 
G01 X0.1888 Y0.5941 
G01 X0.0937 Y0.6035 
G01 X0.0892 Y0.5991 
G01 X0.0835 Y0.5953 
G01 X0.0771 Y0.5926 
G01 X0.0704 Y0.5913 
G01 X0.0635 Y0.5913 
G01 X0.0567 Y0.5926 
G01 X0.0504 Y0.5953 
G01 X0.0446 Y0.5991 
G01 X0.0397 Y0.6040 
G01 X0.0359 Y0.6097 
G01 X0.0333 Y0.6161 
G01 X0.0319 Y0.6228 
G01 X0.0319 Y0.6297 
G01 X0.0333 Y0.6365 
G01 X0.0359 Y0.6429 
G01 X0.0397 Y0.6486 
G01 X0.0446 Y0.6535 
G01 X0.0504 Y0.6573 
G01 X0.0567 Y0.6599 
G01 X0.0635 Y0.6613 
G01 X0.0704 Y0.6613 
G01 X0.0771 Y0.6599 
G01 X0.0835 Y0.6573 
G01 X0.0892 Y0.6535 
G00 Z0.1000 
G00 X0.0892 Y0.5747 
G01 Z-0.0070 F4.00  
G01 X0.0941 Y0.5699 F10.00 
G01 X0.0979 Y0.5641 
G01 X0.1006 Y0.5577 
G01 X0.1019 Y0.5510 
G01 X0.1019 Y0.5441 
G01 X0.1006 Y0.5373 
G01 X0.0979 Y0.5310 
G01 X0.0941 Y0.5252 
G01 X0.0892 Y0.5204 
G01 X0.0835 Y0.5165 
G01 X0.0771 Y0.5139 
G01 X0.0704 Y0.5125 
G01 X0.0635 Y0.5125 
G01 X0.0567 Y0.5139 
G01 X0.0504 Y0.5165 
G01 X0.0446 Y0.5204 
G01 X0.0397 Y0.5252 
G01 X0.0359 Y0.5310 
G01 X0.0333 Y0.5373 
G01 X0.0319 Y0.5441 
G01 X0.0319 Y0.5510 
G01 X0.0333 Y0.5577 
G01 X0.0359 Y0.5641 
G01 X0.0397 Y0.5699 
G01 X0.0446 Y0.5747 
G01 X0.0504 Y0.5786 
G01 X0.0567 Y0.5812 
G01 X0.0635 Y0.5825 
G01 X0.0704 Y0.5825 
G01 X0.0771 Y0.5812 
G01 X0.0835 Y0.5786 
G01 X0.0892 Y0.5747 
G00 Z0.1000 
G00 X0.0897 Y0.4955 
G01 Z-0.0070 F4.00  
G01 X0.0936 Y0.4916 F10.00 
G01 X0.0897 Y0.4955 
G00 Z0.1000 
G00 X0.0956 Y0.4888 
G01 Z-0.0070 F4.00  
G01 X0.0972 Y0.4865 F10.00 
G01 X0.0969 Y0.4871 
G01 X0.0956 Y0.4888 
G00 Z0.1000 
G00 X0.0987 Y0.4835 
G01 Z-0.0070 F4.00  
G01 X0.0994 Y0.4818 F10.00 
G01 X0.0994 Y0.4822 
G01 X0.0987 Y0.4835 
G00 Z0.1000 
G00 X0.0994 Y0.4558 
G01 Z-0.0070 F4.00  
G01 X0.0987 Y0.4541 F10.00 
G01 X0.0994 Y0.4554 
G01 X0.0995 Y0.4558 
G00 Z0.1000 
G00 X0.0972 Y0.4511 
G01 Z-0.0070 F4.00  
G01 X0.0956 Y0.4488 F10.00 
G01 X0.0969 Y0.4505 
G01 X0.0972 Y0.4511 
G00 Z0.1000 
G00 X0.0936 Y0.4460 
G01 Z-0.0070 F4.00  
G01 X0.0897 Y0.4421 F10.00 
G01 X0.0936 Y0.4460 
G00 Z0.1000 
G00 X0.0869 Y0.4401 
G01 Z-0.0070 F4.00  
G01 X0.0847 Y0.4386 F10.00 
G01 X0.0853 Y0.4389 
G01 X0.0869 Y0.4401 
G00 Z0.1000 
G00 X0.0816 Y0.4370 
G01 Z-0.0070 F4.00  
G01 X0.0799 Y0.4363 F10.00 
G01 X0.0804 Y0.4364 
G01 X0.0816 Y0.4370 
G00 Z0.1000 
G00 X0.0539 Y0.4363 
G01 Z-0.0070 F4.00  
G01 X0.0523 Y0.4370 F10.00 
G01 X0.0535 Y0.4364 
G01 X0.0539 Y0.4362 
G00 Z0.1000 
G00 X0.0492 Y0.4385 
G01 Z-0.0070 F4.00  
G01 X0.0469 Y0.4401 F10.00 
G01 X0.0486 Y0.4389 
G01 X0.0492 Y0.4385 
G00 Z0.1000 
G00 X0.0441 Y0.4421 
G01 Z-0.0070 F4.00  
G01 X0.0402 Y0.4460 F10.00 
G01 X0.0441 Y0.4421 
G00 Z0.1000 
G00 X0.0382 Y0.4488 
G01 Z-0.0070 F4.00  
G01 X0.0367 Y0.4511 F10.00 
G01 X0.0370 Y0.4505 
G01 X0.0382 Y0.4488 
G00 Z0.1000 
G00 X0.0351 Y0.4541 
G01 Z-0.0070 F4.00  
G01 X0.0341 Y0.4567 F10.00 
G01 X0.0345 Y0.4554 
G01 X0.0351 Y0.4541 
G00 Z0.1000 
G00 X0.0330 Y0.4599 
G01 Z-0.0070 F4.00  
G01 X0.0330 Y0.4600 F10.00 
G00 Z0.1000 
G00 X0.3004 Y0.4673 
G01 Z-0.0070 F4.00  
G01 X0.3038 Y0.4639 F10.00 
G01 X0.3004 Y0.4673 
G00 Z0.1000 
G00 X0.2986 Y0.4698 
G01 Z-0.0070 F4.00  
G01 X0.2972 Y0.4718 F10.00 
G01 X0.2975 Y0.4713 
G01 X0.2986 Y0.4698 
G00 Z0.1000 
G00 X0.3063 Y0.4621 
G01 Z-0.0070 F4.00  
G01 X0.3078 Y0.4610 F10.00 
G01 X0.3083 Y0.4607 
G01 X0.3063 Y0.4621 
G00 Z0.1000 
G00 X0.3110 Y0.4593 
G01 Z-0.0070 F4.00  
G01 X0.3121 Y0.4588 F10.00 
G01 X0.3133 Y0.4584 
G01 X0.3110 Y0.4593 
G00 Z0.1000 
G00 X0.3162 Y0.4575 
G01 Z-0.0070 F4.00  
G01 X0.3167 Y0.4573 F10.00 
G01 X0.3186 Y0.4570 
G01 X0.3162 Y0.4575 
G00 Z0.1000 
G00 X0.3216 Y0.4565 
G01 Z-0.0070 F4.00  
G01 X0.3216 Y0.4565 F10.00 
G01 X0.3370 Y0.4565 
G01 X0.3216 Y0.4565 
G00 Z0.1000 
G00 X0.3630 Y0.4565 
G01 Z-0.0070 F4.00  
G01 X0.3630 Y0.4565 F10.00 
G01 X0.3784 Y0.4565 
G01 X0.3630 Y0.4565 
G00 Z0.1000 
G00 X0.3814 Y0.4570 
G01 Z-0.0070 F4.00  
G01 X0.3833 Y0.4573 F10.00 
G01 X0.3838 Y0.4575 
G01 X0.3814 Y0.4570 
G00 Z0.1000 
G00 X0.3867 Y0.4584 
G01 Z-0.0070 F4.00  
G01 X0.3879 Y0.4588 F10.00 
G01 X0.3890 Y0.4593 
G01 X0.3867 Y0.4584 
G00 Z0.1000 
G00 X0.3917 Y0.4607 
G01 Z-0.0070 F4.00  
G01 X0.3922 Y0.4610 F10.00 
G01 X0.3937 Y0.4621 
G01 X0.3917 Y0.4607 
G00 Z0.1000 
G00 X0.3962 Y0.4639 
G01 Z-0.0070 F4.00  
G01 X0.3962 Y0.4639 F10.00 
G01 X0.3996 Y0.4673 
G01 X0.3962 Y0.4639 
G00 Z0.1000 
G00 X0.4014 Y0.4698 
G01 Z-0.0070 F4.00  
G01 X0.4025 Y0.4713 F10.00 
G01 X0.4028 Y0.4718 
G01 X0.4014 Y0.4698 
G00 Z0.1000 
G00 X0.4028 Y0.5032 
G01 Z-0.0070 F4.00  
G01 X0.4025 Y0.5037 F10.00 
G01 X0.4014 Y0.5052 
G01 X0.4028 Y0.5032 
G00 Z0.1000 
G00 X0.3996 Y0.5077 
G01 Z-0.0070 F4.00  
G01 X0.3996 Y0.5077 F10.00 
G01 X0.3962 Y0.5111 
G01 X0.3996 Y0.5077 
G00 Z0.1000 
G00 X0.3937 Y0.5129 
G01 Z-0.0070 F4.00  
G01 X0.3922 Y0.5140 F10.00 
G01 X0.3917 Y0.5143 
G01 X0.3937 Y0.5129 
G00 Z0.1000 
G00 X0.3890 Y0.5157 
G01 Z-0.0070 F4.00  
G01 X0.3879 Y0.5162 F10.00 
G01 X0.3867 Y0.5166 
G01 X0.3890 Y0.5157 
G00 Z0.1000 
G00 X0.3838 Y0.5175 
G01 Z-0.0070 F4.00  
G01 X0.3833 Y0.5177 F10.00 
G01 X0.3814 Y0.5180 
G01 X0.3838 Y0.5175 
G00 Z0.1000 
G00 X0.3784 Y0.5185 
G01 Z-0.0070 F4.00  
G01 X0.3784 Y0.5185 F10.00 
G01 X0.3630 Y0.5185 
G01 X0.3784 Y0.5185 
G00 Z0.1000 
G00 X0.3370 Y0.5185 
G01 Z-0.0070 F4.00  
G01 X0.3216 Y0.5185 F10.00 
G01 X0.3370 Y0.5185 
G00 Z0.1000 
G00 X0.3186 Y0.5180 
G01 Z-0.0070 F4.00  
G01 X0.3167 Y0.5177 F10.00 
G01 X0.3162 Y0.5175 
G01 X0.3186 Y0.5180 
G00 Z0.1000 
G00 X0.3133 Y0.5166 
G01 Z-0.0070 F4.00  
G01 X0.3121 Y0.5162 F10.00 
G01 X0.3110 Y0.5157 
G01 X0.3133 Y0.5166 
G00 Z0.1000 
G00 X0.3083 Y0.5143 
G01 Z-0.0070 F4.00  
G01 X0.3078 Y0.5140 F10.00 
G01 X0.3063 Y0.5129 
G01 X0.3083 Y0.5143 
G00 Z0.1000 
G00 X0.3038 Y0.5111 
G01 Z-0.0070 F4.00  
G01 X0.3038 Y0.5111 F10.00 
G01 X0.3004 Y0.5077 
G01 X0.3038 Y0.5111 
G00 Z0.1000 
G00 X0.2986 Y0.5052 
G01 Z-0.0070 F4.00  
G01 X0.2975 Y0.5037 F10.00 
G01 X0.2972 Y0.5032 
G01 X0.2986 Y0.5052 
G00 Z0.1000 
G00 Z0.5000 
M05
M02
