(.../pcb-gcode-3.6.2.4/pcb-gcode.ulp)
(Copyright 2005 - 2012 by John Johnson)
(See readme.txt for licensing terms.)
(This file generated from the board:)
(.../RF Glow Stick/RF Glow Stick.brd)
(Current profile is .../pcb-gcode-3.6.2.4/profiles/generic.pp  )
(This file generated 10/7/14 11:32 PM)
(Settings from pcb-machine.h)
(spindle on time = 3.0000)
(spindle speed = 15000.0000)
(tool change at 0.0000 0.0000 1.0000 )
(feed rate xy = F0.00  )
(feed rate z  = F4.00  )
(Z Axis Settings)
(  High     Up        Down     Drill)
(0.5000 	0.1000 	-0.0070 	-0.0670 )
(Settings from pcb-defaults.h)
(isolate min = 0.0010)
(isolate max = 0.0200)
(isolate step = 0.0050)
(Generated top outlines, top drill, bottom outlines, bottom drill, )
(Unit of measure: inch)
( Tool|       Size       |  Min Sub |  Max Sub |   Count )
( T01  0.559mm 0.0220in 0.0000in 0.0000in )
( T02  0.800mm 0.0315in 0.0000in 0.0000in )
( T03  0.813mm 0.0320in 0.0000in 0.0000in )
( T04  1.000mm 0.0394in 0.0000in 0.0000in )
( T05  1.100mm 0.0433in 0.0000in 0.0000in )
( T06  1.118mm 0.0440in 0.0000in 0.0000in )
( T07  1.300mm 0.0512in 0.0000in 0.0000in )
(Inch Mode)
G20
(Absolute Coordinates)
G90
TR,12000,1
'
'
'Turning router ON
SO,1,1
PAUSE 3
G00 Z0.5000 
G00 X0.0000 Y0.0000 
G00 Z1.0000 
G00 Z0.100000
G00 X0.0625 Y0.0625 
G01 Z-0.0670 F4.00  
G01 Z0.100000
(R0.1000  P1.000000)
G00 X0.9375 Y0.0625 
G01 Z-0.067000
G01 Z0.100000
G00 X0.9375 Y1.8500 
G01 Z-0.067000
G01 Z0.100000
G00 X0.0625 Y1.8500 
G01 Z-0.067000
G01 Z0.100000
G00 X0.0669 Y0.4688 
G01 Z-0.0670 F4.00  
G01 Z0.100000
(R0.1000  P1.000000)
G00 X0.0669 Y0.5475 
G01 Z-0.067000
G01 Z0.100000
G00 X0.0669 Y0.6263 
G01 Z-0.067000
G01 Z0.100000
G00 X0.0669 Y0.7050 
G01 Z-0.067000
G01 Z0.100000
G00 X0.0669 Y0.7838 
G01 Z-0.067000
G01 Z0.100000
G00 X0.0669 Y0.8625 
G01 Z-0.067000
G01 Z0.100000
G00 X0.0669 Y0.9412 
G01 Z-0.067000
G01 Z0.100000
G00 X0.0669 Y1.0200 
G01 Z-0.067000
G01 Z0.100000
G00 X0.0669 Y1.0987 
G01 Z-0.067000
G01 Z0.100000
G00 X0.0669 Y1.1775 
G01 Z-0.067000
G01 Z0.100000
G00 X0.3819 Y1.3875 
G01 Z-0.067000
G01 Z0.100000
G00 X0.4606 Y1.3875 
G01 Z-0.067000
G01 Z0.100000
G00 X0.5394 Y1.3875 
G01 Z-0.067000
G01 Z0.100000
G00 X0.6181 Y1.3875 
G01 Z-0.067000
G01 Z0.100000
G00 X0.9331 Y1.1775 
G01 Z-0.067000
G01 Z0.100000
G00 X0.9331 Y1.0987 
G01 Z-0.067000
G01 Z0.100000
G00 X0.9331 Y1.0200 
G01 Z-0.067000
G01 Z0.100000
G00 X0.9331 Y0.9412 
G01 Z-0.067000
G01 Z0.100000
G00 X0.9331 Y0.8625 
G01 Z-0.067000
G01 Z0.100000
G00 X0.9331 Y0.7838 
G01 Z-0.067000
G01 Z0.100000
G00 X0.9331 Y0.7050 
G01 Z-0.067000
G01 Z0.100000
G00 X0.9331 Y0.6263 
G01 Z-0.067000
G01 Z0.100000
G00 X0.9331 Y0.5475 
G01 Z-0.067000
G01 Z0.100000
G00 X0.9331 Y0.4688 
G01 Z-0.067000
G01 Z0.100000
G00 X0.3500 Y0.4875 
G01 Z-0.0670 F4.00  
G01 Z0.100000
(R0.1000  P1.000000)
G00 X0.3500 Y0.5875 
G01 Z-0.067000
G01 Z0.100000
G00 X0.3500 Y0.6875 
G01 Z-0.067000
G01 Z0.100000
G00 X0.3500 Y0.7875 
G01 Z-0.067000
G01 Z0.100000
G00 X0.3500 Y0.8875 
G01 Z-0.067000
G01 Z0.100000
G00 X0.3500 Y0.9875 
G01 Z-0.067000
G01 Z0.100000
G00 X0.3500 Y1.0875 
G01 Z-0.067000
G01 Z0.100000
G00 X0.6500 Y1.0875 
G01 Z-0.067000
G01 Z0.100000
G00 X0.6500 Y0.9875 
G01 Z-0.067000
G01 Z0.100000
G00 X0.6500 Y0.8875 
G01 Z-0.067000
G01 Z0.100000
G00 X0.6500 Y0.7875 
G01 Z-0.067000
G01 Z0.100000
G00 X0.6500 Y0.6875 
G01 Z-0.067000
G01 Z0.100000
G00 X0.6500 Y0.5875 
G01 Z-0.067000
G01 Z0.100000
G00 X0.6500 Y0.4875 
G01 Z-0.067000
G01 Z0.100000
G00 X0.8000 Y0.6625 
G01 Z-0.067000
G01 Z0.100000
G00 X0.8000 Y1.1625 
G01 Z-0.067000
G01 Z0.100000
G00 Z0.100000
G00 X0.2500 Y0.1375 
G01 Z-0.0670 F4.00  
G01 Z0.100000
(R0.1000  P1.000000)
G00 X0.3500 Y0.1375 
G01 Z-0.067000
G01 Z0.100000
G00 X0.4500 Y0.1375 
G01 Z-0.067000
G01 Z0.100000
G00 X0.5500 Y0.1375 
G01 Z-0.067000
G01 Z0.100000
G00 X0.4000 Y1.6125 
G01 Z-0.0670 F4.00  
G01 Z0.100000
(R0.1000  P1.000000)
G00 X0.5000 Y1.6125 
G01 Z-0.067000
G01 Z0.100000
G00 X0.6000 Y1.6125 
G01 Z-0.067000
G01 Z0.100000
G00 X0.8000 Y0.1375 
G01 Z-0.0670 F4.00  
G01 Z0.100000
(R0.1000  P1.000000)
G00 X0.8000 Y0.3375 
G01 Z-0.067000
G01 Z0.100000
G00 Z0.100000
G00 X0.3720 Y1.8125 
G01 Z-0.0670 F4.00  
G01 Z0.100000
(R0.1000  P1.000000)
G00 X0.6280 Y1.8125 
G01 Z-0.067000
G01 Z0.100000
G00 Z0.5000 
M05
M02
