(.../pcb-gcode-3.6.2.4/pcb-gcode.ulp)
(Copyright 2005 - 2012 by John Johnson)
(See readme.txt for licensing terms.)
(This file generated from the board:)
(.../RF Glow Stick/RF Glow Stick.brd)
(Current profile is .../pcb-gcode-3.6.2.4/profiles/generic.pp  )
(This file generated 10/7/14 11:32 PM)
(Settings from pcb-machine.h)
(spindle on time = 3.0000)
(  Tool Size)
(0.0080 )
(spindle speed = 15000.0000)
(tool change at 0.0000 0.0000 1.0000 )
(feed rate xy = F10.00 )
(feed rate z  = F4.00  )
(Z Axis Settings)
(  High     Up        Down     Drill)
(0.5000 	0.1000 	-0.0070 	-0.0450 )
(Settings from pcb-defaults.h)
(isolate min = 0.0010)
(isolate max = 0.0200)
(isolate step = 0.0050)
(Generated top outlines, top drill, bottom outlines, bottom drill, )
(Unit of measure: inch)
(Inch Mode)
G20
(Absolute Coordinates)
TR,12000,1
'
'
'Turning router ON
SO,1,1
PAUSE 3
G00 Z0.5000 
G00 X0.0000 Y0.0000 
G00 Z0.1000 
G00 X-0.0096 Y0.0120 
G01 Z-0.0070 F4.00  
G01 X-0.0120 Y0.0096 F10.00 
G01 X-0.0150 Y0.0079 
G01 X-0.0183 Y0.0070 
G01 X-0.4331 Y0.0070 
G01 X-0.4334 Y0.0069 
G01 X-0.4348 Y0.0070 
G01 X-0.4361 Y0.0070 
G01 X-0.4365 Y0.0071 
G01 X-0.4369 Y0.0071 
G01 X-0.4381 Y0.0075 
G01 X-0.4394 Y0.0079 
G01 X-0.4397 Y0.0081 
G01 X-0.4401 Y0.0082 
G01 X-0.4412 Y0.0089 
G01 X-0.4424 Y0.0096 
G01 X-0.4426 Y0.0099 
G01 X-0.4430 Y0.0101 
G01 X-0.4438 Y0.0111 
G01 X-0.4448 Y0.0120 
G01 X-0.4450 Y0.0124 
G01 X-0.4452 Y0.0127 
G01 X-0.4458 Y0.0138 
G01 X-0.4465 Y0.0150 
G01 X-0.4466 Y0.0154 
G01 X-0.4468 Y0.0157 
G01 X-0.4470 Y0.0170 
G01 X-0.4474 Y0.0183 
G01 X-0.4474 Y0.0187 
G01 X-0.4475 Y0.0191 
G01 X-0.4474 Y0.0204 
G01 X-0.4474 Y0.0217 
G01 X-0.4473 Y0.0221 
G01 X-0.4473 Y0.0225 
G01 X-0.4468 Y0.0237 
G01 X-0.4465 Y0.0250 
G01 X-0.4463 Y0.0254 
G01 X-0.4462 Y0.0257 
G01 X-0.4454 Y0.0268 
G01 X-0.4448 Y0.0280 
G01 X-0.4445 Y0.0283 
G01 X-0.4443 Y0.0286 
G01 X-0.4433 Y0.0295 
G01 X-0.4424 Y0.0304 
G01 X-0.4420 Y0.0306 
G01 X-0.4417 Y0.0309 
G01 X-0.4405 Y0.0315 
G01 X-0.4394 Y0.0321 
G01 X-0.4390 Y0.0322 
G01 X-0.4382 Y0.0326 
G01 X-0.4379 Y0.0329 
G01 X-0.4367 Y0.0334 
G01 X-0.4356 Y0.0339 
G01 X-0.4351 Y0.0340 
G01 X-0.4319 Y0.0354 
G01 X-0.4313 Y0.0359 
G01 X-0.4310 Y0.0361 
G01 X-0.4307 Y0.0364 
G01 X-0.4300 Y0.0367 
G01 X-0.4277 Y0.0394 
G01 X-0.4275 Y0.0398 
G01 X-0.4266 Y0.0407 
G01 X-0.4258 Y0.0416 
G01 X-0.4254 Y0.0419 
G01 X-0.4229 Y0.0444 
G01 X-0.4226 Y0.0451 
G01 X-0.4223 Y0.0454 
G01 X-0.4222 Y0.0458 
G01 X-0.4217 Y0.0463 
G01 X-0.4205 Y0.0497 
G01 X-0.4205 Y0.0501 
G01 X-0.4200 Y0.0513 
G01 X-0.4196 Y0.0525 
G01 X-0.4193 Y0.0529 
G01 X-0.4180 Y0.0561 
G01 X-0.4180 Y0.0569 
G01 X-0.4179 Y0.0573 
G01 X-0.4179 Y0.0577 
G01 X-0.4176 Y0.0584 
G01 X-0.4179 Y0.0619 
G01 X-0.4180 Y0.0624 
G01 X-0.4180 Y0.0636 
G01 X-0.4181 Y0.0649 
G01 X-0.4180 Y0.0653 
G01 X-0.4180 Y0.0966 
G01 X-0.4171 Y0.0999 
G01 X-0.4154 Y0.1028 
G01 X-0.4133 Y0.1049 
G01 X-0.4133 Y0.1701 
G01 X-0.4174 Y0.1742 
G01 X-0.4826 Y0.1742 
G01 X-0.4867 Y0.1701 
G01 X-0.4867 Y0.1049 
G01 X-0.4857 Y0.1039 
G01 X-0.4846 Y0.1028 
G01 X-0.4829 Y0.0999 
G01 X-0.4824 Y0.0982 
G01 X-0.4820 Y0.0966 
G01 X-0.4820 Y0.0916 
G01 X-0.4819 Y0.0912 
G01 X-0.4820 Y0.0899 
G01 X-0.4820 Y0.0886 
G01 X-0.4821 Y0.0882 
G01 X-0.4821 Y0.0878 
G01 X-0.4825 Y0.0866 
G01 X-0.4829 Y0.0853 
G01 X-0.4831 Y0.0850 
G01 X-0.4832 Y0.0846 
G01 X-0.4839 Y0.0835 
G01 X-0.4846 Y0.0823 
G01 X-0.4849 Y0.0820 
G01 X-0.4851 Y0.0817 
G01 X-0.4861 Y0.0808 
G01 X-0.4870 Y0.0799 
G01 X-0.4874 Y0.0797 
G01 X-0.4877 Y0.0794 
G01 X-0.4888 Y0.0789 
G01 X-0.4900 Y0.0782 
G01 X-0.4904 Y0.0781 
G01 X-0.5045 Y0.0710 
G01 X-0.5056 Y0.0704 
G01 X-0.5060 Y0.0703 
G01 X-0.5063 Y0.0701 
G01 X-0.5076 Y0.0698 
G01 X-0.5089 Y0.0695 
G01 X-0.5093 Y0.0695 
G01 X-0.5097 Y0.0694 
G01 X-0.5110 Y0.0695 
G01 X-0.6351 Y0.0695 
G01 X-0.6355 Y0.0694 
G01 X-0.6368 Y0.0695 
G01 X-0.6381 Y0.0695 
G01 X-0.6385 Y0.0696 
G01 X-0.6389 Y0.0696 
G01 X-0.6401 Y0.0701 
G01 X-0.6414 Y0.0704 
G01 X-0.6418 Y0.0706 
G01 X-0.6422 Y0.0707 
G01 X-0.6432 Y0.0715 
G01 X-0.6444 Y0.0721 
G01 X-0.6447 Y0.0724 
G01 X-0.7249 Y0.1259 
G01 X-0.7260 Y0.1265 
G01 X-0.7263 Y0.1268 
G01 X-0.7266 Y0.1270 
G01 X-0.7275 Y0.1280 
G01 X-0.7284 Y0.1289 
G01 X-0.7286 Y0.1293 
G01 X-0.7289 Y0.1296 
G01 X-0.7295 Y0.1308 
G01 X-0.7301 Y0.1319 
G01 X-0.7302 Y0.1323 
G01 X-0.7304 Y0.1327 
G01 X-0.7307 Y0.1340 
G01 X-0.7310 Y0.1352 
G01 X-0.7310 Y0.1356 
G01 X-0.7311 Y0.1360 
G01 X-0.7310 Y0.1373 
G01 X-0.7310 Y0.1661 
G01 X-0.7714 Y0.2065 
G01 X-0.8286 Y0.2065 
G01 X-0.8690 Y0.1661 
G01 X-0.8690 Y0.1089 
G01 X-0.8286 Y0.0685 
G01 X-0.7714 Y0.0685 
G01 X-0.7709 Y0.0691 
G01 X-0.7705 Y0.0693 
G01 X-0.7702 Y0.0696 
G01 X-0.7690 Y0.0701 
G01 X-0.7679 Y0.0708 
G01 X-0.7675 Y0.0709 
G01 X-0.7671 Y0.0711 
G01 X-0.7658 Y0.0713 
G01 X-0.7646 Y0.0717 
G01 X-0.7642 Y0.0717 
G01 X-0.7637 Y0.0717 
G01 X-0.7625 Y0.0717 
G01 X-0.7612 Y0.0717 
G01 X-0.7607 Y0.0716 
G01 X-0.7603 Y0.0715 
G01 X-0.7591 Y0.0711 
G01 X-0.7579 Y0.0708 
G01 X-0.7575 Y0.0706 
G01 X-0.7571 Y0.0704 
G01 X-0.7560 Y0.0697 
G01 X-0.7549 Y0.0691 
G01 X-0.7546 Y0.0688 
G01 X-0.6980 Y0.0310 
G01 X-0.6969 Y0.0304 
G01 X-0.6966 Y0.0301 
G01 X-0.6962 Y0.0299 
G01 X-0.6954 Y0.0289 
G01 X-0.6945 Y0.0280 
G01 X-0.6943 Y0.0276 
G01 X-0.6940 Y0.0273 
G01 X-0.6934 Y0.0261 
G01 X-0.6928 Y0.0250 
G01 X-0.6927 Y0.0246 
G01 X-0.6925 Y0.0242 
G01 X-0.6922 Y0.0230 
G01 X-0.6919 Y0.0217 
G01 X-0.6919 Y0.0213 
G01 X-0.6918 Y0.0209 
G01 X-0.6919 Y0.0196 
G01 X-0.6919 Y0.0183 
G01 X-0.6920 Y0.0179 
G01 X-0.6920 Y0.0175 
G01 X-0.6924 Y0.0162 
G01 X-0.6928 Y0.0150 
G01 X-0.6930 Y0.0146 
G01 X-0.6931 Y0.0142 
G01 X-0.6938 Y0.0131 
G01 X-0.6945 Y0.0120 
G01 X-0.6948 Y0.0117 
G01 X-0.6950 Y0.0114 
G01 X-0.6960 Y0.0105 
G01 X-0.6969 Y0.0096 
G01 X-0.6973 Y0.0094 
G01 X-0.6976 Y0.0091 
G01 X-0.6987 Y0.0085 
G01 X-0.6999 Y0.0079 
G01 X-0.7003 Y0.0078 
G01 X-0.7006 Y0.0076 
G01 X-0.7019 Y0.0073 
G01 X-0.7032 Y0.0070 
G01 X-0.7036 Y0.0070 
G01 X-0.7040 Y0.0069 
G01 X-0.7053 Y0.0070 
G01 X-0.9817 Y0.0070 
G01 X-0.9850 Y0.0079 
G01 X-0.9880 Y0.0096 
G01 X-0.9904 Y0.0120 
G01 X-0.9921 Y0.0150 
G01 X-0.9930 Y0.0183 
G01 X-0.9930 Y0.4506 
G01 X-0.9931 Y0.4514 
G01 X-0.9930 Y0.4523 
G01 X-0.9930 Y0.4532 
G01 X-0.9928 Y0.4540 
G01 X-0.9927 Y0.4548 
G01 X-0.9923 Y0.4556 
G01 X-0.9921 Y0.4565 
G01 X-0.9917 Y0.4572 
G01 X-0.9914 Y0.4580 
G01 X-0.9908 Y0.4587 
G01 X-0.9904 Y0.4594 
G01 X-0.9898 Y0.4600 
G01 X-0.9893 Y0.4607 
G01 X-0.9886 Y0.4612 
G01 X-0.9880 Y0.4618 
G01 X-0.9872 Y0.4623 
G01 X-0.9866 Y0.4628 
G01 X-0.9858 Y0.4631 
G01 X-0.9850 Y0.4636 
G01 X-0.9842 Y0.4638 
G01 X-0.9834 Y0.4641 
G01 X-0.9825 Y0.4642 
G01 X-0.9817 Y0.4644 
G01 X-0.9809 Y0.4644 
G01 X-0.9800 Y0.4646 
G01 X-0.9791 Y0.4644 
G01 X-0.9783 Y0.4644 
G01 X-0.9775 Y0.4642 
G01 X-0.9766 Y0.4641 
G01 X-0.9758 Y0.4638 
G01 X-0.9750 Y0.4636 
G01 X-0.9742 Y0.4631 
G01 X-0.9734 Y0.4628 
G01 X-0.9728 Y0.4623 
G01 X-0.9720 Y0.4618 
G01 X-0.9714 Y0.4612 
G01 X-0.9707 Y0.4607 
G01 X-0.9702 Y0.4600 
G01 X-0.9696 Y0.4594 
G01 X-0.9692 Y0.4587 
G01 X-0.9686 Y0.4580 
G01 X-0.9683 Y0.4572 
G01 X-0.9679 Y0.4565 
G01 X-0.9677 Y0.4556 
G01 X-0.9644 Y0.4478 
G01 X-0.9540 Y0.4374 
G01 X-0.9404 Y0.4318 
G01 X-0.9257 Y0.4318 
G01 X-0.9121 Y0.4374 
G01 X-0.9017 Y0.4478 
G01 X-0.8961 Y0.4614 
G01 X-0.8961 Y0.4762 
G01 X-0.9017 Y0.4898 
G01 X-0.9121 Y0.5002 
G01 X-0.9138 Y0.5031 
G01 X-0.9147 Y0.5065 
G01 X-0.9147 Y0.5099 
G01 X-0.9147 Y0.5100 
G01 X-0.9138 Y0.5132 
G01 X-0.9122 Y0.5161 
G01 X-0.9097 Y0.5186 
G01 X-0.9017 Y0.5266 
G01 X-0.8961 Y0.5402 
G01 X-0.8961 Y0.5549 
G01 X-0.9017 Y0.5685 
G01 X-0.9121 Y0.5789 
G01 X-0.9138 Y0.5818 
G01 X-0.9147 Y0.5852 
G01 X-0.9147 Y0.5886 
G01 X-0.9147 Y0.5888 
G01 X-0.9138 Y0.5919 
G01 X-0.9122 Y0.5948 
G01 X-0.9097 Y0.5973 
G01 X-0.9017 Y0.6053 
G01 X-0.8961 Y0.6189 
G01 X-0.8961 Y0.6336 
G01 X-0.9017 Y0.6472 
G01 X-0.9121 Y0.6577 
G01 X-0.9138 Y0.6605 
G01 X-0.9147 Y0.6639 
G01 X-0.9147 Y0.6674 
G01 X-0.9147 Y0.6675 
G01 X-0.9138 Y0.6707 
G01 X-0.9122 Y0.6736 
G01 X-0.9097 Y0.6761 
G01 X-0.9017 Y0.6841 
G01 X-0.8961 Y0.6977 
G01 X-0.8961 Y0.7124 
G01 X-0.9017 Y0.7260 
G01 X-0.9121 Y0.7364 
G01 X-0.9138 Y0.7393 
G01 X-0.9147 Y0.7427 
G01 X-0.9147 Y0.7461 
G01 X-0.9147 Y0.7462 
G01 X-0.9138 Y0.7494 
G01 X-0.9122 Y0.7523 
G01 X-0.9097 Y0.7548 
G01 X-0.9017 Y0.7628 
G01 X-0.8961 Y0.7764 
G01 X-0.8961 Y0.7911 
G01 X-0.9017 Y0.8047 
G01 X-0.9121 Y0.8151 
G01 X-0.9138 Y0.8180 
G01 X-0.9147 Y0.8214 
G01 X-0.9147 Y0.8248 
G01 X-0.9147 Y0.8250 
G01 X-0.9138 Y0.8281 
G01 X-0.9122 Y0.8310 
G01 X-0.9097 Y0.8335 
G01 X-0.9017 Y0.8415 
G01 X-0.8961 Y0.8551 
G01 X-0.8961 Y0.8699 
G01 X-0.9017 Y0.8835 
G01 X-0.9121 Y0.8939 
G01 X-0.9138 Y0.8968 
G01 X-0.9147 Y0.9002 
G01 X-0.9147 Y0.9036 
G01 X-0.9147 Y0.9037 
G01 X-0.9138 Y0.9069 
G01 X-0.9122 Y0.9098 
G01 X-0.9097 Y0.9123 
G01 X-0.9017 Y0.9203 
G01 X-0.8961 Y0.9339 
G01 X-0.8961 Y0.9486 
G01 X-0.9017 Y0.9622 
G01 X-0.9121 Y0.9726 
G01 X-0.9138 Y0.9755 
G01 X-0.9147 Y0.9789 
G01 X-0.9147 Y0.9823 
G01 X-0.9147 Y0.9825 
G01 X-0.9138 Y0.9856 
G01 X-0.9122 Y0.9885 
G01 X-0.9097 Y0.9910 
G01 X-0.9017 Y0.9990 
G01 X-0.8961 Y1.0126 
G01 X-0.8961 Y1.0273 
G01 X-0.9017 Y1.0409 
G01 X-0.9121 Y1.0514 
G01 X-0.9138 Y1.0542 
G01 X-0.9147 Y1.0576 
G01 X-0.9147 Y1.0611 
G01 X-0.9147 Y1.0612 
G01 X-0.9138 Y1.0644 
G01 X-0.9122 Y1.0673 
G01 X-0.9097 Y1.0698 
G01 X-0.9017 Y1.0778 
G01 X-0.8961 Y1.0914 
G01 X-0.8961 Y1.1061 
G01 X-0.9017 Y1.1197 
G01 X-0.9121 Y1.1301 
G01 X-0.9138 Y1.1330 
G01 X-0.9147 Y1.1364 
G01 X-0.9147 Y1.1398 
G01 X-0.9147 Y1.1399 
G01 X-0.9138 Y1.1431 
G01 X-0.9122 Y1.1460 
G01 X-0.9097 Y1.1485 
G01 X-0.9017 Y1.1565 
G01 X-0.8961 Y1.1701 
G01 X-0.8961 Y1.1848 
G01 X-0.9017 Y1.1984 
G01 X-0.9121 Y1.2088 
G01 X-0.9257 Y1.2145 
G01 X-0.9404 Y1.2145 
G01 X-0.9540 Y1.2088 
G01 X-0.9644 Y1.1984 
G01 X-0.9677 Y1.1906 
G01 X-0.9679 Y1.1898 
G01 X-0.9683 Y1.1891 
G01 X-0.9686 Y1.1883 
G01 X-0.9692 Y1.1876 
G01 X-0.9696 Y1.1868 
G01 X-0.9702 Y1.1862 
G01 X-0.9707 Y1.1855 
G01 X-0.9714 Y1.1850 
G01 X-0.9720 Y1.1844 
G01 X-0.9728 Y1.1840 
G01 X-0.9734 Y1.1835 
G01 X-0.9742 Y1.1831 
G01 X-0.9750 Y1.1827 
G01 X-0.9758 Y1.1825 
G01 X-0.9766 Y1.1822 
G01 X-0.9775 Y1.1820 
G01 X-0.9783 Y1.1818 
G01 X-0.9791 Y1.1818 
G01 X-0.9800 Y1.1817 
G01 X-0.9809 Y1.1818 
G01 X-0.9817 Y1.1818 
G01 X-0.9825 Y1.1820 
G01 X-0.9834 Y1.1822 
G01 X-0.9842 Y1.1825 
G01 X-0.9850 Y1.1827 
G01 X-0.9858 Y1.1831 
G01 X-0.9866 Y1.1835 
G01 X-0.9872 Y1.1840 
G01 X-0.9880 Y1.1844 
G01 X-0.9886 Y1.1850 
G01 X-0.9893 Y1.1855 
G01 X-0.9898 Y1.1862 
G01 X-0.9904 Y1.1868 
G01 X-0.9908 Y1.1876 
G01 X-0.9914 Y1.1883 
G01 X-0.9917 Y1.1891 
G01 X-0.9921 Y1.1898 
G01 X-0.9923 Y1.1906 
G01 X-0.9927 Y1.1914 
G01 X-0.9928 Y1.1923 
G01 X-0.9930 Y1.1931 
G01 X-0.9930 Y1.1940 
G01 X-0.9931 Y1.1948 
G01 X-0.9930 Y1.1957 
G01 X-0.9930 Y1.8942 
G01 X-0.9921 Y1.8975 
G01 X-0.9904 Y1.9005 
G01 X-0.9880 Y1.9029 
G01 X-0.9850 Y1.9046 
G01 X-0.9817 Y1.9055 
G01 X-0.0183 Y1.9055 
G01 X-0.0150 Y1.9046 
G01 X-0.0120 Y1.9029 
G01 X-0.0096 Y1.9005 
G01 X-0.0079 Y1.8975 
G01 X-0.0070 Y1.8942 
G01 X-0.0070 Y1.1957 
G01 X-0.0069 Y1.1948 
G01 X-0.0070 Y1.1940 
G01 X-0.0070 Y1.1931 
G01 X-0.0072 Y1.1923 
G01 X-0.0073 Y1.1914 
G01 X-0.0077 Y1.1906 
G01 X-0.0079 Y1.1898 
G01 X-0.0083 Y1.1891 
G01 X-0.0086 Y1.1883 
G01 X-0.0092 Y1.1876 
G01 X-0.0096 Y1.1868 
G01 X-0.0102 Y1.1862 
G01 X-0.0107 Y1.1855 
G01 X-0.0114 Y1.1850 
G01 X-0.0120 Y1.1844 
G01 X-0.0128 Y1.1840 
G01 X-0.0134 Y1.1835 
G01 X-0.0142 Y1.1831 
G01 X-0.0150 Y1.1827 
G01 X-0.0158 Y1.1825 
G01 X-0.0166 Y1.1822 
G01 X-0.0175 Y1.1820 
G01 X-0.0183 Y1.1818 
G01 X-0.0191 Y1.1818 
G01 X-0.0200 Y1.1817 
G01 X-0.0209 Y1.1818 
G01 X-0.0217 Y1.1818 
G01 X-0.0225 Y1.1820 
G01 X-0.0234 Y1.1822 
G01 X-0.0242 Y1.1825 
G01 X-0.0250 Y1.1827 
G01 X-0.0258 Y1.1831 
G01 X-0.0266 Y1.1835 
G01 X-0.0272 Y1.1840 
G01 X-0.0280 Y1.1844 
G01 X-0.0286 Y1.1850 
G01 X-0.0293 Y1.1855 
G01 X-0.0298 Y1.1862 
G01 X-0.0304 Y1.1868 
G01 X-0.0308 Y1.1876 
G01 X-0.0314 Y1.1883 
G01 X-0.0317 Y1.1891 
G01 X-0.0321 Y1.1898 
G01 X-0.0323 Y1.1906 
G01 X-0.0356 Y1.1984 
G01 X-0.0460 Y1.2088 
G01 X-0.0596 Y1.2145 
G01 X-0.0743 Y1.2145 
G01 X-0.0879 Y1.2088 
G01 X-0.0983 Y1.1984 
G01 X-0.1002 Y1.1938 
G01 X-0.1008 Y1.1924 
G01 X-0.1009 Y1.1922 
G01 X-0.1009 Y1.1921 
G01 X-0.1019 Y1.1909 
G01 X-0.1028 Y1.1896 
G01 X-0.1029 Y1.1895 
G01 X-0.1030 Y1.1894 
G01 X-0.1042 Y1.1884 
G01 X-0.1054 Y1.1875 
G01 X-0.1056 Y1.1874 
G01 X-0.1057 Y1.1873 
G01 X-0.1071 Y1.1867 
G01 X-0.1086 Y1.1861 
G01 X-0.1087 Y1.1860 
G01 X-0.1089 Y1.1860 
G01 X-0.1104 Y1.1858 
G01 X-0.1644 Y1.1772 
G01 X-0.1654 Y1.1770 
G01 X-0.1660 Y1.1770 
G01 X-0.1666 Y1.1769 
G01 X-0.1677 Y1.1770 
G01 X-0.1689 Y1.1770 
G01 X-0.1694 Y1.1772 
G01 X-0.1700 Y1.1772 
G01 X-0.1711 Y1.1776 
G01 X-0.1722 Y1.1779 
G01 X-0.1727 Y1.1782 
G01 X-0.1732 Y1.1785 
G01 X-0.1741 Y1.1791 
G01 X-0.1751 Y1.1797 
G01 X-0.1755 Y1.1801 
G01 X-0.1760 Y1.1805 
G01 X-0.1767 Y1.1813 
G01 X-0.1775 Y1.1821 
G01 X-0.1778 Y1.1827 
G01 X-0.1782 Y1.1831 
G01 X-0.1784 Y1.1837 
G01 X-0.1813 Y1.1875 
G01 X-0.1820 Y1.1884 
G01 X-0.1823 Y1.1888 
G01 X-0.1826 Y1.1893 
G01 X-0.1830 Y1.1904 
G01 X-0.1847 Y1.1938 
G01 X-0.1869 Y1.1956 
G01 X-0.1880 Y1.1965 
G01 X-0.1882 Y1.1967 
G01 X-0.1884 Y1.1969 
G01 X-0.1892 Y1.1981 
G01 X-0.2978 Y1.3435 
G01 X-0.3149 Y1.3537 
G01 X-0.3290 Y1.3557 
G01 X-0.3296 Y1.3557 
G01 X-0.3307 Y1.3560 
G01 X-0.3318 Y1.3561 
G01 X-0.3324 Y1.3564 
G01 X-0.3330 Y1.3565 
G01 X-0.3339 Y1.3570 
G01 X-0.3350 Y1.3575 
G01 X-0.3354 Y1.3579 
G01 X-0.3360 Y1.3581 
G01 X-0.3368 Y1.3589 
G01 X-0.3376 Y1.3596 
G01 X-0.3380 Y1.3601 
G01 X-0.3385 Y1.3605 
G01 X-0.3390 Y1.3614 
G01 X-0.3397 Y1.3623 
G01 X-0.3399 Y1.3629 
G01 X-0.3433 Y1.3685 
G01 X-0.3440 Y1.3693 
G01 X-0.3442 Y1.3699 
G01 X-0.3446 Y1.3705 
G01 X-0.3449 Y1.3715 
G01 X-0.3453 Y1.3725 
G01 X-0.3454 Y1.3731 
G01 X-0.3456 Y1.3738 
G01 X-0.3456 Y1.3748 
G01 X-0.3457 Y1.3758 
G01 X-0.3456 Y1.3765 
G01 X-0.3456 Y1.3772 
G01 X-0.3454 Y1.3782 
G01 X-0.3453 Y1.3792 
G01 X-0.3450 Y1.3799 
G01 X-0.3449 Y1.3803 
G01 X-0.3449 Y1.3949 
G01 X-0.3505 Y1.4085 
G01 X-0.3609 Y1.4189 
G01 X-0.3745 Y1.4245 
G01 X-0.3892 Y1.4245 
G01 X-0.4028 Y1.4189 
G01 X-0.4133 Y1.4084 
G01 X-0.4162 Y1.4068 
G01 X-0.4195 Y1.4058 
G01 X-0.4230 Y1.4058 
G01 X-0.4231 Y1.4059 
G01 X-0.4263 Y1.4067 
G01 X-0.4292 Y1.4084 
G01 X-0.4317 Y1.4109 
G01 X-0.4397 Y1.4189 
G01 X-0.4533 Y1.4245 
G01 X-0.4680 Y1.4245 
G01 X-0.4816 Y1.4189 
G01 X-0.4896 Y1.4109 
G01 X-0.4918 Y1.4086 
G01 X-0.4920 Y1.4084 
G01 X-0.4950 Y1.4067 
G01 X-0.4983 Y1.4058 
G01 X-0.5017 Y1.4058 
G01 X-0.5049 Y1.4067 
G01 X-0.5050 Y1.4067 
G01 X-0.5080 Y1.4084 
G01 X-0.5104 Y1.4109 
G01 X-0.5184 Y1.4189 
G01 X-0.5320 Y1.4245 
G01 X-0.5467 Y1.4245 
G01 X-0.5603 Y1.4189 
G01 X-0.5620 Y1.4172 
G01 X-0.5648 Y1.4156 
G01 X-0.5682 Y1.4146 
G01 X-0.5717 Y1.4146 
G01 X-0.5718 Y1.4147 
G01 X-0.5750 Y1.4155 
G01 X-0.5779 Y1.4172 
G01 X-0.5804 Y1.4196 
G01 X-0.5852 Y1.4245 
G01 X-0.6510 Y1.4245 
G01 X-0.6551 Y1.4204 
G01 X-0.6551 Y1.3546 
G01 X-0.6510 Y1.3505 
G01 X-0.6446 Y1.3505 
G01 X-0.6445 Y1.3505 
G01 X-0.6429 Y1.3505 
G01 X-0.6414 Y1.3505 
G01 X-0.6412 Y1.3505 
G01 X-0.6410 Y1.3505 
G01 X-0.6395 Y1.3500 
G01 X-0.6381 Y1.3496 
G01 X-0.6379 Y1.3495 
G01 X-0.6378 Y1.3495 
G01 X-0.6364 Y1.3487 
G01 X-0.6351 Y1.3479 
G01 X-0.6350 Y1.3478 
G01 X-0.6348 Y1.3477 
G01 X-0.6338 Y1.3466 
G01 X-0.6327 Y1.3455 
G01 X-0.6326 Y1.3453 
G01 X-0.6325 Y1.3452 
G01 X-0.6317 Y1.3439 
G01 X-0.6310 Y1.3425 
G01 X-0.6309 Y1.3424 
G01 X-0.6308 Y1.3422 
G01 X-0.6305 Y1.3407 
G01 X-0.6301 Y1.3392 
G01 X-0.6301 Y1.3390 
G01 X-0.6270 Y1.3262 
G01 X-0.6267 Y1.3254 
G01 X-0.6266 Y1.3246 
G01 X-0.6264 Y1.3238 
G01 X-0.6264 Y1.3229 
G01 X-0.6263 Y1.3220 
G01 X-0.6265 Y1.3212 
G01 X-0.6265 Y1.3204 
G01 X-0.6267 Y1.3195 
G01 X-0.6268 Y1.3192 
G01 X-0.6272 Y1.3080 
G01 X-0.5532 Y1.1108 
G01 X-0.5529 Y1.1103 
G01 X-0.5526 Y1.1092 
G01 X-0.5522 Y1.1082 
G01 X-0.5522 Y1.1076 
G01 X-0.5520 Y1.1070 
G01 X-0.5520 Y1.1059 
G01 X-0.5519 Y1.1048 
G01 X-0.5520 Y1.1042 
G01 X-0.5520 Y1.0258 
G01 X-0.5529 Y1.0225 
G01 X-0.5546 Y1.0195 
G01 X-0.5570 Y1.0171 
G01 X-0.5600 Y1.0154 
G01 X-0.5633 Y1.0145 
G01 X-0.5995 Y1.0145 
G01 X-0.6004 Y1.0144 
G01 X-0.6012 Y1.0145 
G01 X-0.6021 Y1.0145 
G01 X-0.6029 Y1.0147 
G01 X-0.6038 Y1.0148 
G01 X-0.6046 Y1.0152 
G01 X-0.6054 Y1.0154 
G01 X-0.6061 Y1.0158 
G01 X-0.6174 Y1.0205 
G01 X-0.6826 Y1.0205 
G01 X-0.6947 Y1.0155 
G01 X-0.7040 Y1.0062 
G01 X-0.7090 Y0.9941 
G01 X-0.7090 Y0.9809 
G01 X-0.7040 Y0.9688 
G01 X-0.6947 Y0.9595 
G01 X-0.6826 Y0.9545 
G01 X-0.6174 Y0.9545 
G01 X-0.6061 Y0.9592 
G01 X-0.6054 Y0.9596 
G01 X-0.6046 Y0.9598 
G01 X-0.6038 Y0.9602 
G01 X-0.6029 Y0.9603 
G01 X-0.6021 Y0.9605 
G01 X-0.6012 Y0.9605 
G01 X-0.6004 Y0.9606 
G01 X-0.5995 Y0.9605 
G01 X-0.5196 Y0.9605 
G01 X-0.5097 Y0.9646 
G01 X-0.5021 Y0.9722 
G01 X-0.4980 Y0.9821 
G01 X-0.4980 Y1.1103 
G01 X-0.4981 Y1.1106 
G01 X-0.4980 Y1.1120 
G01 X-0.4980 Y1.1135 
G01 X-0.4979 Y1.1137 
G01 X-0.4978 Y1.1173 
G01 X-0.4978 Y1.1174 
G01 X-0.4979 Y1.1176 
G01 X-0.4992 Y1.1208 
G01 X-0.4994 Y1.1210 
G01 X-0.4999 Y1.1224 
G01 X-0.5005 Y1.1238 
G01 X-0.5005 Y1.1240 
G01 X-0.5766 Y1.3270 
G01 X-0.5786 Y1.3291 
G01 X-0.5797 Y1.3303 
G01 X-0.5806 Y1.3319 
G01 X-0.5814 Y1.3333 
G01 X-0.5814 Y1.3335 
G01 X-0.5818 Y1.3351 
G01 X-0.5837 Y1.3430 
G01 X-0.5841 Y1.3445 
G01 X-0.5841 Y1.3447 
G01 X-0.5841 Y1.3448 
G01 X-0.5841 Y1.3464 
G01 X-0.5841 Y1.3479 
G01 X-0.5841 Y1.3481 
G01 X-0.5841 Y1.3483 
G01 X-0.5836 Y1.3497 
G01 X-0.5832 Y1.3512 
G01 X-0.5831 Y1.3514 
G01 X-0.5831 Y1.3515 
G01 X-0.5823 Y1.3529 
G01 X-0.5815 Y1.3542 
G01 X-0.5814 Y1.3543 
G01 X-0.5813 Y1.3545 
G01 X-0.5802 Y1.3555 
G01 X-0.5779 Y1.3578 
G01 X-0.5750 Y1.3595 
G01 X-0.5717 Y1.3604 
G01 X-0.5682 Y1.3604 
G01 X-0.5649 Y1.3595 
G01 X-0.5620 Y1.3578 
G01 X-0.5603 Y1.3561 
G01 X-0.5467 Y1.3505 
G01 X-0.5320 Y1.3505 
G01 X-0.5184 Y1.3561 
G01 X-0.5080 Y1.3666 
G01 X-0.5051 Y1.3682 
G01 X-0.5017 Y1.3692 
G01 X-0.4983 Y1.3692 
G01 X-0.4981 Y1.3691 
G01 X-0.4950 Y1.3683 
G01 X-0.4921 Y1.3666 
G01 X-0.4896 Y1.3641 
G01 X-0.4816 Y1.3561 
G01 X-0.4680 Y1.3505 
G01 X-0.4533 Y1.3505 
G01 X-0.4397 Y1.3561 
G01 X-0.4317 Y1.3641 
G01 X-0.4295 Y1.3664 
G01 X-0.4292 Y1.3666 
G01 X-0.4263 Y1.3683 
G01 X-0.4230 Y1.3692 
G01 X-0.4195 Y1.3692 
G01 X-0.4164 Y1.3683 
G01 X-0.4162 Y1.3683 
G01 X-0.4133 Y1.3666 
G01 X-0.4109 Y1.3641 
G01 X-0.4028 Y1.3561 
G01 X-0.3901 Y1.3508 
G01 X-0.3894 Y1.3507 
G01 X-0.3885 Y1.3502 
G01 X-0.3876 Y1.3498 
G01 X-0.3870 Y1.3494 
G01 X-0.3864 Y1.3490 
G01 X-0.3857 Y1.3483 
G01 X-0.3848 Y1.3477 
G01 X-0.3844 Y1.3472 
G01 X-0.3839 Y1.3467 
G01 X-0.3834 Y1.3458 
G01 X-0.3828 Y1.3450 
G01 X-0.3825 Y1.3444 
G01 X-0.3795 Y1.3395 
G01 X-0.3793 Y1.3393 
G01 X-0.3786 Y1.3380 
G01 X-0.3778 Y1.3367 
G01 X-0.3778 Y1.3365 
G01 X-0.3777 Y1.3363 
G01 X-0.3773 Y1.3349 
G01 X-0.3769 Y1.3335 
G01 X-0.3769 Y1.3332 
G01 X-0.3768 Y1.3330 
G01 X-0.3768 Y1.3315 
G01 X-0.3768 Y1.3300 
G01 X-0.3769 Y1.3298 
G01 X-0.3769 Y1.3295 
G01 X-0.3773 Y1.3281 
G01 X-0.3776 Y1.3267 
G01 X-0.3777 Y1.3265 
G01 X-0.3778 Y1.3263 
G01 X-0.3785 Y1.3250 
G01 X-0.3792 Y1.3237 
G01 X-0.3794 Y1.3235 
G01 X-0.3799 Y1.3226 
G01 X-0.3828 Y1.3029 
G01 X-0.3779 Y1.2837 
G01 X-0.2687 Y1.1375 
G01 X-0.2680 Y1.1366 
G01 X-0.2677 Y1.1362 
G01 X-0.2674 Y1.1357 
G01 X-0.2670 Y1.1346 
G01 X-0.2515 Y1.1038 
G01 X-0.2509 Y1.1026 
G01 X-0.2508 Y1.1023 
G01 X-0.2506 Y1.1019 
G01 X-0.2503 Y1.1006 
G01 X-0.2500 Y1.0993 
G01 X-0.2500 Y1.0989 
G01 X-0.2499 Y1.0986 
G01 X-0.2500 Y1.0972 
G01 X-0.2500 Y0.3863 
G01 X-0.2509 Y0.3830 
G01 X-0.2526 Y0.3800 
G01 X-0.2550 Y0.3776 
G01 X-0.2580 Y0.3759 
G01 X-0.2613 Y0.3750 
G01 X-0.5057 Y0.3750 
G01 X-0.5066 Y0.3749 
G01 X-0.5074 Y0.3750 
G01 X-0.5083 Y0.3750 
G01 X-0.5091 Y0.3752 
G01 X-0.5100 Y0.3753 
G01 X-0.5108 Y0.3757 
G01 X-0.5116 Y0.3759 
G01 X-0.5124 Y0.3763 
G01 X-0.5131 Y0.3766 
G01 X-0.5138 Y0.3772 
G01 X-0.5146 Y0.3776 
G01 X-0.5152 Y0.3782 
G01 X-0.5159 Y0.3787 
G01 X-0.5164 Y0.3794 
G01 X-0.5170 Y0.3800 
G01 X-0.5174 Y0.3808 
G01 X-0.5878 Y0.4722 
G01 X-0.5884 Y0.4728 
G01 X-0.5888 Y0.4736 
G01 X-0.5893 Y0.4743 
G01 X-0.5897 Y0.4751 
G01 X-0.5901 Y0.4758 
G01 X-0.5903 Y0.4766 
G01 X-0.5907 Y0.4774 
G01 X-0.5908 Y0.4783 
G01 X-0.5910 Y0.4791 
G01 X-0.5910 Y0.4800 
G01 X-0.5911 Y0.4808 
G01 X-0.5910 Y0.4817 
G01 X-0.5910 Y0.4941 
G01 X-0.5960 Y0.5062 
G01 X-0.6053 Y0.5155 
G01 X-0.6174 Y0.5205 
G01 X-0.6236 Y0.5205 
G01 X-0.6254 Y0.5205 
G01 X-0.6269 Y0.5209 
G01 X-0.6287 Y0.5214 
G01 X-0.6301 Y0.5222 
G01 X-0.6369 Y0.5261 
G01 X-0.6527 Y0.5282 
G01 X-0.6681 Y0.5241 
G01 X-0.6685 Y0.5237 
G01 X-0.6691 Y0.5231 
G01 X-0.6699 Y0.5227 
G01 X-0.6706 Y0.5222 
G01 X-0.6714 Y0.5218 
G01 X-0.6721 Y0.5214 
G01 X-0.6729 Y0.5212 
G01 X-0.6737 Y0.5208 
G01 X-0.6746 Y0.5207 
G01 X-0.6754 Y0.5205 
G01 X-0.6763 Y0.5205 
G01 X-0.6771 Y0.5204 
G01 X-0.6780 Y0.5205 
G01 X-0.6826 Y0.5205 
G01 X-0.6947 Y0.5155 
G01 X-0.7040 Y0.5062 
G01 X-0.7090 Y0.4941 
G01 X-0.7090 Y0.4809 
G01 X-0.7040 Y0.4688 
G01 X-0.6947 Y0.4595 
G01 X-0.6826 Y0.4545 
G01 X-0.6823 Y0.4545 
G01 X-0.6815 Y0.4546 
G01 X-0.6806 Y0.4545 
G01 X-0.6798 Y0.4545 
G01 X-0.6789 Y0.4543 
G01 X-0.6781 Y0.4542 
G01 X-0.6773 Y0.4538 
G01 X-0.6765 Y0.4536 
G01 X-0.6757 Y0.4532 
G01 X-0.6749 Y0.4529 
G01 X-0.6743 Y0.4523 
G01 X-0.6735 Y0.4519 
G01 X-0.6729 Y0.4513 
G01 X-0.6722 Y0.4508 
G01 X-0.6717 Y0.4501 
G01 X-0.6711 Y0.4495 
G01 X-0.6707 Y0.4487 
G01 X-0.5782 Y0.3286 
G01 X-0.5776 Y0.3280 
G01 X-0.5772 Y0.3272 
G01 X-0.5767 Y0.3265 
G01 X-0.5763 Y0.3257 
G01 X-0.5759 Y0.3250 
G01 X-0.5757 Y0.3242 
G01 X-0.5753 Y0.3234 
G01 X-0.5752 Y0.3225 
G01 X-0.5750 Y0.3217 
G01 X-0.5750 Y0.3208 
G01 X-0.5749 Y0.3200 
G01 X-0.5750 Y0.3191 
G01 X-0.5750 Y0.3151 
G01 X-0.5674 Y0.2967 
G01 X-0.5533 Y0.2826 
G01 X-0.5349 Y0.2750 
G01 X-0.2717 Y0.2750 
G01 X-0.2700 Y0.2750 
G01 X-0.2683 Y0.2746 
G01 X-0.2666 Y0.2741 
G01 X-0.2652 Y0.2733 
G01 X-0.2637 Y0.2724 
G01 X-0.2625 Y0.2712 
G01 X-0.2613 Y0.2700 
G01 X-0.2604 Y0.2685 
G01 X-0.2595 Y0.2670 
G01 X-0.2591 Y0.2653 
G01 X-0.2587 Y0.2637 
G01 X-0.2587 Y0.2620 
G01 X-0.2586 Y0.2603 
G01 X-0.2591 Y0.2587 
G01 X-0.2799 Y0.1805 
G01 X-0.2804 Y0.1789 
G01 X-0.2808 Y0.1772 
G01 X-0.2817 Y0.1757 
G01 X-0.2825 Y0.1743 
G01 X-0.2837 Y0.1731 
G01 X-0.2849 Y0.1718 
G01 X-0.2867 Y0.1701 
G01 X-0.2867 Y0.1569 
G01 X-0.2867 Y0.1552 
G01 X-0.2871 Y0.1535 
G01 X-0.2893 Y0.1453 
G01 X-0.2898 Y0.1437 
G01 X-0.2902 Y0.1420 
G01 X-0.2910 Y0.1405 
G01 X-0.2919 Y0.1390 
G01 X-0.2930 Y0.1380 
G01 X-0.2925 Y0.1374 
G01 X-0.2919 Y0.1368 
G01 X-0.2915 Y0.1361 
G01 X-0.2910 Y0.1354 
G01 X-0.2906 Y0.1346 
G01 X-0.2902 Y0.1339 
G01 X-0.2900 Y0.1330 
G01 X-0.2897 Y0.1322 
G01 X-0.2895 Y0.1314 
G01 X-0.2893 Y0.1306 
G01 X-0.2893 Y0.1297 
G01 X-0.2886 Y0.1243 
G01 X-0.2884 Y0.1241 
G01 X-0.2876 Y0.1226 
G01 X-0.2871 Y0.1209 
G01 X-0.2867 Y0.1193 
G01 X-0.2867 Y0.1176 
G01 X-0.2867 Y0.1158 
G01 X-0.2867 Y0.1049 
G01 X-0.2826 Y0.1008 
G01 X-0.2694 Y0.1008 
G01 X-0.2677 Y0.1008 
G01 X-0.2661 Y0.1004 
G01 X-0.2526 Y0.0968 
G01 X-0.2368 Y0.0989 
G01 X-0.2366 Y0.0991 
G01 X-0.2351 Y0.0999 
G01 X-0.2334 Y0.1004 
G01 X-0.2318 Y0.1008 
G01 X-0.2301 Y0.1008 
G01 X-0.2283 Y0.1008 
G01 X-0.2174 Y0.1008 
G01 X-0.2133 Y0.1049 
G01 X-0.2133 Y0.1181 
G01 X-0.2133 Y0.1198 
G01 X-0.2129 Y0.1214 
G01 X-0.1706 Y0.2800 
G01 X-0.1702 Y0.2817 
G01 X-0.1697 Y0.2833 
G01 X-0.1689 Y0.2848 
G01 X-0.1680 Y0.2863 
G01 X-0.1668 Y0.2875 
G01 X-0.1656 Y0.2887 
G01 X-0.1576 Y0.2967 
G01 X-0.1500 Y0.3151 
G01 X-0.1500 Y1.1010 
G01 X-0.1501 Y1.1013 
G01 X-0.1500 Y1.1027 
G01 X-0.1500 Y1.1040 
G01 X-0.1499 Y1.1044 
G01 X-0.1499 Y1.1048 
G01 X-0.1495 Y1.1060 
G01 X-0.1494 Y1.1061 
G01 X-0.1499 Y1.1126 
G01 X-0.1500 Y1.1130 
G01 X-0.1500 Y1.1143 
G01 X-0.1501 Y1.1155 
G01 X-0.1500 Y1.1160 
G01 X-0.1500 Y1.1224 
G01 X-0.1500 Y1.1225 
G01 X-0.1505 Y1.1238 
G01 X-0.1506 Y1.1242 
G01 X-0.1507 Y1.1245 
G01 X-0.1508 Y1.1259 
G01 X-0.1508 Y1.1260 
G01 X-0.1529 Y1.1302 
G01 X-0.1531 Y1.1304 
G01 X-0.1537 Y1.1317 
G01 X-0.1543 Y1.1330 
G01 X-0.1544 Y1.1333 
G01 X-0.1545 Y1.1335 
G01 X-0.1547 Y1.1349 
G01 X-0.1550 Y1.1363 
G01 X-0.1550 Y1.1366 
G01 X-0.1550 Y1.1369 
G01 X-0.1549 Y1.1383 
G01 X-0.1548 Y1.1397 
G01 X-0.1547 Y1.1400 
G01 X-0.1547 Y1.1403 
G01 X-0.1542 Y1.1416 
G01 X-0.1537 Y1.1430 
G01 X-0.1536 Y1.1432 
G01 X-0.1535 Y1.1435 
G01 X-0.1526 Y1.1447 
G01 X-0.1518 Y1.1458 
G01 X-0.1516 Y1.1460 
G01 X-0.1514 Y1.1463 
G01 X-0.1503 Y1.1472 
G01 X-0.1493 Y1.1481 
G01 X-0.1490 Y1.1482 
G01 X-0.1488 Y1.1484 
G01 X-0.1475 Y1.1490 
G01 X-0.1462 Y1.1496 
G01 X-0.1459 Y1.1497 
G01 X-0.1457 Y1.1498 
G01 X-0.1443 Y1.1500 
G01 X-0.1429 Y1.1503 
G01 X-0.1426 Y1.1503 
G01 X-0.1062 Y1.1561 
G01 X-0.1052 Y1.1563 
G01 X-0.1045 Y1.1563 
G01 X-0.1038 Y1.1564 
G01 X-0.1028 Y1.1563 
G01 X-0.1018 Y1.1563 
G01 X-0.1011 Y1.1561 
G01 X-0.1004 Y1.1561 
G01 X-0.0995 Y1.1557 
G01 X-0.0985 Y1.1554 
G01 X-0.0979 Y1.1551 
G01 X-0.0972 Y1.1548 
G01 X-0.0964 Y1.1542 
G01 X-0.0955 Y1.1537 
G01 X-0.0950 Y1.1532 
G01 X-0.0945 Y1.1528 
G01 X-0.0938 Y1.1520 
G01 X-0.0879 Y1.1461 
G01 X-0.0862 Y1.1431 
G01 X-0.0853 Y1.1398 
G01 X-0.0853 Y1.1364 
G01 X-0.0862 Y1.1331 
G01 X-0.0879 Y1.1301 
G01 X-0.0903 Y1.1277 
G01 X-0.0983 Y1.1197 
G01 X-0.1039 Y1.1061 
G01 X-0.1039 Y1.0914 
G01 X-0.0983 Y1.0778 
G01 X-0.0903 Y1.0698 
G01 X-0.0881 Y1.0675 
G01 X-0.0879 Y1.0673 
G01 X-0.0862 Y1.0644 
G01 X-0.0853 Y1.0611 
G01 X-0.0853 Y1.0576 
G01 X-0.0861 Y1.0545 
G01 X-0.0862 Y1.0543 
G01 X-0.0879 Y1.0514 
G01 X-0.0903 Y1.0489 
G01 X-0.0983 Y1.0409 
G01 X-0.1039 Y1.0273 
G01 X-0.1039 Y1.0126 
G01 X-0.0983 Y0.9990 
G01 X-0.0903 Y0.9910 
G01 X-0.0881 Y0.9888 
G01 X-0.0879 Y0.9886 
G01 X-0.0862 Y0.9856 
G01 X-0.0853 Y0.9823 
G01 X-0.0853 Y0.9789 
G01 X-0.0861 Y0.9757 
G01 X-0.0862 Y0.9756 
G01 X-0.0879 Y0.9726 
G01 X-0.0903 Y0.9702 
G01 X-0.0983 Y0.9622 
G01 X-0.1039 Y0.9486 
G01 X-0.1039 Y0.9339 
G01 X-0.0983 Y0.9203 
G01 X-0.0903 Y0.9123 
G01 X-0.0881 Y0.9101 
G01 X-0.0879 Y0.9099 
G01 X-0.0862 Y0.9069 
G01 X-0.0853 Y0.9036 
G01 X-0.0853 Y0.9002 
G01 X-0.0861 Y0.8970 
G01 X-0.0862 Y0.8969 
G01 X-0.0879 Y0.8939 
G01 X-0.0903 Y0.8915 
G01 X-0.0983 Y0.8835 
G01 X-0.1039 Y0.8699 
G01 X-0.1039 Y0.8551 
G01 X-0.0983 Y0.8415 
G01 X-0.0903 Y0.8335 
G01 X-0.0881 Y0.8313 
G01 X-0.0879 Y0.8311 
G01 X-0.0862 Y0.8281 
G01 X-0.0853 Y0.8248 
G01 X-0.0853 Y0.8214 
G01 X-0.0861 Y0.8183 
G01 X-0.0862 Y0.8181 
G01 X-0.0879 Y0.8151 
G01 X-0.0903 Y0.8127 
G01 X-0.0983 Y0.8047 
G01 X-0.1039 Y0.7911 
G01 X-0.1039 Y0.7764 
G01 X-0.0983 Y0.7628 
G01 X-0.0903 Y0.7548 
G01 X-0.0879 Y0.7524 
G01 X-0.0865 Y0.7501 
G01 X-0.0862 Y0.7494 
G01 X-0.0853 Y0.7461 
G01 X-0.0853 Y0.7427 
G01 X-0.0862 Y0.7394 
G01 X-0.0879 Y0.7364 
G01 X-0.0983 Y0.7260 
G01 X-0.1039 Y0.7124 
G01 X-0.1039 Y0.6977 
G01 X-0.0983 Y0.6841 
G01 X-0.0903 Y0.6761 
G01 X-0.0881 Y0.6738 
G01 X-0.0879 Y0.6736 
G01 X-0.0862 Y0.6707 
G01 X-0.0853 Y0.6674 
G01 X-0.0853 Y0.6639 
G01 X-0.0861 Y0.6608 
G01 X-0.0862 Y0.6606 
G01 X-0.0879 Y0.6577 
G01 X-0.0903 Y0.6552 
G01 X-0.0983 Y0.6472 
G01 X-0.1039 Y0.6336 
G01 X-0.1039 Y0.6189 
G01 X-0.0983 Y0.6053 
G01 X-0.0903 Y0.5973 
G01 X-0.0881 Y0.5951 
G01 X-0.0879 Y0.5949 
G01 X-0.0862 Y0.5919 
G01 X-0.0853 Y0.5886 
G01 X-0.0853 Y0.5852 
G01 X-0.0861 Y0.5820 
G01 X-0.0862 Y0.5819 
G01 X-0.0879 Y0.5789 
G01 X-0.0903 Y0.5765 
G01 X-0.0983 Y0.5685 
G01 X-0.1039 Y0.5549 
G01 X-0.1039 Y0.5402 
G01 X-0.0983 Y0.5266 
G01 X-0.0879 Y0.5162 
G01 X-0.0871 Y0.5156 
G01 X-0.0867 Y0.5150 
G01 X-0.0862 Y0.5145 
G01 X-0.0857 Y0.5136 
G01 X-0.0851 Y0.5128 
G01 X-0.0849 Y0.5122 
G01 X-0.0845 Y0.5116 
G01 X-0.0843 Y0.5106 
G01 X-0.0839 Y0.5096 
G01 X-0.0838 Y0.5089 
G01 X-0.0836 Y0.5083 
G01 X-0.0836 Y0.5072 
G01 X-0.0835 Y0.5062 
G01 X-0.0836 Y0.5055 
G01 X-0.0836 Y0.5048 
G01 X-0.0839 Y0.5038 
G01 X-0.0841 Y0.5028 
G01 X-0.0844 Y0.5022 
G01 X-0.0845 Y0.5015 
G01 X-0.0850 Y0.5006 
G01 X-0.0855 Y0.4997 
G01 X-0.0859 Y0.4992 
G01 X-0.0862 Y0.4986 
G01 X-0.0870 Y0.4978 
G01 X-0.0875 Y0.4971 
G01 X-0.0835 Y0.4998 
G01 X-0.0771 Y0.5025 
G01 X-0.0704 Y0.5038 
G01 X-0.0635 Y0.5038 
G01 X-0.0567 Y0.5025 
G01 X-0.0504 Y0.4998 
G01 X-0.0446 Y0.4960 
G01 X-0.0397 Y0.4911 
G01 X-0.0359 Y0.4854 
G01 X-0.0333 Y0.4790 
G01 X-0.0319 Y0.4722 
G01 X-0.0319 Y0.4654 
G01 X-0.0330 Y0.4600 
G01 X-0.0327 Y0.4610 
G01 X-0.0326 Y0.4620 
G01 X-0.0323 Y0.4626 
G01 X-0.0321 Y0.4633 
G01 X-0.0316 Y0.4642 
G01 X-0.0312 Y0.4651 
G01 X-0.0307 Y0.4656 
G01 X-0.0304 Y0.4662 
G01 X-0.0297 Y0.4670 
G01 X-0.0290 Y0.4678 
G01 X-0.0285 Y0.4682 
G01 X-0.0280 Y0.4687 
G01 X-0.0271 Y0.4692 
G01 X-0.0263 Y0.4698 
G01 X-0.0256 Y0.4700 
G01 X-0.0250 Y0.4704 
G01 X-0.0240 Y0.4706 
G01 X-0.0231 Y0.4710 
G01 X-0.0224 Y0.4711 
G01 X-0.0217 Y0.4713 
G01 X-0.0207 Y0.4713 
G01 X-0.0197 Y0.4714 
G01 X-0.0190 Y0.4713 
G01 X-0.0183 Y0.4713 
G01 X-0.0173 Y0.4710 
G01 X-0.0163 Y0.4708 
G01 X-0.0156 Y0.4706 
G01 X-0.0150 Y0.4704 
G01 X-0.0141 Y0.4699 
G01 X-0.0132 Y0.4694 
G01 X-0.0126 Y0.4690 
G01 X-0.0120 Y0.4687 
G01 X-0.0113 Y0.4679 
G01 X-0.0105 Y0.4673 
G01 X-0.0101 Y0.4667 
G01 X-0.0096 Y0.4662 
G01 X-0.0091 Y0.4654 
G01 X-0.0085 Y0.4645 
G01 X-0.0082 Y0.4639 
G01 X-0.0079 Y0.4633 
G01 X-0.0076 Y0.4623 
G01 X-0.0073 Y0.4613 
G01 X-0.0072 Y0.4606 
G01 X-0.0070 Y0.4600 
G01 X-0.0070 Y0.4589 
G01 X-0.0069 Y0.4579 
G01 X-0.0070 Y0.4572 
G01 X-0.0070 Y0.0183 
G01 X-0.0079 Y0.0150 
G01 X-0.0096 Y0.0120 
G00 Z0.1000 
G00 X-0.2161 Y0.1050 
G01 Z-0.0070 F4.00  
G01 X-0.2175 Y0.1036 F10.00 
G01 X-0.2193 Y0.1028 
G01 X-0.2341 Y0.1028 
G01 X-0.2342 Y0.1027 
G01 X-0.2413 Y0.1003 
G01 X-0.2487 Y0.0993 
G01 X-0.2562 Y0.0998 
G01 X-0.2634 Y0.1017 
G01 X-0.2656 Y0.1028 
G01 X-0.2807 Y0.1028 
G01 X-0.2825 Y0.1036 
G01 X-0.2839 Y0.1050 
G01 X-0.2847 Y0.1068 
G01 X-0.2847 Y0.1216 
G01 X-0.2848 Y0.1217 
G01 X-0.2872 Y0.1288 
G01 X-0.2882 Y0.1362 
G01 X-0.2877 Y0.1437 
G01 X-0.2847 Y0.1549 
G01 X-0.2847 Y0.1682 
G01 X-0.2839 Y0.1700 
G01 X-0.2825 Y0.1714 
G01 X-0.2807 Y0.1722 
G01 X-0.2801 Y0.1722 
G01 X-0.2521 Y0.2770 
G01 X-0.5288 Y0.2770 
G01 X-0.5362 Y0.2782 
G01 X-0.5434 Y0.2805 
G01 X-0.5502 Y0.2839 
G01 X-0.5563 Y0.2884 
G01 X-0.5616 Y0.2937 
G01 X-0.5661 Y0.2998 
G01 X-0.5695 Y0.3066 
G01 X-0.5718 Y0.3138 
G01 X-0.5730 Y0.3212 
G01 X-0.5730 Y0.3251 
G01 X-0.6741 Y0.4565 
G01 X-0.6791 Y0.4565 
G01 X-0.6850 Y0.4577 
G01 X-0.6907 Y0.4600 
G01 X-0.6958 Y0.4634 
G01 X-0.7001 Y0.4677 
G01 X-0.7035 Y0.4728 
G01 X-0.7058 Y0.4785 
G01 X-0.7070 Y0.4844 
G01 X-0.7070 Y0.4906 
G01 X-0.7058 Y0.4965 
G01 X-0.7035 Y0.5022 
G01 X-0.7001 Y0.5073 
G01 X-0.6958 Y0.5116 
G01 X-0.6907 Y0.5150 
G01 X-0.6850 Y0.5173 
G01 X-0.6791 Y0.5185 
G01 X-0.6720 Y0.5185 
G01 X-0.6702 Y0.5199 
G01 X-0.6635 Y0.5232 
G01 X-0.6563 Y0.5252 
G01 X-0.6488 Y0.5257 
G01 X-0.6414 Y0.5247 
G01 X-0.6343 Y0.5223 
G01 X-0.6278 Y0.5186 
G01 X-0.6209 Y0.5185 
G01 X-0.6150 Y0.5173 
G01 X-0.6093 Y0.5150 
G01 X-0.6042 Y0.5116 
G01 X-0.5999 Y0.5073 
G01 X-0.5965 Y0.5022 
G01 X-0.5942 Y0.4965 
G01 X-0.5930 Y0.4906 
G01 X-0.5930 Y0.4844 
G01 X-0.5942 Y0.4785 
G01 X-0.5945 Y0.4777 
G01 X-0.5140 Y0.3730 
G01 X-0.2480 Y0.3730 
G01 X-0.2480 Y1.1012 
G01 X-0.2660 Y1.1372 
G01 X-0.3726 Y1.2799 
G01 X-0.3761 Y1.2866 
G01 X-0.3786 Y1.2938 
G01 X-0.3798 Y1.3012 
G01 X-0.3799 Y1.3088 
G01 X-0.3789 Y1.3162 
G01 X-0.3766 Y1.3234 
G01 X-0.3733 Y1.3302 
G01 X-0.3723 Y1.3316 
G01 X-0.3851 Y1.3525 
G01 X-0.3853 Y1.3525 
G01 X-0.3921 Y1.3538 
G01 X-0.3985 Y1.3565 
G01 X-0.4042 Y1.3603 
G01 X-0.4091 Y1.3652 
G01 X-0.4129 Y1.3709 
G01 X-0.4155 Y1.3773 
G01 X-0.4169 Y1.3841 
G01 X-0.4169 Y1.3909 
G01 X-0.4155 Y1.3977 
G01 X-0.4129 Y1.4041 
G01 X-0.4091 Y1.4098 
G01 X-0.4042 Y1.4147 
G01 X-0.3985 Y1.4185 
G01 X-0.3921 Y1.4212 
G01 X-0.3853 Y1.4225 
G01 X-0.3784 Y1.4225 
G01 X-0.3717 Y1.4212 
G01 X-0.3653 Y1.4185 
G01 X-0.3596 Y1.4147 
G01 X-0.3547 Y1.4098 
G01 X-0.3509 Y1.4041 
G01 X-0.3482 Y1.3977 
G01 X-0.3469 Y1.3909 
G01 X-0.3469 Y1.3841 
G01 X-0.3482 Y1.3773 
G01 X-0.3494 Y1.3745 
G01 X-0.3365 Y1.3535 
G01 X-0.3363 Y1.3536 
G01 X-0.3287 Y1.3537 
G01 X-0.3213 Y1.3526 
G01 X-0.3141 Y1.3503 
G01 X-0.3073 Y1.3470 
G01 X-0.3011 Y1.3426 
G01 X-0.2957 Y1.3374 
G01 X-0.1885 Y1.1938 
G01 X-0.1882 Y1.1935 
G01 X-0.1862 Y1.1908 
G01 X-0.1843 Y1.1882 
G01 X-0.1840 Y1.1878 
G01 X-0.1838 Y1.1873 
G01 X-0.1823 Y1.1844 
G01 X-0.1808 Y1.1815 
G01 X-0.1806 Y1.1810 
G01 X-0.1767 Y1.1733 
G01 X-0.1011 Y1.1852 
G01 X-0.1006 Y1.1877 
G01 X-0.0979 Y1.1940 
G01 X-0.0941 Y1.1998 
G01 X-0.0892 Y1.2046 
G01 X-0.0835 Y1.2085 
G01 X-0.0771 Y1.2111 
G01 X-0.0704 Y1.2125 
G01 X-0.0635 Y1.2125 
G01 X-0.0567 Y1.2111 
G01 X-0.0504 Y1.2085 
G01 X-0.0446 Y1.2046 
G01 X-0.0397 Y1.1998 
G01 X-0.0359 Y1.1940 
G01 X-0.0333 Y1.1877 
G01 X-0.0319 Y1.1809 
G01 X-0.0319 Y1.1740 
G01 X-0.0333 Y1.1673 
G01 X-0.0359 Y1.1609 
G01 X-0.0397 Y1.1551 
G01 X-0.0446 Y1.1503 
G01 X-0.0504 Y1.1464 
G01 X-0.0567 Y1.1438 
G01 X-0.0635 Y1.1425 
G01 X-0.0704 Y1.1425 
G01 X-0.0771 Y1.1438 
G01 X-0.0835 Y1.1464 
G01 X-0.0892 Y1.1503 
G01 X-0.0941 Y1.1551 
G01 X-0.0970 Y1.1595 
G01 X-0.1645 Y1.1489 
G01 X-0.1571 Y1.1341 
G01 X-0.1555 Y1.1309 
G01 X-0.1555 Y1.1308 
G01 X-0.1554 Y1.1306 
G01 X-0.1543 Y1.1272 
G01 X-0.1532 Y1.1237 
G01 X-0.1532 Y1.1236 
G01 X-0.1531 Y1.1234 
G01 X-0.1526 Y1.1198 
G01 X-0.1520 Y1.1163 
G01 X-0.1520 Y1.1161 
G01 X-0.1520 Y1.1159 
G01 X-0.1520 Y1.1123 
G01 X-0.1520 Y0.3212 
G01 X-0.1532 Y0.3138 
G01 X-0.1555 Y0.3066 
G01 X-0.1589 Y0.2998 
G01 X-0.1634 Y0.2937 
G01 X-0.1687 Y0.2884 
G01 X-0.1708 Y0.2869 
G01 X-0.2142 Y0.1241 
G01 X-0.2153 Y0.1219 
G01 X-0.2153 Y0.1068 
G01 X-0.2161 Y0.1050 
G00 Z0.1000 
G00 X-0.3158 Y0.1056 
G01 Z-0.0070 F4.00  
G01 X-0.3157 Y0.1059 F10.00 
G01 X-0.3156 Y0.1062 
G01 X-0.3158 Y0.1056 
G00 Z0.1000 
G00 X-0.3163 Y0.1047 
G01 Z-0.0070 F4.00  
G01 X-0.3172 Y0.1038 F10.00 
G01 X-0.3163 Y0.1047 
G00 Z0.1000 
G00 X-0.3181 Y0.1033 
G01 Z-0.0070 F4.00  
G01 X-0.3187 Y0.1031 F10.00 
G01 X-0.3184 Y0.1032 
G01 X-0.3181 Y0.1033 
G00 Z0.1000 
G00 X-0.3197 Y0.1028 
G01 Z-0.0070 F4.00  
G01 X-0.3352 Y0.1028 F10.00 
G01 X-0.3197 Y0.1028 
G00 Z0.1000 
G00 X-0.3153 Y0.1072 
G01 Z-0.0070 F4.00  
G01 X-0.3153 Y0.1072 F10.00 
G01 X-0.3153 Y0.1280 
G01 X-0.3153 Y0.1072 
G00 Z0.1000 
G00 X-0.3153 Y0.1297 
G01 Z-0.0070 F4.00  
G01 X-0.3153 Y0.1297 F10.00 
G01 X-0.3153 Y0.1306 
G01 X-0.3151 Y0.1314 
G01 X-0.3150 Y0.1322 
G01 X-0.3147 Y0.1330 
G01 X-0.3144 Y0.1339 
G01 X-0.3140 Y0.1346 
G01 X-0.3137 Y0.1354 
G01 X-0.3132 Y0.1361 
G01 X-0.3127 Y0.1368 
G01 X-0.3121 Y0.1374 
G01 X-0.3117 Y0.1380 
G01 X-0.3127 Y0.1390 
G01 X-0.3136 Y0.1405 
G01 X-0.3144 Y0.1420 
G01 X-0.3149 Y0.1436 
G01 X-0.3153 Y0.1453 
G01 X-0.3153 Y0.1470 
G01 X-0.3153 Y0.1472 
G01 X-0.3153 Y0.1297 
G00 Z0.1000 
G00 X-0.3153 Y0.1487 
G01 Z-0.0070 F4.00  
G01 X-0.3153 Y0.1487 F10.00 
G01 X-0.3153 Y0.1678 
G01 X-0.3153 Y0.1487 
G00 Z0.1000 
G00 X-0.3156 Y0.1688 
G01 Z-0.0070 F4.00  
G01 X-0.3157 Y0.1691 F10.00 
G01 X-0.3158 Y0.1694 
G01 X-0.3156 Y0.1688 
G00 Z0.1000 
G00 X-0.3163 Y0.1703 
G01 Z-0.0070 F4.00  
G01 X-0.3163 Y0.1703 F10.00 
G01 X-0.3172 Y0.1712 
G01 X-0.3163 Y0.1703 
G00 Z0.1000 
G00 X-0.3181 Y0.1717 
G01 Z-0.0070 F4.00  
G01 X-0.3184 Y0.1718 F10.00 
G01 X-0.3187 Y0.1719 
G01 X-0.3181 Y0.1717 
G00 Z0.1000 
G00 X-0.3197 Y0.1722 
G01 Z-0.0070 F4.00  
G01 X-0.3197 Y0.1722 F10.00 
G01 X-0.3352 Y0.1722 
G01 X-0.3197 Y0.1722 
G00 Z0.1000 
G00 X-0.3648 Y0.1722 
G01 Z-0.0070 F4.00  
G01 X-0.3803 Y0.1722 F10.00 
G01 X-0.3648 Y0.1722 
G00 Z0.1000 
G00 X-0.3813 Y0.1719 
G01 Z-0.0070 F4.00  
G01 X-0.3816 Y0.1718 F10.00 
G01 X-0.3819 Y0.1717 
G01 X-0.3813 Y0.1719 
G00 Z0.1000 
G00 X-0.3828 Y0.1712 
G01 Z-0.0070 F4.00  
G01 X-0.3828 Y0.1712 F10.00 
G01 X-0.3837 Y0.1703 
G01 X-0.3828 Y0.1712 
G00 Z0.1000 
G00 X-0.3842 Y0.1694 
G01 Z-0.0070 F4.00  
G01 X-0.3843 Y0.1691 F10.00 
G01 X-0.3844 Y0.1688 
G01 X-0.3842 Y0.1694 
G00 Z0.1000 
G00 X-0.3847 Y0.1678 
G01 Z-0.0070 F4.00  
G01 X-0.3847 Y0.1678 F10.00 
G01 X-0.3847 Y0.1523 
G01 X-0.3847 Y0.1678 
G00 Z0.1000 
G00 X-0.4153 Y0.1682 
G01 Z-0.0070 F4.00  
G01 X-0.4153 Y0.1068 F10.00 
G01 X-0.4161 Y0.1050 
G01 X-0.4175 Y0.1036 
G01 X-0.4193 Y0.1028 
G01 X-0.4200 Y0.1028 
G01 X-0.4200 Y0.0636 
G01 X-0.4199 Y0.0617 
G01 X-0.4200 Y0.0606 
G01 X-0.4200 Y0.0595 
G01 X-0.4204 Y0.0577 
G01 X-0.4206 Y0.0558 
G01 X-0.4209 Y0.0548 
G01 X-0.4212 Y0.0537 
G01 X-0.4219 Y0.0520 
G01 X-0.4225 Y0.0502 
G01 X-0.4230 Y0.0493 
G01 X-0.4234 Y0.0483 
G01 X-0.4245 Y0.0467 
G01 X-0.4254 Y0.0451 
G01 X-0.4261 Y0.0443 
G01 X-0.4267 Y0.0434 
G01 X-0.4280 Y0.0420 
G01 X-0.4293 Y0.0406 
G01 X-0.4301 Y0.0400 
G01 X-0.4309 Y0.0392 
G01 X-0.4324 Y0.0381 
G01 X-0.4339 Y0.0370 
G01 X-0.4349 Y0.0365 
G01 X-0.4358 Y0.0359 
G01 X-0.4375 Y0.0352 
G01 X-0.4849 Y0.0115 
G01 X-0.4858 Y0.0109 
G01 X-0.4875 Y0.0102 
G01 X-0.4892 Y0.0093 
G01 X-0.4903 Y0.0091 
G01 X-0.4912 Y0.0087 
G01 X-0.4931 Y0.0083 
G01 X-0.4949 Y0.0078 
G01 X-0.4960 Y0.0077 
G01 X-0.4970 Y0.0075 
G01 X-0.4989 Y0.0075 
G01 X-0.5008 Y0.0074 
G01 X-0.5019 Y0.0075 
G01 X-0.6500 Y0.0075 
G01 X-0.6529 Y0.0075 
G01 X-0.6558 Y0.0081 
G01 X-0.6587 Y0.0086 
G01 X-0.6614 Y0.0098 
G01 X-0.6642 Y0.0109 
G01 X-0.6666 Y0.0125 
G01 X-0.7648 Y0.0780 
G01 X-0.7722 Y0.0705 
G01 X-0.8278 Y0.0705 
G01 X-0.8670 Y0.1097 
G01 X-0.8670 Y0.1653 
G01 X-0.8278 Y0.2045 
G01 X-0.7722 Y0.2045 
G01 X-0.7330 Y0.1653 
G01 X-0.7330 Y0.1289 
G01 X-0.6409 Y0.0675 
G01 X-0.5071 Y0.0675 
G01 X-0.4800 Y0.0810 
G01 X-0.4800 Y0.1028 
G01 X-0.4807 Y0.1028 
G01 X-0.4825 Y0.1036 
G01 X-0.4839 Y0.1050 
G01 X-0.4847 Y0.1068 
G01 X-0.4847 Y0.1682 
G01 X-0.4839 Y0.1700 
G01 X-0.4825 Y0.1714 
G01 X-0.4807 Y0.1722 
G01 X-0.4193 Y0.1722 
G01 X-0.4175 Y0.1714 
G01 X-0.4161 Y0.1700 
G01 X-0.4153 Y0.1682 
G00 Z0.1000 
G00 X-0.3847 Y0.1227 
G01 Z-0.0070 F4.00  
G01 X-0.3847 Y0.1072 F10.00 
G01 X-0.3847 Y0.1227 
G00 Z0.1000 
G00 X-0.3844 Y0.1062 
G01 Z-0.0070 F4.00  
G01 X-0.3843 Y0.1059 F10.00 
G01 X-0.3842 Y0.1056 
G01 X-0.3844 Y0.1062 
G00 Z0.1000 
G00 X-0.3837 Y0.1047 
G01 Z-0.0070 F4.00  
G01 X-0.3837 Y0.1047 F10.00 
G01 X-0.3828 Y0.1038 
G01 X-0.3837 Y0.1047 
G00 Z0.1000 
G00 X-0.3819 Y0.1033 
G01 Z-0.0070 F4.00  
G01 X-0.3816 Y0.1032 F10.00 
G01 X-0.3813 Y0.1031 
G01 X-0.3819 Y0.1033 
G00 Z0.1000 
G00 X-0.3803 Y0.1028 
G01 Z-0.0070 F4.00  
G01 X-0.3803 Y0.1028 F10.00 
G01 X-0.3648 Y0.1028 
G01 X-0.3803 Y0.1028 
G00 Z0.1000 
G00 X-0.5133 Y0.1049 
G01 Z-0.0070 F4.00  
G01 X-0.5133 Y0.1701 F10.00 
G01 X-0.5174 Y0.1742 
G01 X-0.5826 Y0.1742 
G01 X-0.5867 Y0.1701 
G01 X-0.5867 Y0.1049 
G01 X-0.5826 Y0.1008 
G01 X-0.5174 Y0.1008 
G01 X-0.5133 Y0.1049 
G00 Z0.1000 
G00 X-0.5161 Y0.1050 
G01 Z-0.0070 F4.00  
G01 X-0.5175 Y0.1036 F10.00 
G01 X-0.5193 Y0.1028 
G01 X-0.5807 Y0.1028 
G01 X-0.5825 Y0.1036 
G01 X-0.5839 Y0.1050 
G01 X-0.5847 Y0.1068 
G01 X-0.5847 Y0.1682 
G01 X-0.5839 Y0.1700 
G01 X-0.5825 Y0.1714 
G01 X-0.5807 Y0.1722 
G01 X-0.5193 Y0.1722 
G01 X-0.5175 Y0.1714 
G01 X-0.5161 Y0.1700 
G01 X-0.5153 Y0.1682 
G01 X-0.5153 Y0.1068 
G01 X-0.5161 Y0.1050 
G00 Z0.1000 
G00 X-0.7722 Y0.2705 
G01 Z-0.0070 F4.00  
G01 X-0.7330 Y0.3097 F10.00 
G01 X-0.7330 Y0.3215 
G01 X-0.7330 Y0.3097 
G01 X-0.7722 Y0.2705 
G01 X-0.7840 Y0.2705 
G01 X-0.7722 Y0.2705 
G00 Z0.1000 
G00 X-0.8160 Y0.2705 
G01 Z-0.0070 F4.00  
G01 X-0.8160 Y0.2705 F10.00 
G01 X-0.8278 Y0.2705 
G01 X-0.8670 Y0.3097 
G01 X-0.8278 Y0.2705 
G01 X-0.8160 Y0.2705 
G00 Z0.1000 
G00 X-0.8670 Y0.3097 
G01 Z-0.0070 F4.00  
G01 X-0.8670 Y0.3215 F10.00 
G01 X-0.8670 Y0.3097 
G00 Z0.1000 
G00 X-0.8670 Y0.3535 
G01 Z-0.0070 F4.00  
G01 X-0.8670 Y0.3653 F10.00 
G01 X-0.8670 Y0.3535 
G00 Z0.1000 
G00 X-0.8670 Y0.3653 
G01 Z-0.0070 F4.00  
G01 X-0.8278 Y0.4045 F10.00 
G01 X-0.8160 Y0.4045 
G01 X-0.8278 Y0.4045 
G01 X-0.8670 Y0.3653 
G00 Z0.1000 
G00 X-0.9059 Y0.4465 
G01 Z-0.0070 F4.00  
G01 X-0.9108 Y0.4416 F10.00 
G01 X-0.9165 Y0.4378 
G01 X-0.9229 Y0.4351 
G01 X-0.9296 Y0.4338 
G01 X-0.9365 Y0.4338 
G01 X-0.9433 Y0.4351 
G01 X-0.9496 Y0.4378 
G01 X-0.9554 Y0.4416 
G01 X-0.9603 Y0.4465 
G01 X-0.9641 Y0.4522 
G01 X-0.9667 Y0.4586 
G01 X-0.9681 Y0.4654 
G01 X-0.9681 Y0.4722 
G01 X-0.9667 Y0.4790 
G01 X-0.9641 Y0.4854 
G01 X-0.9603 Y0.4911 
G01 X-0.9554 Y0.4960 
G01 X-0.9496 Y0.4998 
G01 X-0.9433 Y0.5025 
G01 X-0.9365 Y0.5038 
G01 X-0.9296 Y0.5038 
G01 X-0.9229 Y0.5025 
G01 X-0.9165 Y0.4998 
G01 X-0.9108 Y0.4960 
G01 X-0.9059 Y0.4911 
G01 X-0.9021 Y0.4854 
G01 X-0.8994 Y0.4790 
G01 X-0.8981 Y0.4722 
G01 X-0.8981 Y0.4654 
G01 X-0.8994 Y0.4586 
G01 X-0.9021 Y0.4522 
G01 X-0.9059 Y0.4465 
G00 Z0.1000 
G00 X-0.9059 Y0.5252 
G01 Z-0.0070 F4.00  
G01 X-0.9108 Y0.5204 F10.00 
G01 X-0.9165 Y0.5165 
G01 X-0.9229 Y0.5139 
G01 X-0.9296 Y0.5125 
G01 X-0.9365 Y0.5125 
G01 X-0.9433 Y0.5139 
G01 X-0.9496 Y0.5165 
G01 X-0.9554 Y0.5204 
G01 X-0.9603 Y0.5252 
G01 X-0.9641 Y0.5310 
G01 X-0.9667 Y0.5373 
G01 X-0.9681 Y0.5441 
G01 X-0.9681 Y0.5510 
G01 X-0.9667 Y0.5577 
G01 X-0.9641 Y0.5641 
G01 X-0.9603 Y0.5699 
G01 X-0.9554 Y0.5747 
G01 X-0.9496 Y0.5786 
G01 X-0.9433 Y0.5812 
G01 X-0.9365 Y0.5825 
G01 X-0.9296 Y0.5825 
G01 X-0.9229 Y0.5812 
G01 X-0.9165 Y0.5786 
G01 X-0.9108 Y0.5747 
G01 X-0.9059 Y0.5699 
G01 X-0.9021 Y0.5641 
G01 X-0.8994 Y0.5577 
G01 X-0.8981 Y0.5510 
G01 X-0.8981 Y0.5441 
G01 X-0.8994 Y0.5373 
G01 X-0.9021 Y0.5310 
G01 X-0.9059 Y0.5252 
G00 Z0.1000 
G00 X-0.9059 Y0.6040 
G01 Z-0.0070 F4.00  
G01 X-0.9108 Y0.5991 F10.00 
G01 X-0.9165 Y0.5953 
G01 X-0.9229 Y0.5926 
G01 X-0.9296 Y0.5913 
G01 X-0.9365 Y0.5913 
G01 X-0.9433 Y0.5926 
G01 X-0.9496 Y0.5953 
G01 X-0.9554 Y0.5991 
G01 X-0.9603 Y0.6040 
G01 X-0.9641 Y0.6097 
G01 X-0.9667 Y0.6161 
G01 X-0.9681 Y0.6228 
G01 X-0.9681 Y0.6297 
G01 X-0.9667 Y0.6365 
G01 X-0.9641 Y0.6429 
G01 X-0.9603 Y0.6486 
G01 X-0.9554 Y0.6535 
G01 X-0.9496 Y0.6573 
G01 X-0.9433 Y0.6599 
G01 X-0.9365 Y0.6613 
G01 X-0.9296 Y0.6613 
G01 X-0.9229 Y0.6599 
G01 X-0.9165 Y0.6573 
G01 X-0.9108 Y0.6535 
G01 X-0.9059 Y0.6486 
G01 X-0.9021 Y0.6429 
G01 X-0.8994 Y0.6365 
G01 X-0.8981 Y0.6297 
G01 X-0.8981 Y0.6228 
G01 X-0.8994 Y0.6161 
G01 X-0.9021 Y0.6097 
G01 X-0.9059 Y0.6040 
G00 Z0.1000 
G00 X-0.9059 Y0.6827 
G01 Z-0.0070 F4.00  
G01 X-0.9108 Y0.6778 F10.00 
G01 X-0.9165 Y0.6740 
G01 X-0.9229 Y0.6714 
G01 X-0.9296 Y0.6700 
G01 X-0.9365 Y0.6700 
G01 X-0.9433 Y0.6714 
G01 X-0.9496 Y0.6740 
G01 X-0.9554 Y0.6778 
G01 X-0.9603 Y0.6827 
G01 X-0.9641 Y0.6884 
G01 X-0.9667 Y0.6948 
G01 X-0.9681 Y0.7016 
G01 X-0.9681 Y0.7085 
G01 X-0.9667 Y0.7152 
G01 X-0.9641 Y0.7216 
G01 X-0.9603 Y0.7273 
G01 X-0.9554 Y0.7322 
G01 X-0.9496 Y0.7360 
G01 X-0.9433 Y0.7387 
G01 X-0.9365 Y0.7400 
G01 X-0.9296 Y0.7400 
G01 X-0.9229 Y0.7387 
G01 X-0.9165 Y0.7360 
G01 X-0.9108 Y0.7322 
G01 X-0.9059 Y0.7273 
G01 X-0.9021 Y0.7216 
G01 X-0.8994 Y0.7152 
G01 X-0.8981 Y0.7085 
G01 X-0.8981 Y0.7016 
G01 X-0.8994 Y0.6948 
G01 X-0.9021 Y0.6884 
G01 X-0.9059 Y0.6827 
G00 Z0.1000 
G00 X-0.8400 Y0.6791 
G01 Z-0.0070 F4.00  
G01 X-0.8400 Y0.6459 F10.00 
G01 X-0.8166 Y0.6225 
G01 X-0.7905 Y0.6225 
G01 X-0.7872 Y0.6216 
G01 X-0.7843 Y0.6199 
G01 X-0.7819 Y0.6175 
G01 X-0.7358 Y0.5714 
G01 X-0.7288 Y0.5685 
G01 X-0.7073 Y0.5685 
G01 X-0.7040 Y0.5676 
G01 X-0.7011 Y0.5659 
G01 X-0.6987 Y0.5635 
G01 X-0.6947 Y0.5595 
G01 X-0.6826 Y0.5545 
G01 X-0.6538 Y0.5545 
G01 X-0.6536 Y0.5545 
G01 X-0.6534 Y0.5545 
G01 X-0.6174 Y0.5545 
G01 X-0.6053 Y0.5595 
G01 X-0.5960 Y0.5688 
G01 X-0.5910 Y0.5809 
G01 X-0.5910 Y0.5941 
G01 X-0.5960 Y0.6062 
G01 X-0.6053 Y0.6155 
G01 X-0.6174 Y0.6205 
G01 X-0.6826 Y0.6205 
G01 X-0.6947 Y0.6155 
G01 X-0.6987 Y0.6115 
G01 X-0.7009 Y0.6092 
G01 X-0.7011 Y0.6091 
G01 X-0.7040 Y0.6074 
G01 X-0.7073 Y0.6065 
G01 X-0.7135 Y0.6065 
G01 X-0.7168 Y0.6074 
G01 X-0.7197 Y0.6091 
G01 X-0.7221 Y0.6115 
G01 X-0.7574 Y0.6468 
G01 X-0.7591 Y0.6497 
G01 X-0.7600 Y0.6530 
G01 X-0.7600 Y0.6791 
G01 X-0.7834 Y0.7025 
G01 X-0.8166 Y0.7025 
G01 X-0.8400 Y0.6791 
G00 Z0.1000 
G00 X-0.8380 Y0.6782 
G01 Z-0.0070 F4.00  
G01 X-0.8157 Y0.7005 F10.00 
G01 X-0.7843 Y0.7005 
G01 X-0.7620 Y0.6782 
G01 X-0.7620 Y0.6485 
G01 X-0.7180 Y0.6045 
G01 X-0.7019 Y0.6045 
G01 X-0.7001 Y0.6073 
G01 X-0.6958 Y0.6116 
G01 X-0.6907 Y0.6150 
G01 X-0.6850 Y0.6173 
G01 X-0.6791 Y0.6185 
G01 X-0.6209 Y0.6185 
G01 X-0.6150 Y0.6173 
G01 X-0.6093 Y0.6150 
G01 X-0.6042 Y0.6116 
G01 X-0.5999 Y0.6073 
G01 X-0.5965 Y0.6022 
G01 X-0.5942 Y0.5965 
G01 X-0.5930 Y0.5906 
G01 X-0.5930 Y0.5844 
G01 X-0.5942 Y0.5785 
G01 X-0.5965 Y0.5728 
G01 X-0.5999 Y0.5677 
G01 X-0.6042 Y0.5634 
G01 X-0.6093 Y0.5600 
G01 X-0.6150 Y0.5577 
G01 X-0.6209 Y0.5565 
G01 X-0.6791 Y0.5565 
G01 X-0.6850 Y0.5577 
G01 X-0.6907 Y0.5600 
G01 X-0.6958 Y0.5634 
G01 X-0.7001 Y0.5677 
G01 X-0.7019 Y0.5705 
G01 X-0.7272 Y0.5705 
G01 X-0.7316 Y0.5717 
G01 X-0.7354 Y0.5739 
G01 X-0.7386 Y0.5771 
G01 X-0.7860 Y0.6245 
G01 X-0.8157 Y0.6245 
G01 X-0.8380 Y0.6468 
G01 X-0.8380 Y0.6782 
G00 Z0.1000 
G00 X-0.7090 Y0.6809 
G01 Z-0.0070 F4.00  
G01 X-0.7040 Y0.6688 F10.00 
G01 X-0.6947 Y0.6595 
G01 X-0.6826 Y0.6545 
G01 X-0.6174 Y0.6545 
G01 X-0.6053 Y0.6595 
G01 X-0.5960 Y0.6688 
G01 X-0.5910 Y0.6809 
G01 X-0.5910 Y0.6941 
G01 X-0.5960 Y0.7062 
G01 X-0.6053 Y0.7155 
G01 X-0.6174 Y0.7205 
G01 X-0.6826 Y0.7205 
G01 X-0.6947 Y0.7155 
G01 X-0.7040 Y0.7062 
G01 X-0.7090 Y0.6941 
G01 X-0.7090 Y0.6809 
G00 Z0.1000 
G00 X-0.7070 Y0.6844 
G01 Z-0.0070 F4.00  
G01 X-0.7070 Y0.6906 F10.00 
G01 X-0.7058 Y0.6965 
G01 X-0.7035 Y0.7022 
G01 X-0.7001 Y0.7073 
G01 X-0.6958 Y0.7116 
G01 X-0.6907 Y0.7150 
G01 X-0.6850 Y0.7173 
G01 X-0.6791 Y0.7185 
G01 X-0.6209 Y0.7185 
G01 X-0.6150 Y0.7173 
G01 X-0.6093 Y0.7150 
G01 X-0.6042 Y0.7116 
G01 X-0.5999 Y0.7073 
G01 X-0.5965 Y0.7022 
G01 X-0.5942 Y0.6965 
G01 X-0.5930 Y0.6906 
G01 X-0.5930 Y0.6844 
G01 X-0.5942 Y0.6785 
G01 X-0.5965 Y0.6728 
G01 X-0.5999 Y0.6677 
G01 X-0.6042 Y0.6634 
G01 X-0.6093 Y0.6600 
G01 X-0.6150 Y0.6577 
G01 X-0.6209 Y0.6565 
G01 X-0.6791 Y0.6565 
G01 X-0.6850 Y0.6577 
G01 X-0.6907 Y0.6600 
G01 X-0.6958 Y0.6634 
G01 X-0.7001 Y0.6677 
G01 X-0.7035 Y0.6728 
G01 X-0.7058 Y0.6785 
G01 X-0.7070 Y0.6844 
G00 Z0.1000 
G00 X-0.6962 Y0.7639 
G01 Z-0.0070 F4.00  
G01 X-0.6962 Y0.7639 F10.00 
G01 X-0.6996 Y0.7673 
G01 X-0.6962 Y0.7639 
G00 Z0.1000 
G00 X-0.6937 Y0.7621 
G01 Z-0.0070 F4.00  
G01 X-0.6922 Y0.7610 F10.00 
G01 X-0.6917 Y0.7607 
G01 X-0.6937 Y0.7621 
G00 Z0.1000 
G00 X-0.6890 Y0.7593 
G01 Z-0.0070 F4.00  
G01 X-0.6879 Y0.7588 F10.00 
G01 X-0.6867 Y0.7584 
G01 X-0.6890 Y0.7593 
G00 Z0.1000 
G00 X-0.6838 Y0.7575 
G01 Z-0.0070 F4.00  
G01 X-0.6833 Y0.7573 F10.00 
G01 X-0.6814 Y0.7570 
G01 X-0.6838 Y0.7575 
G00 Z0.1000 
G00 X-0.6784 Y0.7565 
G01 Z-0.0070 F4.00  
G01 X-0.6784 Y0.7565 F10.00 
G01 X-0.6630 Y0.7565 
G01 X-0.6784 Y0.7565 
G00 Z0.1000 
G00 X-0.7014 Y0.7698 
G01 Z-0.0070 F4.00  
G01 X-0.7028 Y0.7718 F10.00 
G01 X-0.7025 Y0.7713 
G01 X-0.7014 Y0.7698 
G00 Z0.1000 
G00 X-0.7028 Y0.8032 
G01 Z-0.0070 F4.00  
G01 X-0.7014 Y0.8052 F10.00 
G01 X-0.7025 Y0.8037 
G01 X-0.7028 Y0.8032 
G00 Z0.1000 
G00 X-0.6996 Y0.8077 
G01 Z-0.0070 F4.00  
G01 X-0.6962 Y0.8111 F10.00 
G01 X-0.6996 Y0.8077 
G00 Z0.1000 
G00 X-0.6937 Y0.8129 
G01 Z-0.0070 F4.00  
G01 X-0.6917 Y0.8143 F10.00 
G01 X-0.6922 Y0.8140 
G01 X-0.6937 Y0.8129 
G00 Z0.1000 
G00 X-0.6890 Y0.8157 
G01 Z-0.0070 F4.00  
G01 X-0.6867 Y0.8166 F10.00 
G01 X-0.6879 Y0.8162 
G01 X-0.6890 Y0.8157 
G00 Z0.1000 
G00 X-0.6838 Y0.8175 
G01 Z-0.0070 F4.00  
G01 X-0.6814 Y0.8180 F10.00 
G01 X-0.6833 Y0.8177 
G01 X-0.6838 Y0.8175 
G00 Z0.1000 
G00 X-0.6784 Y0.8185 
G01 Z-0.0070 F4.00  
G01 X-0.6719 Y0.8185 F10.00 
G01 X-0.6784 Y0.8185 
G00 Z0.1000 
G00 X-0.6791 Y0.8565 
G01 Z-0.0070 F4.00  
G01 X-0.6850 Y0.8577 F10.00 
G01 X-0.6907 Y0.8600 
G01 X-0.6958 Y0.8634 
G01 X-0.7001 Y0.8677 
G01 X-0.7035 Y0.8728 
G01 X-0.7058 Y0.8785 
G01 X-0.7070 Y0.8844 
G01 X-0.7070 Y0.8906 
G01 X-0.7058 Y0.8965 
G01 X-0.7035 Y0.9022 
G01 X-0.7001 Y0.9073 
G01 X-0.6958 Y0.9116 
G01 X-0.6907 Y0.9150 
G01 X-0.6850 Y0.9173 
G01 X-0.6791 Y0.9185 
G01 X-0.6209 Y0.9185 
G01 X-0.6150 Y0.9173 
G01 X-0.6093 Y0.9150 
G01 X-0.6042 Y0.9116 
G01 X-0.5999 Y0.9073 
G01 X-0.5965 Y0.9022 
G01 X-0.5942 Y0.8965 
G01 X-0.5930 Y0.8906 
G01 X-0.5930 Y0.8844 
G01 X-0.5942 Y0.8785 
G01 X-0.5965 Y0.8728 
G01 X-0.5999 Y0.8677 
G01 X-0.6042 Y0.8634 
G01 X-0.6093 Y0.8600 
G01 X-0.6150 Y0.8577 
G01 X-0.6209 Y0.8565 
G01 X-0.6791 Y0.8565 
G00 Z0.1000 
G00 X-0.6826 Y0.8545 
G01 Z-0.0070 F4.00  
G01 X-0.6174 Y0.8545 F10.00 
G01 X-0.6053 Y0.8595 
G01 X-0.5960 Y0.8688 
G01 X-0.5910 Y0.8809 
G01 X-0.5910 Y0.8941 
G01 X-0.5960 Y0.9062 
G01 X-0.6053 Y0.9155 
G01 X-0.6174 Y0.9205 
G01 X-0.6826 Y0.9205 
G01 X-0.6947 Y0.9155 
G01 X-0.7040 Y0.9062 
G01 X-0.7090 Y0.8941 
G01 X-0.7090 Y0.8809 
G01 X-0.7040 Y0.8688 
G01 X-0.6947 Y0.8595 
G01 X-0.6826 Y0.8545 
G00 Z0.1000 
G00 X-0.6370 Y0.8185 
G01 Z-0.0070 F4.00  
G01 X-0.6216 Y0.8185 F10.00 
G01 X-0.6370 Y0.8185 
G00 Z0.1000 
G00 X-0.6186 Y0.8180 
G01 Z-0.0070 F4.00  
G01 X-0.6162 Y0.8175 F10.00 
G01 X-0.6167 Y0.8177 
G01 X-0.6186 Y0.8180 
G00 Z0.1000 
G00 X-0.6133 Y0.8166 
G01 Z-0.0070 F4.00  
G01 X-0.6110 Y0.8157 F10.00 
G01 X-0.6121 Y0.8162 
G01 X-0.6133 Y0.8166 
G00 Z0.1000 
G00 X-0.6083 Y0.8143 
G01 Z-0.0070 F4.00  
G01 X-0.6063 Y0.8129 F10.00 
G01 X-0.6078 Y0.8140 
G01 X-0.6083 Y0.8143 
G00 Z0.1000 
G00 X-0.6038 Y0.8111 
G01 Z-0.0070 F4.00  
G01 X-0.6004 Y0.8077 F10.00 
G01 X-0.6038 Y0.8111 
G00 Z0.1000 
G00 X-0.5986 Y0.8052 
G01 Z-0.0070 F4.00  
G01 X-0.5972 Y0.8032 F10.00 
G01 X-0.5975 Y0.8037 
G01 X-0.5986 Y0.8052 
G00 Z0.1000 
G00 X-0.5972 Y0.7718 
G01 Z-0.0070 F4.00  
G01 X-0.5986 Y0.7698 F10.00 
G01 X-0.5975 Y0.7713 
G01 X-0.5972 Y0.7718 
G00 Z0.1000 
G00 X-0.6004 Y0.7673 
G01 Z-0.0070 F4.00  
G01 X-0.6038 Y0.7639 F10.00 
G01 X-0.6004 Y0.7673 
G00 Z0.1000 
G00 X-0.6063 Y0.7621 
G01 Z-0.0070 F4.00  
G01 X-0.6083 Y0.7607 F10.00 
G01 X-0.6078 Y0.7610 
G01 X-0.6063 Y0.7621 
G00 Z0.1000 
G00 X-0.6110 Y0.7593 
G01 Z-0.0070 F4.00  
G01 X-0.6133 Y0.7584 F10.00 
G01 X-0.6121 Y0.7588 
G01 X-0.6110 Y0.7593 
G00 Z0.1000 
G00 X-0.6162 Y0.7575 
G01 Z-0.0070 F4.00  
G01 X-0.6186 Y0.7570 F10.00 
G01 X-0.6167 Y0.7573 
G01 X-0.6162 Y0.7575 
G00 Z0.1000 
G00 X-0.6216 Y0.7565 
G01 Z-0.0070 F4.00  
G01 X-0.6370 Y0.7565 F10.00 
G01 X-0.6216 Y0.7565 
G00 Z0.1000 
G00 X-0.6209 Y0.9565 
G01 Z-0.0070 F4.00  
G01 X-0.6791 Y0.9565 F10.00 
G01 X-0.6850 Y0.9577 
G01 X-0.6907 Y0.9600 
G01 X-0.6958 Y0.9634 
G01 X-0.7001 Y0.9677 
G01 X-0.7035 Y0.9728 
G01 X-0.7058 Y0.9785 
G01 X-0.7070 Y0.9844 
G01 X-0.7070 Y0.9906 
G01 X-0.7058 Y0.9965 
G01 X-0.7035 Y1.0022 
G01 X-0.7001 Y1.0073 
G01 X-0.6958 Y1.0116 
G01 X-0.6907 Y1.0150 
G01 X-0.6850 Y1.0173 
G01 X-0.6791 Y1.0185 
G01 X-0.6209 Y1.0185 
G01 X-0.6150 Y1.0173 
G01 X-0.6093 Y1.0150 
G01 X-0.6056 Y1.0125 
G01 X-0.5500 Y1.0125 
G01 X-0.5500 Y1.1080 
G01 X-0.6243 Y1.3060 
G01 X-0.6251 Y1.3109 
G01 X-0.6249 Y1.3158 
G01 X-0.6238 Y1.3206 
G01 X-0.6236 Y1.3209 
G01 X-0.6313 Y1.3525 
G01 X-0.6491 Y1.3525 
G01 X-0.6509 Y1.3533 
G01 X-0.6523 Y1.3547 
G01 X-0.6531 Y1.3565 
G01 X-0.6531 Y1.4185 
G01 X-0.6523 Y1.4203 
G01 X-0.6509 Y1.4217 
G01 X-0.6491 Y1.4225 
G01 X-0.5871 Y1.4225 
G01 X-0.5853 Y1.4217 
G01 X-0.5839 Y1.4203 
G01 X-0.5831 Y1.4185 
G01 X-0.5831 Y1.3565 
G01 X-0.5839 Y1.3547 
G01 X-0.5853 Y1.3533 
G01 X-0.5871 Y1.3525 
G01 X-0.5881 Y1.3525 
G01 X-0.5828 Y1.3307 
G01 X-0.5801 Y1.3278 
G01 X-0.5775 Y1.3236 
G01 X-0.5017 Y1.1217 
G01 X-0.5010 Y1.1198 
G01 X-0.5009 Y1.1194 
G01 X-0.5007 Y1.1190 
G01 X-0.5004 Y1.1170 
G01 X-0.5000 Y1.1150 
G01 X-0.5000 Y1.1145 
G01 X-0.4999 Y1.1141 
G01 X-0.5000 Y1.1121 
G01 X-0.5000 Y0.9850 
G01 X-0.5010 Y0.9802 
G01 X-0.5028 Y0.9757 
G01 X-0.5056 Y0.9716 
G01 X-0.5091 Y0.9681 
G01 X-0.5132 Y0.9653 
G01 X-0.5177 Y0.9635 
G01 X-0.5225 Y0.9625 
G01 X-0.6056 Y0.9625 
G01 X-0.6093 Y0.9600 
G01 X-0.6150 Y0.9577 
G01 X-0.6209 Y0.9565 
G00 Z0.1000 
G00 X-0.6209 Y1.0565 
G01 Z-0.0070 F4.00  
G01 X-0.6791 Y1.0565 F10.00 
G01 X-0.6850 Y1.0577 
G01 X-0.6907 Y1.0600 
G01 X-0.6958 Y1.0634 
G01 X-0.7001 Y1.0677 
G01 X-0.7035 Y1.0728 
G01 X-0.7058 Y1.0785 
G01 X-0.7070 Y1.0844 
G01 X-0.7070 Y1.0906 
G01 X-0.7058 Y1.0965 
G01 X-0.7035 Y1.1022 
G01 X-0.7001 Y1.1073 
G01 X-0.6958 Y1.1116 
G01 X-0.6907 Y1.1150 
G01 X-0.6850 Y1.1173 
G01 X-0.6791 Y1.1185 
G01 X-0.6209 Y1.1185 
G01 X-0.6150 Y1.1173 
G01 X-0.6093 Y1.1150 
G01 X-0.6042 Y1.1116 
G01 X-0.5999 Y1.1073 
G01 X-0.5965 Y1.1022 
G01 X-0.5942 Y1.0965 
G01 X-0.5930 Y1.0906 
G01 X-0.5930 Y1.0844 
G01 X-0.5942 Y1.0785 
G01 X-0.5965 Y1.0728 
G01 X-0.5999 Y1.0677 
G01 X-0.6042 Y1.0634 
G01 X-0.6093 Y1.0600 
G01 X-0.6150 Y1.0577 
G01 X-0.6209 Y1.0565 
G00 Z0.1000 
G00 X-0.6174 Y1.0545 
G01 Z-0.0070 F4.00  
G01 X-0.6053 Y1.0595 F10.00 
G01 X-0.5960 Y1.0688 
G01 X-0.5910 Y1.0809 
G01 X-0.5910 Y1.0941 
G01 X-0.5960 Y1.1062 
G01 X-0.6053 Y1.1155 
G01 X-0.6174 Y1.1205 
G01 X-0.6826 Y1.1205 
G01 X-0.6947 Y1.1155 
G01 X-0.7040 Y1.1062 
G01 X-0.7090 Y1.0941 
G01 X-0.7090 Y1.0809 
G01 X-0.7040 Y1.0688 
G01 X-0.6947 Y1.0595 
G01 X-0.6826 Y1.0545 
G01 X-0.6174 Y1.0545 
G00 Z0.1000 
G00 X-0.4040 Y1.0688 
G01 Z-0.0070 F4.00  
G01 X-0.3947 Y1.0595 F10.00 
G01 X-0.3826 Y1.0545 
G01 X-0.3174 Y1.0545 
G01 X-0.3053 Y1.0595 
G01 X-0.2960 Y1.0688 
G01 X-0.2910 Y1.0809 
G01 X-0.2910 Y1.0941 
G01 X-0.2960 Y1.1062 
G01 X-0.3053 Y1.1155 
G01 X-0.3174 Y1.1205 
G01 X-0.3826 Y1.1205 
G01 X-0.3947 Y1.1155 
G01 X-0.4040 Y1.1062 
G01 X-0.4090 Y1.0941 
G01 X-0.4090 Y1.0809 
G01 X-0.4040 Y1.0688 
G00 Z0.1000 
G00 X-0.4035 Y1.0728 
G01 Z-0.0070 F4.00  
G01 X-0.4058 Y1.0785 F10.00 
G01 X-0.4070 Y1.0844 
G01 X-0.4070 Y1.0906 
G01 X-0.4058 Y1.0965 
G01 X-0.4035 Y1.1022 
G01 X-0.4001 Y1.1073 
G01 X-0.3958 Y1.1116 
G01 X-0.3907 Y1.1150 
G01 X-0.3850 Y1.1173 
G01 X-0.3791 Y1.1185 
G01 X-0.3209 Y1.1185 
G01 X-0.3150 Y1.1173 
G01 X-0.3093 Y1.1150 
G01 X-0.3042 Y1.1116 
G01 X-0.2999 Y1.1073 
G01 X-0.2965 Y1.1022 
G01 X-0.2942 Y1.0965 
G01 X-0.2930 Y1.0906 
G01 X-0.2930 Y1.0844 
G01 X-0.2942 Y1.0785 
G01 X-0.2965 Y1.0728 
G01 X-0.2999 Y1.0677 
G01 X-0.3042 Y1.0634 
G01 X-0.3093 Y1.0600 
G01 X-0.3150 Y1.0577 
G01 X-0.3209 Y1.0565 
G01 X-0.3791 Y1.0565 
G01 X-0.3850 Y1.0577 
G01 X-0.3907 Y1.0600 
G01 X-0.3958 Y1.0634 
G01 X-0.4001 Y1.0677 
G01 X-0.4035 Y1.0728 
G00 Z0.1000 
G00 X-0.3947 Y1.0155 
G01 Z-0.0070 F4.00  
G01 X-0.4040 Y1.0062 F10.00 
G01 X-0.4090 Y0.9941 
G01 X-0.4090 Y0.9809 
G01 X-0.4040 Y0.9688 
G01 X-0.3947 Y0.9595 
G01 X-0.3826 Y0.9545 
G01 X-0.3174 Y0.9545 
G01 X-0.3053 Y0.9595 
G01 X-0.2960 Y0.9688 
G01 X-0.2910 Y0.9809 
G01 X-0.2910 Y0.9941 
G01 X-0.2960 Y1.0062 
G01 X-0.3053 Y1.0155 
G01 X-0.3174 Y1.0205 
G01 X-0.3826 Y1.0205 
G01 X-0.3947 Y1.0155 
G00 Z0.1000 
G00 X-0.3907 Y1.0150 
G01 Z-0.0070 F4.00  
G01 X-0.3850 Y1.0173 F10.00 
G01 X-0.3791 Y1.0185 
G01 X-0.3209 Y1.0185 
G01 X-0.3150 Y1.0173 
G01 X-0.3093 Y1.0150 
G01 X-0.3042 Y1.0116 
G01 X-0.2999 Y1.0073 
G01 X-0.2965 Y1.0022 
G01 X-0.2942 Y0.9965 
G01 X-0.2930 Y0.9906 
G01 X-0.2930 Y0.9844 
G01 X-0.2942 Y0.9785 
G01 X-0.2965 Y0.9728 
G01 X-0.2999 Y0.9677 
G01 X-0.3042 Y0.9634 
G01 X-0.3093 Y0.9600 
G01 X-0.3150 Y0.9577 
G01 X-0.3209 Y0.9565 
G01 X-0.3791 Y0.9565 
G01 X-0.3850 Y0.9577 
G01 X-0.3907 Y0.9600 
G01 X-0.3958 Y0.9634 
G01 X-0.4001 Y0.9677 
G01 X-0.4035 Y0.9728 
G01 X-0.4058 Y0.9785 
G01 X-0.4070 Y0.9844 
G01 X-0.4070 Y0.9906 
G01 X-0.4058 Y0.9965 
G01 X-0.4035 Y1.0022 
G01 X-0.4001 Y1.0073 
G01 X-0.3958 Y1.0116 
G01 X-0.3907 Y1.0150 
G00 Z0.1000 
G00 X-0.3907 Y0.9150 
G01 Z-0.0070 F4.00  
G01 X-0.3850 Y0.9173 F10.00 
G01 X-0.3791 Y0.9185 
G01 X-0.3209 Y0.9185 
G01 X-0.3150 Y0.9173 
G01 X-0.3093 Y0.9150 
G01 X-0.3042 Y0.9116 
G01 X-0.2999 Y0.9073 
G01 X-0.2965 Y0.9022 
G01 X-0.2942 Y0.8965 
G01 X-0.2930 Y0.8906 
G01 X-0.2930 Y0.8844 
G01 X-0.2942 Y0.8785 
G01 X-0.2965 Y0.8728 
G01 X-0.2999 Y0.8677 
G01 X-0.3042 Y0.8634 
G01 X-0.3093 Y0.8600 
G01 X-0.3150 Y0.8577 
G01 X-0.3209 Y0.8565 
G01 X-0.3791 Y0.8565 
G01 X-0.3850 Y0.8577 
G01 X-0.3907 Y0.8600 
G01 X-0.3958 Y0.8634 
G01 X-0.4001 Y0.8677 
G01 X-0.4035 Y0.8728 
G01 X-0.4058 Y0.8785 
G01 X-0.4070 Y0.8844 
G01 X-0.4070 Y0.8906 
G01 X-0.4058 Y0.8965 
G01 X-0.4035 Y0.9022 
G01 X-0.4001 Y0.9073 
G01 X-0.3958 Y0.9116 
G01 X-0.3907 Y0.9150 
G00 Z0.1000 
G00 X-0.3947 Y0.9155 
G01 Z-0.0070 F4.00  
G01 X-0.4040 Y0.9062 F10.00 
G01 X-0.4090 Y0.8941 
G01 X-0.4090 Y0.8809 
G01 X-0.4040 Y0.8688 
G01 X-0.3947 Y0.8595 
G01 X-0.3826 Y0.8545 
G01 X-0.3174 Y0.8545 
G01 X-0.3053 Y0.8595 
G01 X-0.2960 Y0.8688 
G01 X-0.2910 Y0.8809 
G01 X-0.2910 Y0.8941 
G01 X-0.2960 Y0.9062 
G01 X-0.3053 Y0.9155 
G01 X-0.3174 Y0.9205 
G01 X-0.3826 Y0.9205 
G01 X-0.3947 Y0.9155 
G00 Z0.1000 
G00 X-0.3947 Y0.8155 
G01 Z-0.0070 F4.00  
G01 X-0.4040 Y0.8062 F10.00 
G01 X-0.4090 Y0.7941 
G01 X-0.4090 Y0.7809 
G01 X-0.4040 Y0.7688 
G01 X-0.3947 Y0.7595 
G01 X-0.3826 Y0.7545 
G01 X-0.3174 Y0.7545 
G01 X-0.3053 Y0.7595 
G01 X-0.2960 Y0.7688 
G01 X-0.2910 Y0.7809 
G01 X-0.2910 Y0.7941 
G01 X-0.2960 Y0.8062 
G01 X-0.3053 Y0.8155 
G01 X-0.3174 Y0.8205 
G01 X-0.3826 Y0.8205 
G01 X-0.3947 Y0.8155 
G00 Z0.1000 
G00 X-0.3907 Y0.8150 
G01 Z-0.0070 F4.00  
G01 X-0.3850 Y0.8173 F10.00 
G01 X-0.3791 Y0.8185 
G01 X-0.3209 Y0.8185 
G01 X-0.3150 Y0.8173 
G01 X-0.3093 Y0.8150 
G01 X-0.3042 Y0.8116 
G01 X-0.2999 Y0.8073 
G01 X-0.2965 Y0.8022 
G01 X-0.2942 Y0.7965 
G01 X-0.2930 Y0.7906 
G01 X-0.2930 Y0.7844 
G01 X-0.2942 Y0.7785 
G01 X-0.2965 Y0.7728 
G01 X-0.2999 Y0.7677 
G01 X-0.3042 Y0.7634 
G01 X-0.3093 Y0.7600 
G01 X-0.3150 Y0.7577 
G01 X-0.3209 Y0.7565 
G01 X-0.3791 Y0.7565 
G01 X-0.3850 Y0.7577 
G01 X-0.3907 Y0.7600 
G01 X-0.3958 Y0.7634 
G01 X-0.4001 Y0.7677 
G01 X-0.4035 Y0.7728 
G01 X-0.4058 Y0.7785 
G01 X-0.4070 Y0.7844 
G01 X-0.4070 Y0.7906 
G01 X-0.4058 Y0.7965 
G01 X-0.4035 Y0.8022 
G01 X-0.4001 Y0.8073 
G01 X-0.3958 Y0.8116 
G01 X-0.3907 Y0.8150 
G00 Z0.1000 
G00 X-0.3907 Y0.7150 
G01 Z-0.0070 F4.00  
G01 X-0.3850 Y0.7173 F10.00 
G01 X-0.3791 Y0.7185 
G01 X-0.3209 Y0.7185 
G01 X-0.3150 Y0.7173 
G01 X-0.3093 Y0.7150 
G01 X-0.3042 Y0.7116 
G01 X-0.2999 Y0.7073 
G01 X-0.2965 Y0.7022 
G01 X-0.2942 Y0.6965 
G01 X-0.2930 Y0.6906 
G01 X-0.2930 Y0.6844 
G01 X-0.2942 Y0.6785 
G01 X-0.2965 Y0.6728 
G01 X-0.2999 Y0.6677 
G01 X-0.3042 Y0.6634 
G01 X-0.3093 Y0.6600 
G01 X-0.3150 Y0.6577 
G01 X-0.3209 Y0.6565 
G01 X-0.3791 Y0.6565 
G01 X-0.3850 Y0.6577 
G01 X-0.3907 Y0.6600 
G01 X-0.3958 Y0.6634 
G01 X-0.4001 Y0.6677 
G01 X-0.4035 Y0.6728 
G01 X-0.4058 Y0.6785 
G01 X-0.4070 Y0.6844 
G01 X-0.4070 Y0.6906 
G01 X-0.4058 Y0.6965 
G01 X-0.4035 Y0.7022 
G01 X-0.4001 Y0.7073 
G01 X-0.3958 Y0.7116 
G01 X-0.3907 Y0.7150 
G00 Z0.1000 
G00 X-0.3947 Y0.7155 
G01 Z-0.0070 F4.00  
G01 X-0.4040 Y0.7062 F10.00 
G01 X-0.4090 Y0.6941 
G01 X-0.4090 Y0.6809 
G01 X-0.4040 Y0.6688 
G01 X-0.3947 Y0.6595 
G01 X-0.3826 Y0.6545 
G01 X-0.3174 Y0.6545 
G01 X-0.3053 Y0.6595 
G01 X-0.2960 Y0.6688 
G01 X-0.2910 Y0.6809 
G01 X-0.2910 Y0.6941 
G01 X-0.2960 Y0.7062 
G01 X-0.3053 Y0.7155 
G01 X-0.3174 Y0.7205 
G01 X-0.3826 Y0.7205 
G01 X-0.3947 Y0.7155 
G00 Z0.1000 
G00 X-0.3947 Y0.6155 
G01 Z-0.0070 F4.00  
G01 X-0.4040 Y0.6062 F10.00 
G01 X-0.4090 Y0.5941 
G01 X-0.4090 Y0.5809 
G01 X-0.4040 Y0.5688 
G01 X-0.3947 Y0.5595 
G01 X-0.3826 Y0.5545 
G01 X-0.3174 Y0.5545 
G01 X-0.3053 Y0.5595 
G01 X-0.2960 Y0.5688 
G01 X-0.2910 Y0.5809 
G01 X-0.2910 Y0.5941 
G01 X-0.2960 Y0.6062 
G01 X-0.3053 Y0.6155 
G01 X-0.3174 Y0.6205 
G01 X-0.3826 Y0.6205 
G01 X-0.3947 Y0.6155 
G00 Z0.1000 
G00 X-0.3907 Y0.6150 
G01 Z-0.0070 F4.00  
G01 X-0.3850 Y0.6173 F10.00 
G01 X-0.3791 Y0.6185 
G01 X-0.3209 Y0.6185 
G01 X-0.3150 Y0.6173 
G01 X-0.3093 Y0.6150 
G01 X-0.3042 Y0.6116 
G01 X-0.2999 Y0.6073 
G01 X-0.2965 Y0.6022 
G01 X-0.2942 Y0.5965 
G01 X-0.2930 Y0.5906 
G01 X-0.2930 Y0.5844 
G01 X-0.2942 Y0.5785 
G01 X-0.2965 Y0.5728 
G01 X-0.2999 Y0.5677 
G01 X-0.3042 Y0.5634 
G01 X-0.3093 Y0.5600 
G01 X-0.3150 Y0.5577 
G01 X-0.3209 Y0.5565 
G01 X-0.3791 Y0.5565 
G01 X-0.3850 Y0.5577 
G01 X-0.3907 Y0.5600 
G01 X-0.3958 Y0.5634 
G01 X-0.4001 Y0.5677 
G01 X-0.4035 Y0.5728 
G01 X-0.4058 Y0.5785 
G01 X-0.4070 Y0.5844 
G01 X-0.4070 Y0.5906 
G01 X-0.4058 Y0.5965 
G01 X-0.4035 Y0.6022 
G01 X-0.4001 Y0.6073 
G01 X-0.3958 Y0.6116 
G01 X-0.3907 Y0.6150 
G00 Z0.1000 
G00 X-0.3890 Y0.5157 
G01 Z-0.0070 F4.00  
G01 X-0.3867 Y0.5166 F10.00 
G01 X-0.3879 Y0.5162 
G01 X-0.3890 Y0.5157 
G00 Z0.1000 
G00 X-0.3917 Y0.5143 
G01 Z-0.0070 F4.00  
G01 X-0.3922 Y0.5140 F10.00 
G01 X-0.3937 Y0.5129 
G01 X-0.3917 Y0.5143 
G00 Z0.1000 
G00 X-0.3962 Y0.5111 
G01 Z-0.0070 F4.00  
G01 X-0.3962 Y0.5111 F10.00 
G01 X-0.3996 Y0.5077 
G01 X-0.3962 Y0.5111 
G00 Z0.1000 
G00 X-0.4014 Y0.5052 
G01 Z-0.0070 F4.00  
G01 X-0.4025 Y0.5037 F10.00 
G01 X-0.4028 Y0.5032 
G01 X-0.4014 Y0.5052 
G00 Z0.1000 
G00 X-0.3838 Y0.5175 
G01 Z-0.0070 F4.00  
G01 X-0.3814 Y0.5180 F10.00 
G01 X-0.3833 Y0.5177 
G01 X-0.3838 Y0.5175 
G00 Z0.1000 
G00 X-0.3784 Y0.5185 
G01 Z-0.0070 F4.00  
G01 X-0.3630 Y0.5185 F10.00 
G01 X-0.3784 Y0.5185 
G00 Z0.1000 
G00 X-0.3370 Y0.5185 
G01 Z-0.0070 F4.00  
G01 X-0.3216 Y0.5185 F10.00 
G01 X-0.3370 Y0.5185 
G00 Z0.1000 
G00 X-0.3186 Y0.5180 
G01 Z-0.0070 F4.00  
G01 X-0.3162 Y0.5175 F10.00 
G01 X-0.3167 Y0.5177 
G01 X-0.3186 Y0.5180 
G00 Z0.1000 
G00 X-0.3133 Y0.5166 
G01 Z-0.0070 F4.00  
G01 X-0.3110 Y0.5157 F10.00 
G01 X-0.3121 Y0.5162 
G01 X-0.3133 Y0.5166 
G00 Z0.1000 
G00 X-0.3083 Y0.5143 
G01 Z-0.0070 F4.00  
G01 X-0.3063 Y0.5129 F10.00 
G01 X-0.3078 Y0.5140 
G01 X-0.3083 Y0.5143 
G00 Z0.1000 
G00 X-0.3038 Y0.5111 
G01 Z-0.0070 F4.00  
G01 X-0.3004 Y0.5077 F10.00 
G01 X-0.3038 Y0.5111 
G00 Z0.1000 
G00 X-0.2986 Y0.5052 
G01 Z-0.0070 F4.00  
G01 X-0.2972 Y0.5032 F10.00 
G01 X-0.2975 Y0.5037 
G01 X-0.2986 Y0.5052 
G00 Z0.1000 
G00 X-0.2972 Y0.4718 
G01 Z-0.0070 F4.00  
G01 X-0.2986 Y0.4698 F10.00 
G01 X-0.2975 Y0.4713 
G01 X-0.2972 Y0.4718 
G00 Z0.1000 
G00 X-0.3004 Y0.4673 
G01 Z-0.0070 F4.00  
G01 X-0.3038 Y0.4639 F10.00 
G01 X-0.3004 Y0.4673 
G00 Z0.1000 
G00 X-0.3063 Y0.4621 
G01 Z-0.0070 F4.00  
G01 X-0.3083 Y0.4607 F10.00 
G01 X-0.3078 Y0.4610 
G01 X-0.3063 Y0.4621 
G00 Z0.1000 
G00 X-0.3110 Y0.4593 
G01 Z-0.0070 F4.00  
G01 X-0.3133 Y0.4584 F10.00 
G01 X-0.3121 Y0.4588 
G01 X-0.3110 Y0.4593 
G00 Z0.1000 
G00 X-0.3162 Y0.4575 
G01 Z-0.0070 F4.00  
G01 X-0.3186 Y0.4570 F10.00 
G01 X-0.3167 Y0.4573 
G01 X-0.3162 Y0.4575 
G00 Z0.1000 
G00 X-0.3216 Y0.4565 
G01 Z-0.0070 F4.00  
G01 X-0.3370 Y0.4565 F10.00 
G01 X-0.3216 Y0.4565 
G00 Z0.1000 
G00 X-0.3630 Y0.4565 
G01 Z-0.0070 F4.00  
G01 X-0.3784 Y0.4565 F10.00 
G01 X-0.3630 Y0.4565 
G00 Z0.1000 
G00 X-0.3814 Y0.4570 
G01 Z-0.0070 F4.00  
G01 X-0.3838 Y0.4575 F10.00 
G01 X-0.3833 Y0.4573 
G01 X-0.3814 Y0.4570 
G00 Z0.1000 
G00 X-0.3867 Y0.4584 
G01 Z-0.0070 F4.00  
G01 X-0.3890 Y0.4593 F10.00 
G01 X-0.3879 Y0.4588 
G01 X-0.3867 Y0.4584 
G00 Z0.1000 
G00 X-0.3917 Y0.4607 
G01 Z-0.0070 F4.00  
G01 X-0.3937 Y0.4621 F10.00 
G01 X-0.3922 Y0.4610 
G01 X-0.3917 Y0.4607 
G00 Z0.1000 
G00 X-0.3962 Y0.4639 
G01 Z-0.0070 F4.00  
G01 X-0.3996 Y0.4673 F10.00 
G01 X-0.3962 Y0.4639 
G00 Z0.1000 
G00 X-0.4014 Y0.4698 
G01 Z-0.0070 F4.00  
G01 X-0.4028 Y0.4718 F10.00 
G01 X-0.4025 Y0.4713 
G01 X-0.4014 Y0.4698 
G00 Z0.1000 
G00 X-0.0995 Y0.4818 
G01 Z-0.0070 F4.00  
G01 X-0.0994 Y0.4818 F10.00 
G01 X-0.0987 Y0.4835 
G01 X-0.0994 Y0.4822 
G01 X-0.0995 Y0.4818 
G00 Z0.1000 
G00 X-0.0972 Y0.4865 
G01 Z-0.0070 F4.00  
G01 X-0.0956 Y0.4888 F10.00 
G01 X-0.0969 Y0.4871 
G01 X-0.0972 Y0.4865 
G00 Z0.1000 
G00 X-0.0936 Y0.4916 
G01 Z-0.0070 F4.00  
G01 X-0.0897 Y0.4955 F10.00 
G01 X-0.0936 Y0.4916 
G00 Z0.1000 
G00 X-0.0892 Y0.5204 
G01 Z-0.0070 F4.00  
G01 X-0.0941 Y0.5252 F10.00 
G01 X-0.0979 Y0.5310 
G01 X-0.1006 Y0.5373 
G01 X-0.1019 Y0.5441 
G01 X-0.1019 Y0.5510 
G01 X-0.1006 Y0.5577 
G01 X-0.0979 Y0.5641 
G01 X-0.0941 Y0.5699 
G01 X-0.0892 Y0.5747 
G01 X-0.0835 Y0.5786 
G01 X-0.0771 Y0.5812 
G01 X-0.0704 Y0.5825 
G01 X-0.0635 Y0.5825 
G01 X-0.0567 Y0.5812 
G01 X-0.0504 Y0.5786 
G01 X-0.0446 Y0.5747 
G01 X-0.0397 Y0.5699 
G01 X-0.0359 Y0.5641 
G01 X-0.0333 Y0.5577 
G01 X-0.0319 Y0.5510 
G01 X-0.0319 Y0.5441 
G01 X-0.0333 Y0.5373 
G01 X-0.0359 Y0.5310 
G01 X-0.0397 Y0.5252 
G01 X-0.0446 Y0.5204 
G01 X-0.0504 Y0.5165 
G01 X-0.0567 Y0.5139 
G01 X-0.0635 Y0.5125 
G01 X-0.0704 Y0.5125 
G01 X-0.0771 Y0.5139 
G01 X-0.0835 Y0.5165 
G01 X-0.0892 Y0.5204 
G00 Z0.1000 
G00 X-0.0994 Y0.4558 
G01 Z-0.0070 F4.00  
G01 X-0.0995 Y0.4558 F10.00 
G01 X-0.0994 Y0.4554 
G01 X-0.0987 Y0.4541 
G01 X-0.0994 Y0.4558 
G00 Z0.1000 
G00 X-0.0972 Y0.4511 
G01 Z-0.0070 F4.00  
G01 X-0.0969 Y0.4505 F10.00 
G01 X-0.0956 Y0.4488 
G01 X-0.0972 Y0.4511 
G00 Z0.1000 
G00 X-0.0936 Y0.4460 
G01 Z-0.0070 F4.00  
G01 X-0.0936 Y0.4460 F10.00 
G01 X-0.0897 Y0.4421 
G01 X-0.0936 Y0.4460 
G00 Z0.1000 
G00 X-0.0869 Y0.4401 
G01 Z-0.0070 F4.00  
G01 X-0.0853 Y0.4389 F10.00 
G01 X-0.0847 Y0.4386 
G01 X-0.0869 Y0.4401 
G00 Z0.1000 
G00 X-0.0816 Y0.4370 
G01 Z-0.0070 F4.00  
G01 X-0.0804 Y0.4364 F10.00 
G01 X-0.0799 Y0.4362 
G01 X-0.0816 Y0.4370 
G00 Z0.1000 
G00 X-0.0539 Y0.4363 
G01 Z-0.0070 F4.00  
G01 X-0.0539 Y0.4362 F10.00 
G01 X-0.0535 Y0.4364 
G01 X-0.0523 Y0.4370 
G01 X-0.0539 Y0.4363 
G00 Z0.1000 
G00 X-0.0492 Y0.4385 
G01 Z-0.0070 F4.00  
G01 X-0.0486 Y0.4389 F10.00 
G01 X-0.0469 Y0.4401 
G01 X-0.0492 Y0.4385 
G00 Z0.1000 
G00 X-0.0441 Y0.4421 
G01 Z-0.0070 F4.00  
G01 X-0.0441 Y0.4421 F10.00 
G01 X-0.0402 Y0.4460 
G01 X-0.0441 Y0.4421 
G00 Z0.1000 
G00 X-0.0382 Y0.4488 
G01 Z-0.0070 F4.00  
G01 X-0.0370 Y0.4505 F10.00 
G01 X-0.0367 Y0.4511 
G01 X-0.0382 Y0.4488 
G00 Z0.1000 
G00 X-0.0351 Y0.4541 
G01 Z-0.0070 F4.00  
G01 X-0.0345 Y0.4554 F10.00 
G01 X-0.0341 Y0.4567 
G01 X-0.0351 Y0.4541 
G00 Z0.1000 
G00 X-0.0330 Y0.4599 
G01 Z-0.0070 F4.00  
G01 X-0.0330 Y0.4600 F10.00 
G00 Z0.1000 
G00 X-0.0397 Y0.6040 
G01 Z-0.0070 F4.00  
G01 X-0.0446 Y0.5991 F10.00 
G01 X-0.0504 Y0.5953 
G01 X-0.0567 Y0.5926 
G01 X-0.0635 Y0.5913 
G01 X-0.0704 Y0.5913 
G01 X-0.0771 Y0.5926 
G01 X-0.0835 Y0.5953 
G01 X-0.0892 Y0.5991 
G01 X-0.0941 Y0.6040 
G01 X-0.0979 Y0.6097 
G01 X-0.1006 Y0.6161 
G01 X-0.1019 Y0.6228 
G01 X-0.1019 Y0.6297 
G01 X-0.1006 Y0.6365 
G01 X-0.0979 Y0.6429 
G01 X-0.0941 Y0.6486 
G01 X-0.0892 Y0.6535 
G01 X-0.0835 Y0.6573 
G01 X-0.0771 Y0.6599 
G01 X-0.0704 Y0.6613 
G01 X-0.0635 Y0.6613 
G01 X-0.0567 Y0.6599 
G01 X-0.0504 Y0.6573 
G01 X-0.0446 Y0.6535 
G01 X-0.0397 Y0.6486 
G01 X-0.0359 Y0.6429 
G01 X-0.0333 Y0.6365 
G01 X-0.0319 Y0.6297 
G01 X-0.0319 Y0.6228 
G01 X-0.0333 Y0.6161 
G01 X-0.0359 Y0.6097 
G01 X-0.0397 Y0.6040 
G00 Z0.1000 
G00 X-0.0397 Y0.6827 
G01 Z-0.0070 F4.00  
G01 X-0.0446 Y0.6778 F10.00 
G01 X-0.0504 Y0.6740 
G01 X-0.0567 Y0.6714 
G01 X-0.0635 Y0.6700 
G01 X-0.0704 Y0.6700 
G01 X-0.0771 Y0.6714 
G01 X-0.0835 Y0.6740 
G01 X-0.0892 Y0.6778 
G01 X-0.0941 Y0.6827 
G01 X-0.0979 Y0.6884 
G01 X-0.1006 Y0.6948 
G01 X-0.1019 Y0.7016 
G01 X-0.1019 Y0.7085 
G01 X-0.1006 Y0.7152 
G01 X-0.0979 Y0.7216 
G01 X-0.0941 Y0.7273 
G01 X-0.0892 Y0.7322 
G01 X-0.0835 Y0.7360 
G01 X-0.0771 Y0.7387 
G01 X-0.0704 Y0.7400 
G01 X-0.0635 Y0.7400 
G01 X-0.0567 Y0.7387 
G01 X-0.0504 Y0.7360 
G01 X-0.0446 Y0.7322 
G01 X-0.0397 Y0.7273 
G01 X-0.0359 Y0.7216 
G01 X-0.0333 Y0.7152 
G01 X-0.0319 Y0.7085 
G01 X-0.0319 Y0.7016 
G01 X-0.0333 Y0.6948 
G01 X-0.0359 Y0.6884 
G01 X-0.0397 Y0.6827 
G00 Z0.1000 
G00 X-0.0397 Y0.7614 
G01 Z-0.0070 F4.00  
G01 X-0.0446 Y0.7566 F10.00 
G01 X-0.0504 Y0.7527 
G01 X-0.0567 Y0.7501 
G01 X-0.0635 Y0.7488 
G01 X-0.0704 Y0.7488 
G01 X-0.0771 Y0.7501 
G01 X-0.0835 Y0.7527 
G01 X-0.0892 Y0.7566 
G01 X-0.0941 Y0.7614 
G01 X-0.0979 Y0.7672 
G01 X-0.1006 Y0.7736 
G01 X-0.1019 Y0.7803 
G01 X-0.1019 Y0.7872 
G01 X-0.1006 Y0.7940 
G01 X-0.0979 Y0.8003 
G01 X-0.0941 Y0.8061 
G01 X-0.0892 Y0.8109 
G01 X-0.0835 Y0.8148 
G01 X-0.0771 Y0.8174 
G01 X-0.0704 Y0.8188 
G01 X-0.0635 Y0.8188 
G01 X-0.0567 Y0.8174 
G01 X-0.0504 Y0.8148 
G01 X-0.0446 Y0.8109 
G01 X-0.0397 Y0.8061 
G01 X-0.0359 Y0.8003 
G01 X-0.0333 Y0.7940 
G01 X-0.0319 Y0.7872 
G01 X-0.0319 Y0.7803 
G01 X-0.0333 Y0.7736 
G01 X-0.0359 Y0.7672 
G01 X-0.0397 Y0.7614 
G00 Z0.1000 
G00 X-0.0397 Y0.8402 
G01 Z-0.0070 F4.00  
G01 X-0.0446 Y0.8353 F10.00 
G01 X-0.0504 Y0.8315 
G01 X-0.0567 Y0.8288 
G01 X-0.0635 Y0.8275 
G01 X-0.0704 Y0.8275 
G01 X-0.0771 Y0.8288 
G01 X-0.0835 Y0.8315 
G01 X-0.0892 Y0.8353 
G01 X-0.0941 Y0.8402 
G01 X-0.0979 Y0.8459 
G01 X-0.1006 Y0.8523 
G01 X-0.1019 Y0.8591 
G01 X-0.1019 Y0.8659 
G01 X-0.1006 Y0.8727 
G01 X-0.0979 Y0.8791 
G01 X-0.0941 Y0.8848 
G01 X-0.0892 Y0.8897 
G01 X-0.0835 Y0.8935 
G01 X-0.0771 Y0.8962 
G01 X-0.0704 Y0.8975 
G01 X-0.0635 Y0.8975 
G01 X-0.0567 Y0.8962 
G01 X-0.0504 Y0.8935 
G01 X-0.0446 Y0.8897 
G01 X-0.0397 Y0.8848 
G01 X-0.0359 Y0.8791 
G01 X-0.0333 Y0.8727 
G01 X-0.0319 Y0.8659 
G01 X-0.0319 Y0.8591 
G01 X-0.0333 Y0.8523 
G01 X-0.0359 Y0.8459 
G01 X-0.0397 Y0.8402 
G00 Z0.1000 
G00 X-0.0397 Y0.9189 
G01 Z-0.0070 F4.00  
G01 X-0.0446 Y0.9141 F10.00 
G01 X-0.0504 Y0.9102 
G01 X-0.0567 Y0.9076 
G01 X-0.0635 Y0.9062 
G01 X-0.0704 Y0.9062 
G01 X-0.0771 Y0.9076 
G01 X-0.0835 Y0.9102 
G01 X-0.0892 Y0.9141 
G01 X-0.0941 Y0.9189 
G01 X-0.0979 Y0.9247 
G01 X-0.1006 Y0.9310 
G01 X-0.1019 Y0.9378 
G01 X-0.1019 Y0.9447 
G01 X-0.1006 Y0.9514 
G01 X-0.0979 Y0.9578 
G01 X-0.0941 Y0.9636 
G01 X-0.0892 Y0.9684 
G01 X-0.0835 Y0.9723 
G01 X-0.0771 Y0.9749 
G01 X-0.0704 Y0.9762 
G01 X-0.0635 Y0.9762 
G01 X-0.0567 Y0.9749 
G01 X-0.0504 Y0.9723 
G01 X-0.0446 Y0.9684 
G01 X-0.0397 Y0.9636 
G01 X-0.0359 Y0.9578 
G01 X-0.0333 Y0.9514 
G01 X-0.0319 Y0.9447 
G01 X-0.0319 Y0.9378 
G01 X-0.0333 Y0.9310 
G01 X-0.0359 Y0.9247 
G01 X-0.0397 Y0.9189 
G00 Z0.1000 
G00 X-0.0397 Y0.9977 
G01 Z-0.0070 F4.00  
G01 X-0.0446 Y0.9928 F10.00 
G01 X-0.0504 Y0.9890 
G01 X-0.0567 Y0.9863 
G01 X-0.0635 Y0.9850 
G01 X-0.0704 Y0.9850 
G01 X-0.0771 Y0.9863 
G01 X-0.0835 Y0.9890 
G01 X-0.0892 Y0.9928 
G01 X-0.0941 Y0.9977 
G01 X-0.0979 Y1.0034 
G01 X-0.1006 Y1.0098 
G01 X-0.1019 Y1.0165 
G01 X-0.1019 Y1.0234 
G01 X-0.1006 Y1.0302 
G01 X-0.0979 Y1.0366 
G01 X-0.0941 Y1.0423 
G01 X-0.0892 Y1.0472 
G01 X-0.0835 Y1.0510 
G01 X-0.0771 Y1.0536 
G01 X-0.0704 Y1.0550 
G01 X-0.0635 Y1.0550 
G01 X-0.0567 Y1.0536 
G01 X-0.0504 Y1.0510 
G01 X-0.0446 Y1.0472 
G01 X-0.0397 Y1.0423 
G01 X-0.0359 Y1.0366 
G01 X-0.0333 Y1.0302 
G01 X-0.0319 Y1.0234 
G01 X-0.0319 Y1.0165 
G01 X-0.0333 Y1.0098 
G01 X-0.0359 Y1.0034 
G01 X-0.0397 Y0.9977 
G00 Z0.1000 
G00 X-0.0397 Y1.0764 
G01 Z-0.0070 F4.00  
G01 X-0.0446 Y1.0715 F10.00 
G01 X-0.0504 Y1.0677 
G01 X-0.0567 Y1.0651 
G01 X-0.0635 Y1.0637 
G01 X-0.0704 Y1.0637 
G01 X-0.0771 Y1.0651 
G01 X-0.0835 Y1.0677 
G01 X-0.0892 Y1.0715 
G01 X-0.0941 Y1.0764 
G01 X-0.0979 Y1.0821 
G01 X-0.1006 Y1.0885 
G01 X-0.1019 Y1.0953 
G01 X-0.1019 Y1.1022 
G01 X-0.1006 Y1.1089 
G01 X-0.0979 Y1.1153 
G01 X-0.0941 Y1.1210 
G01 X-0.0892 Y1.1259 
G01 X-0.0835 Y1.1297 
G01 X-0.0771 Y1.1324 
G01 X-0.0704 Y1.1337 
G01 X-0.0635 Y1.1337 
G01 X-0.0567 Y1.1324 
G01 X-0.0504 Y1.1297 
G01 X-0.0446 Y1.1259 
G01 X-0.0397 Y1.1210 
G01 X-0.0359 Y1.1153 
G01 X-0.0333 Y1.1089 
G01 X-0.0319 Y1.1022 
G01 X-0.0319 Y1.0953 
G01 X-0.0333 Y1.0885 
G01 X-0.0359 Y1.0821 
G01 X-0.0397 Y1.0764 
G00 Z0.1000 
G00 X-0.4334 Y1.3652 
G01 Z-0.0070 F4.00  
G01 X-0.4383 Y1.3603 F10.00 
G01 X-0.4441 Y1.3565 
G01 X-0.4504 Y1.3538 
G01 X-0.4572 Y1.3525 
G01 X-0.4641 Y1.3525 
G01 X-0.4708 Y1.3538 
G01 X-0.4772 Y1.3565 
G01 X-0.4829 Y1.3603 
G01 X-0.4878 Y1.3652 
G01 X-0.4916 Y1.3709 
G01 X-0.4943 Y1.3773 
G01 X-0.4956 Y1.3841 
G01 X-0.4956 Y1.3909 
G01 X-0.4943 Y1.3977 
G01 X-0.4916 Y1.4041 
G01 X-0.4878 Y1.4098 
G01 X-0.4829 Y1.4147 
G01 X-0.4772 Y1.4185 
G01 X-0.4708 Y1.4212 
G01 X-0.4641 Y1.4225 
G01 X-0.4572 Y1.4225 
G01 X-0.4504 Y1.4212 
G01 X-0.4441 Y1.4185 
G01 X-0.4383 Y1.4147 
G01 X-0.4334 Y1.4098 
G01 X-0.4296 Y1.4041 
G01 X-0.4270 Y1.3977 
G01 X-0.4256 Y1.3909 
G01 X-0.4256 Y1.3841 
G01 X-0.4270 Y1.3773 
G01 X-0.4296 Y1.3709 
G01 X-0.4334 Y1.3652 
G00 Z0.1000 
G00 X-0.5122 Y1.3652 
G01 Z-0.0070 F4.00  
G01 X-0.5171 Y1.3603 F10.00 
G01 X-0.5228 Y1.3565 
G01 X-0.5292 Y1.3538 
G01 X-0.5359 Y1.3525 
G01 X-0.5428 Y1.3525 
G01 X-0.5496 Y1.3538 
G01 X-0.5559 Y1.3565 
G01 X-0.5617 Y1.3603 
G01 X-0.5666 Y1.3652 
G01 X-0.5704 Y1.3709 
G01 X-0.5730 Y1.3773 
G01 X-0.5744 Y1.3841 
G01 X-0.5744 Y1.3909 
G01 X-0.5730 Y1.3977 
G01 X-0.5704 Y1.4041 
G01 X-0.5666 Y1.4098 
G01 X-0.5617 Y1.4147 
G01 X-0.5559 Y1.4185 
G01 X-0.5496 Y1.4212 
G01 X-0.5428 Y1.4225 
G01 X-0.5359 Y1.4225 
G01 X-0.5292 Y1.4212 
G01 X-0.5228 Y1.4185 
G01 X-0.5171 Y1.4147 
G01 X-0.5122 Y1.4098 
G01 X-0.5084 Y1.4041 
G01 X-0.5057 Y1.3977 
G01 X-0.5044 Y1.3909 
G01 X-0.5044 Y1.3841 
G01 X-0.5057 Y1.3773 
G01 X-0.5084 Y1.3709 
G01 X-0.5122 Y1.3652 
G00 Z0.1000 
G00 X-0.5190 Y1.5476 
G01 Z-0.0070 F4.00  
G01 X-0.5214 Y1.5493 F10.00 
G01 X-0.5196 Y1.5480 
G01 X-0.5190 Y1.5476 
G00 Z0.1000 
G00 X-0.5244 Y1.5514 
G01 Z-0.0070 F4.00  
G01 X-0.5286 Y1.5556 F10.00 
G01 X-0.5244 Y1.5514 
G00 Z0.1000 
G00 X-0.5308 Y1.5586 
G01 Z-0.0070 F4.00  
G01 X-0.5324 Y1.5610 F10.00 
G01 X-0.5321 Y1.5604 
G01 X-0.5308 Y1.5586 
G00 Z0.1000 
G00 X-0.5341 Y1.5643 
G01 Z-0.0070 F4.00  
G01 X-0.5352 Y1.5670 F10.00 
G01 X-0.5347 Y1.5656 
G01 X-0.5341 Y1.5643 
G00 Z0.1000 
G00 X-0.5364 Y1.5708 
G01 Z-0.0070 F4.00  
G01 X-0.5375 Y1.5763 F10.00 
G01 X-0.5375 Y1.6487 
G01 X-0.5364 Y1.6542 
G01 X-0.5365 Y1.6538 
G01 X-0.5369 Y1.6527 
G01 X-0.5372 Y1.6523 
G01 X-0.5374 Y1.6518 
G01 X-0.5381 Y1.6508 
G01 X-0.5388 Y1.6498 
G01 X-0.5391 Y1.6495 
G01 X-0.5395 Y1.6491 
G01 X-0.5404 Y1.6483 
G01 X-0.5413 Y1.6475 
G01 X-0.5418 Y1.6473 
G01 X-0.5422 Y1.6470 
G01 X-0.5433 Y1.6465 
G01 X-0.5444 Y1.6460 
G01 X-0.5449 Y1.6459 
G01 X-0.5453 Y1.6457 
G01 X-0.5465 Y1.6455 
G01 X-0.5477 Y1.6453 
G01 X-0.5482 Y1.6453 
G01 X-0.5487 Y1.6452 
G01 X-0.5499 Y1.6454 
G01 X-0.5511 Y1.6455 
G01 X-0.5516 Y1.6456 
G01 X-0.5521 Y1.6457 
G01 X-0.5532 Y1.6461 
G01 X-0.5544 Y1.6465 
G01 X-0.5548 Y1.6468 
G01 X-0.5553 Y1.6470 
G01 X-0.5562 Y1.6477 
G01 X-0.5572 Y1.6484 
G01 X-0.5576 Y1.6488 
G01 X-0.5580 Y1.6491 
G01 X-0.5587 Y1.6500 
G01 X-0.5595 Y1.6509 
G01 X-0.5598 Y1.6514 
G01 X-0.5601 Y1.6518 
G01 X-0.5605 Y1.6529 
G01 X-0.5611 Y1.6540 
G01 X-0.5612 Y1.6545 
G01 X-0.5665 Y1.6673 
G01 X-0.5776 Y1.6785 
G01 X-0.5921 Y1.6845 
G01 X-0.6079 Y1.6845 
G01 X-0.6224 Y1.6785 
G01 X-0.6335 Y1.6673 
G01 X-0.6395 Y1.6528 
G01 X-0.6395 Y1.5722 
G01 X-0.6335 Y1.5577 
G01 X-0.6224 Y1.5465 
G01 X-0.6079 Y1.5405 
G01 X-0.5921 Y1.5405 
G01 X-0.5776 Y1.5465 
G01 X-0.5665 Y1.5577 
G01 X-0.5612 Y1.5705 
G01 X-0.5611 Y1.5710 
G01 X-0.5605 Y1.5721 
G01 X-0.5601 Y1.5732 
G01 X-0.5598 Y1.5736 
G01 X-0.5595 Y1.5741 
G01 X-0.5587 Y1.5750 
G01 X-0.5580 Y1.5759 
G01 X-0.5576 Y1.5762 
G01 X-0.5572 Y1.5766 
G01 X-0.5562 Y1.5773 
G01 X-0.5553 Y1.5780 
G01 X-0.5548 Y1.5782 
G01 X-0.5544 Y1.5785 
G01 X-0.5532 Y1.5789 
G01 X-0.5521 Y1.5793 
G01 X-0.5516 Y1.5794 
G01 X-0.5511 Y1.5795 
G01 X-0.5499 Y1.5796 
G01 X-0.5487 Y1.5798 
G01 X-0.5482 Y1.5797 
G01 X-0.5477 Y1.5797 
G01 X-0.5465 Y1.5795 
G01 X-0.5453 Y1.5793 
G01 X-0.5449 Y1.5791 
G01 X-0.5444 Y1.5790 
G01 X-0.5433 Y1.5785 
G01 X-0.5422 Y1.5780 
G01 X-0.5418 Y1.5777 
G01 X-0.5413 Y1.5775 
G01 X-0.5404 Y1.5767 
G01 X-0.5395 Y1.5759 
G01 X-0.5391 Y1.5755 
G01 X-0.5388 Y1.5752 
G01 X-0.5381 Y1.5742 
G01 X-0.5374 Y1.5732 
G01 X-0.5372 Y1.5727 
G01 X-0.5369 Y1.5723 
G01 X-0.5365 Y1.5712 
G01 X-0.5364 Y1.5708 
G00 Z0.1000 
G00 X-0.5640 Y1.5691 
G01 Z-0.0070 F4.00  
G01 X-0.5668 Y1.5623 F10.00 
G01 X-0.5709 Y1.5561 
G01 X-0.5761 Y1.5509 
G01 X-0.5822 Y1.5468 
G01 X-0.5891 Y1.5440 
G01 X-0.5963 Y1.5425 
G01 X-0.6037 Y1.5425 
G01 X-0.6109 Y1.5440 
G01 X-0.6178 Y1.5468 
G01 X-0.6239 Y1.5509 
G01 X-0.6291 Y1.5561 
G01 X-0.6332 Y1.5623 
G01 X-0.6360 Y1.5691 
G01 X-0.6375 Y1.5763 
G01 X-0.6375 Y1.6487 
G01 X-0.6360 Y1.6559 
G01 X-0.6332 Y1.6627 
G01 X-0.6291 Y1.6689 
G01 X-0.6239 Y1.6741 
G01 X-0.6178 Y1.6782 
G01 X-0.6109 Y1.6810 
G01 X-0.6037 Y1.6825 
G01 X-0.5963 Y1.6825 
G01 X-0.5891 Y1.6810 
G01 X-0.5822 Y1.6782 
G01 X-0.5761 Y1.6741 
G01 X-0.5709 Y1.6689 
G01 X-0.5668 Y1.6627 
G01 X-0.5640 Y1.6559 
G01 X-0.5625 Y1.6487 
G01 X-0.5625 Y1.5763 
G01 X-0.5640 Y1.5691 
G00 Z0.1000 
G00 X-0.4648 Y1.5670 
G01 Z-0.0070 F4.00  
G01 X-0.4659 Y1.5643 F10.00 
G01 X-0.4653 Y1.5656 
G01 X-0.4648 Y1.5670 
G00 Z0.1000 
G00 X-0.4636 Y1.5708 
G01 Z-0.0070 F4.00  
G01 X-0.4635 Y1.5712 F10.00 
G01 X-0.4631 Y1.5723 
G01 X-0.4628 Y1.5727 
G01 X-0.4626 Y1.5732 
G01 X-0.4619 Y1.5742 
G01 X-0.4612 Y1.5752 
G01 X-0.4609 Y1.5755 
G01 X-0.4605 Y1.5759 
G01 X-0.4596 Y1.5767 
G01 X-0.4587 Y1.5775 
G01 X-0.4582 Y1.5777 
G01 X-0.4578 Y1.5780 
G01 X-0.4567 Y1.5785 
G01 X-0.4556 Y1.5790 
G01 X-0.4551 Y1.5791 
G01 X-0.4547 Y1.5793 
G01 X-0.4535 Y1.5795 
G01 X-0.4523 Y1.5797 
G01 X-0.4518 Y1.5797 
G01 X-0.4513 Y1.5798 
G01 X-0.4501 Y1.5796 
G01 X-0.4489 Y1.5795 
G01 X-0.4484 Y1.5794 
G01 X-0.4479 Y1.5793 
G01 X-0.4468 Y1.5789 
G01 X-0.4456 Y1.5785 
G01 X-0.4452 Y1.5782 
G01 X-0.4447 Y1.5780 
G01 X-0.4438 Y1.5773 
G01 X-0.4428 Y1.5766 
G01 X-0.4424 Y1.5762 
G01 X-0.4420 Y1.5759 
G01 X-0.4413 Y1.5750 
G01 X-0.4405 Y1.5741 
G01 X-0.4402 Y1.5736 
G01 X-0.4399 Y1.5732 
G01 X-0.4395 Y1.5721 
G01 X-0.4389 Y1.5710 
G01 X-0.4388 Y1.5705 
G01 X-0.4335 Y1.5577 
G01 X-0.4224 Y1.5465 
G01 X-0.4079 Y1.5405 
G01 X-0.3921 Y1.5405 
G01 X-0.3776 Y1.5465 
G01 X-0.3665 Y1.5577 
G01 X-0.3605 Y1.5722 
G01 X-0.3605 Y1.6528 
G01 X-0.3665 Y1.6673 
G01 X-0.3776 Y1.6785 
G01 X-0.3921 Y1.6845 
G01 X-0.4079 Y1.6845 
G01 X-0.4224 Y1.6785 
G01 X-0.4335 Y1.6673 
G01 X-0.4388 Y1.6545 
G01 X-0.4389 Y1.6540 
G01 X-0.4395 Y1.6529 
G01 X-0.4399 Y1.6518 
G01 X-0.4402 Y1.6514 
G01 X-0.4405 Y1.6509 
G01 X-0.4413 Y1.6500 
G01 X-0.4420 Y1.6491 
G01 X-0.4424 Y1.6488 
G01 X-0.4428 Y1.6484 
G01 X-0.4438 Y1.6477 
G01 X-0.4447 Y1.6470 
G01 X-0.4452 Y1.6468 
G01 X-0.4456 Y1.6465 
G01 X-0.4468 Y1.6461 
G01 X-0.4479 Y1.6457 
G01 X-0.4484 Y1.6456 
G01 X-0.4489 Y1.6455 
G01 X-0.4501 Y1.6454 
G01 X-0.4513 Y1.6452 
G01 X-0.4518 Y1.6453 
G01 X-0.4523 Y1.6453 
G01 X-0.4535 Y1.6455 
G01 X-0.4547 Y1.6457 
G01 X-0.4551 Y1.6459 
G01 X-0.4556 Y1.6460 
G01 X-0.4567 Y1.6465 
G01 X-0.4578 Y1.6470 
G01 X-0.4582 Y1.6473 
G01 X-0.4587 Y1.6475 
G01 X-0.4596 Y1.6483 
G01 X-0.4605 Y1.6491 
G01 X-0.4609 Y1.6495 
G01 X-0.4612 Y1.6498 
G01 X-0.4619 Y1.6508 
G01 X-0.4626 Y1.6518 
G01 X-0.4628 Y1.6523 
G01 X-0.4631 Y1.6527 
G01 X-0.4635 Y1.6538 
G01 X-0.4636 Y1.6542 
G01 X-0.4625 Y1.6487 
G01 X-0.4625 Y1.5763 
G01 X-0.4636 Y1.5708 
G00 Z0.1000 
G00 X-0.4676 Y1.5610 
G01 Z-0.0070 F4.00  
G01 X-0.4692 Y1.5586 F10.00 
G01 X-0.4679 Y1.5604 
G01 X-0.4676 Y1.5610 
G00 Z0.1000 
G00 X-0.4714 Y1.5556 
G01 Z-0.0070 F4.00  
G01 X-0.4756 Y1.5514 F10.00 
G01 X-0.4714 Y1.5556 
G00 Z0.1000 
G00 X-0.4786 Y1.5493 
G01 Z-0.0070 F4.00  
G01 X-0.4810 Y1.5476 F10.00 
G01 X-0.4804 Y1.5480 
G01 X-0.4786 Y1.5493 
G00 Z0.1000 
G00 X-0.4239 Y1.5509 
G01 Z-0.0070 F4.00  
G01 X-0.4291 Y1.5561 F10.00 
G01 X-0.4332 Y1.5623 
G01 X-0.4360 Y1.5691 
G01 X-0.4375 Y1.5763 
G01 X-0.4375 Y1.6487 
G01 X-0.4360 Y1.6559 
G01 X-0.4332 Y1.6627 
G01 X-0.4291 Y1.6689 
G01 X-0.4239 Y1.6741 
G01 X-0.4178 Y1.6782 
G01 X-0.4109 Y1.6810 
G01 X-0.4037 Y1.6825 
G01 X-0.3963 Y1.6825 
G01 X-0.3891 Y1.6810 
G01 X-0.3822 Y1.6782 
G01 X-0.3761 Y1.6741 
G01 X-0.3709 Y1.6689 
G01 X-0.3668 Y1.6627 
G01 X-0.3640 Y1.6559 
G01 X-0.3625 Y1.6487 
G01 X-0.3625 Y1.5763 
G01 X-0.3640 Y1.5691 
G01 X-0.3668 Y1.5623 
G01 X-0.3709 Y1.5561 
G01 X-0.3761 Y1.5509 
G01 X-0.3822 Y1.5468 
G01 X-0.3891 Y1.5440 
G01 X-0.3963 Y1.5425 
G01 X-0.4037 Y1.5425 
G01 X-0.4109 Y1.5440 
G01 X-0.4178 Y1.5468 
G01 X-0.4239 Y1.5509 
G00 Z0.1000 
G00 X-0.4648 Y1.6580 
G01 Z-0.0070 F4.00  
G01 X-0.4653 Y1.6594 F10.00 
G01 X-0.4659 Y1.6607 
G01 X-0.4648 Y1.6580 
G00 Z0.1000 
G00 X-0.4676 Y1.6640 
G01 Z-0.0070 F4.00  
G01 X-0.4679 Y1.6646 F10.00 
G01 X-0.4692 Y1.6664 
G01 X-0.4676 Y1.6640 
G00 Z0.1000 
G00 X-0.4714 Y1.6694 
G01 Z-0.0070 F4.00  
G01 X-0.4714 Y1.6694 F10.00 
G01 X-0.4756 Y1.6736 
G01 X-0.4714 Y1.6694 
G00 Z0.1000 
G00 X-0.4786 Y1.6757 
G01 Z-0.0070 F4.00  
G01 X-0.4804 Y1.6770 F10.00 
G01 X-0.4810 Y1.6774 
G01 X-0.4786 Y1.6757 
G00 Z0.1000 
G00 X-0.5190 Y1.6774 
G01 Z-0.0070 F4.00  
G01 X-0.5196 Y1.6770 F10.00 
G01 X-0.5214 Y1.6757 
G01 X-0.5190 Y1.6774 
G00 Z0.1000 
G00 X-0.5244 Y1.6736 
G01 Z-0.0070 F4.00  
G01 X-0.5244 Y1.6736 F10.00 
G01 X-0.5286 Y1.6694 
G01 X-0.5244 Y1.6736 
G00 Z0.1000 
G00 X-0.5308 Y1.6664 
G01 Z-0.0070 F4.00  
G01 X-0.5321 Y1.6646 F10.00 
G01 X-0.5324 Y1.6640 
G01 X-0.5308 Y1.6664 
G00 Z0.1000 
G00 X-0.5341 Y1.6607 
G01 Z-0.0070 F4.00  
G01 X-0.5347 Y1.6594 F10.00 
G01 X-0.5352 Y1.6580 
G01 X-0.5341 Y1.6607 
G00 Z0.1000 
G00 X-0.5639 Y1.7740 
G01 Z-0.0070 F4.00  
G01 X-0.5511 Y1.7868 F10.00 
G01 X-0.5442 Y1.8035 
G01 X-0.5442 Y1.8215 
G01 X-0.5511 Y1.8382 
G01 X-0.5639 Y1.8510 
G01 X-0.5805 Y1.8579 
G01 X-0.6754 Y1.8579 
G01 X-0.6920 Y1.8510 
G01 X-0.7048 Y1.8382 
G01 X-0.7117 Y1.8215 
G01 X-0.7117 Y1.8035 
G01 X-0.7048 Y1.7868 
G01 X-0.6920 Y1.7740 
G01 X-0.6754 Y1.7671 
G01 X-0.5805 Y1.7671 
G01 X-0.5639 Y1.7740 
G00 Z0.1000 
G00 X-0.5668 Y1.7754 
G01 Z-0.0070 F4.00  
G01 X-0.5729 Y1.7723 F10.00 
G01 X-0.5794 Y1.7702 
G01 X-0.5862 Y1.7691 
G01 X-0.6698 Y1.7691 
G01 X-0.6765 Y1.7702 
G01 X-0.6830 Y1.7723 
G01 X-0.6891 Y1.7754 
G01 X-0.6946 Y1.7794 
G01 X-0.6994 Y1.7842 
G01 X-0.7034 Y1.7898 
G01 X-0.7065 Y1.7958 
G01 X-0.7087 Y1.8023 
G01 X-0.7097 Y1.8091 
G01 X-0.7097 Y1.8159 
G01 X-0.7087 Y1.8227 
G01 X-0.7065 Y1.8292 
G01 X-0.7034 Y1.8352 
G01 X-0.6994 Y1.8408 
G01 X-0.6946 Y1.8456 
G01 X-0.6891 Y1.8496 
G01 X-0.6830 Y1.8527 
G01 X-0.6765 Y1.8548 
G01 X-0.6698 Y1.8559 
G01 X-0.5862 Y1.8559 
G01 X-0.5794 Y1.8548 
G01 X-0.5729 Y1.8527 
G01 X-0.5668 Y1.8496 
G01 X-0.5613 Y1.8456 
G01 X-0.5565 Y1.8408 
G01 X-0.5525 Y1.8352 
G01 X-0.5494 Y1.8292 
G01 X-0.5472 Y1.8227 
G01 X-0.5462 Y1.8159 
G01 X-0.5462 Y1.8091 
G01 X-0.5472 Y1.8023 
G01 X-0.5494 Y1.7958 
G01 X-0.5525 Y1.7898 
G01 X-0.5565 Y1.7842 
G01 X-0.5613 Y1.7794 
G01 X-0.5668 Y1.7754 
G00 Z0.1000 
G00 X-0.4435 Y1.7842 
G01 Z-0.0070 F4.00  
G01 X-0.4387 Y1.7794 F10.00 
G01 X-0.4332 Y1.7754 
G01 X-0.4271 Y1.7723 
G01 X-0.4206 Y1.7702 
G01 X-0.4138 Y1.7691 
G01 X-0.3898 Y1.7691 
G01 X-0.4138 Y1.7691 
G01 X-0.4206 Y1.7702 
G01 X-0.4271 Y1.7723 
G01 X-0.4332 Y1.7754 
G01 X-0.4387 Y1.7794 
G01 X-0.4435 Y1.7842 
G01 X-0.4475 Y1.7898 
G01 X-0.4501 Y1.7947 
G01 X-0.4475 Y1.7898 
G01 X-0.4435 Y1.7842 
G00 Z0.1000 
G00 X-0.4501 Y1.8303 
G01 Z-0.0070 F4.00  
G01 X-0.4475 Y1.8352 F10.00 
G01 X-0.4435 Y1.8408 
G01 X-0.4387 Y1.8456 
G01 X-0.4332 Y1.8496 
G01 X-0.4271 Y1.8527 
G01 X-0.4206 Y1.8548 
G01 X-0.4138 Y1.8559 
G01 X-0.4206 Y1.8548 
G01 X-0.4271 Y1.8527 
G01 X-0.4332 Y1.8496 
G01 X-0.4387 Y1.8456 
G01 X-0.4435 Y1.8408 
G01 X-0.4475 Y1.8352 
G01 X-0.4501 Y1.8303 
G00 Z0.1000 
G00 X-0.4138 Y1.8559 
G01 Z-0.0070 F4.00  
G01 X-0.3898 Y1.8559 F10.00 
G01 X-0.4138 Y1.8559 
G00 Z0.1000 
G00 X-0.3543 Y1.8559 
G01 Z-0.0070 F4.00  
G01 X-0.3302 Y1.8559 F10.00 
G01 X-0.3235 Y1.8548 
G01 X-0.3170 Y1.8527 
G01 X-0.3109 Y1.8496 
G01 X-0.3054 Y1.8456 
G01 X-0.3006 Y1.8408 
G01 X-0.2966 Y1.8352 
G01 X-0.2940 Y1.8303 
G01 X-0.2966 Y1.8352 
G01 X-0.3006 Y1.8408 
G01 X-0.3054 Y1.8456 
G01 X-0.3109 Y1.8496 
G01 X-0.3170 Y1.8527 
G01 X-0.3235 Y1.8548 
G01 X-0.3302 Y1.8559 
G01 X-0.3543 Y1.8559 
G00 Z0.1000 
G00 X-0.3543 Y1.7691 
G01 Z-0.0070 F4.00  
G01 X-0.3543 Y1.7691 F10.00 
G01 X-0.3302 Y1.7691 
G01 X-0.3235 Y1.7702 
G01 X-0.3170 Y1.7723 
G01 X-0.3109 Y1.7754 
G01 X-0.3054 Y1.7794 
G01 X-0.3006 Y1.7842 
G01 X-0.2966 Y1.7898 
G01 X-0.2940 Y1.7947 
G01 X-0.2966 Y1.7898 
G01 X-0.3006 Y1.7842 
G01 X-0.3054 Y1.7794 
G01 X-0.3109 Y1.7754 
G01 X-0.3170 Y1.7723 
G01 X-0.3235 Y1.7702 
G01 X-0.3302 Y1.7691 
G01 X-0.3543 Y1.7691 
G00 Z0.1000 
G00 X-0.7843 Y1.2005 
G01 Z-0.0070 F4.00  
G01 X-0.7870 Y1.2005 F10.00 
G01 X-0.7843 Y1.2005 
G01 X-0.7620 Y1.1782 
G01 X-0.7620 Y1.1755 
G01 X-0.7620 Y1.1782 
G01 X-0.7843 Y1.2005 
G00 Z0.1000 
G00 X-0.8130 Y1.2005 
G01 Z-0.0070 F4.00  
G01 X-0.8157 Y1.2005 F10.00 
G01 X-0.8380 Y1.1782 
G01 X-0.8380 Y1.1755 
G01 X-0.8380 Y1.1782 
G01 X-0.8157 Y1.2005 
G01 X-0.8130 Y1.2005 
G00 Z0.1000 
G00 X-0.8130 Y1.1245 
G01 Z-0.0070 F4.00  
G01 X-0.8157 Y1.1245 F10.00 
G01 X-0.8380 Y1.1468 
G01 X-0.8157 Y1.1245 
G01 X-0.8130 Y1.1245 
G00 Z0.1000 
G00 X-0.7870 Y1.1245 
G01 Z-0.0070 F4.00  
G01 X-0.7870 Y1.1245 F10.00 
G01 X-0.7843 Y1.1245 
G01 X-0.7620 Y1.1468 
G01 X-0.7620 Y1.1495 
G01 X-0.7620 Y1.1468 
G01 X-0.7843 Y1.1245 
G01 X-0.7870 Y1.1245 
G00 Z0.1000 
G00 X-0.8380 Y1.1468 
G01 Z-0.0070 F4.00  
G01 X-0.8380 Y1.1495 F10.00 
G01 X-0.8380 Y1.1468 
G00 Z0.1000 
G00 X-0.9059 Y1.1551 
G01 Z-0.0070 F4.00  
G01 X-0.9108 Y1.1503 F10.00 
G01 X-0.9165 Y1.1464 
G01 X-0.9229 Y1.1438 
G01 X-0.9296 Y1.1425 
G01 X-0.9365 Y1.1425 
G01 X-0.9433 Y1.1438 
G01 X-0.9496 Y1.1464 
G01 X-0.9554 Y1.1503 
G01 X-0.9603 Y1.1551 
G01 X-0.9641 Y1.1609 
G01 X-0.9667 Y1.1673 
G01 X-0.9681 Y1.1740 
G01 X-0.9681 Y1.1809 
G01 X-0.9667 Y1.1877 
G01 X-0.9641 Y1.1940 
G01 X-0.9603 Y1.1998 
G01 X-0.9554 Y1.2046 
G01 X-0.9496 Y1.2085 
G01 X-0.9433 Y1.2111 
G01 X-0.9365 Y1.2125 
G01 X-0.9296 Y1.2125 
G01 X-0.9229 Y1.2111 
G01 X-0.9165 Y1.2085 
G01 X-0.9108 Y1.2046 
G01 X-0.9059 Y1.1998 
G01 X-0.9021 Y1.1940 
G01 X-0.8994 Y1.1877 
G01 X-0.8981 Y1.1809 
G01 X-0.8981 Y1.1740 
G01 X-0.8994 Y1.1673 
G01 X-0.9021 Y1.1609 
G01 X-0.9059 Y1.1551 
G00 Z0.1000 
G00 X-0.9108 Y1.1259 
G01 Z-0.0070 F4.00  
G01 X-0.9059 Y1.1210 F10.00 
G01 X-0.9021 Y1.1153 
G01 X-0.8994 Y1.1089 
G01 X-0.8981 Y1.1022 
G01 X-0.8981 Y1.0953 
G01 X-0.8994 Y1.0885 
G01 X-0.9021 Y1.0821 
G01 X-0.9059 Y1.0764 
G01 X-0.9108 Y1.0715 
G01 X-0.9165 Y1.0677 
G01 X-0.9229 Y1.0651 
G01 X-0.9296 Y1.0637 
G01 X-0.9365 Y1.0637 
G01 X-0.9433 Y1.0651 
G01 X-0.9496 Y1.0677 
G01 X-0.9554 Y1.0715 
G01 X-0.9603 Y1.0764 
G01 X-0.9641 Y1.0821 
G01 X-0.9667 Y1.0885 
G01 X-0.9681 Y1.0953 
G01 X-0.9681 Y1.1022 
G01 X-0.9667 Y1.1089 
G01 X-0.9641 Y1.1153 
G01 X-0.9603 Y1.1210 
G01 X-0.9554 Y1.1259 
G01 X-0.9496 Y1.1297 
G01 X-0.9433 Y1.1324 
G01 X-0.9365 Y1.1337 
G01 X-0.9296 Y1.1337 
G01 X-0.9229 Y1.1324 
G01 X-0.9165 Y1.1297 
G01 X-0.9108 Y1.1259 
G00 Z0.1000 
G00 X-0.9108 Y1.0472 
G01 Z-0.0070 F4.00  
G01 X-0.9059 Y1.0423 F10.00 
G01 X-0.9021 Y1.0366 
G01 X-0.8994 Y1.0302 
G01 X-0.8981 Y1.0234 
G01 X-0.8981 Y1.0165 
G01 X-0.8994 Y1.0098 
G01 X-0.9021 Y1.0034 
G01 X-0.9059 Y0.9977 
G01 X-0.9108 Y0.9928 
G01 X-0.9165 Y0.9890 
G01 X-0.9229 Y0.9863 
G01 X-0.9296 Y0.9850 
G01 X-0.9365 Y0.9850 
G01 X-0.9433 Y0.9863 
G01 X-0.9496 Y0.9890 
G01 X-0.9554 Y0.9928 
G01 X-0.9603 Y0.9977 
G01 X-0.9641 Y1.0034 
G01 X-0.9667 Y1.0098 
G01 X-0.9681 Y1.0165 
G01 X-0.9681 Y1.0234 
G01 X-0.9667 Y1.0302 
G01 X-0.9641 Y1.0366 
G01 X-0.9603 Y1.0423 
G01 X-0.9554 Y1.0472 
G01 X-0.9496 Y1.0510 
G01 X-0.9433 Y1.0536 
G01 X-0.9365 Y1.0550 
G01 X-0.9296 Y1.0550 
G01 X-0.9229 Y1.0536 
G01 X-0.9165 Y1.0510 
G01 X-0.9108 Y1.0472 
G00 Z0.1000 
G00 X-0.9108 Y0.9684 
G01 Z-0.0070 F4.00  
G01 X-0.9059 Y0.9636 F10.00 
G01 X-0.9021 Y0.9578 
G01 X-0.8994 Y0.9514 
G01 X-0.8981 Y0.9447 
G01 X-0.8981 Y0.9378 
G01 X-0.8994 Y0.9310 
G01 X-0.9021 Y0.9247 
G01 X-0.9059 Y0.9189 
G01 X-0.9108 Y0.9141 
G01 X-0.9165 Y0.9102 
G01 X-0.9229 Y0.9076 
G01 X-0.9296 Y0.9062 
G01 X-0.9365 Y0.9062 
G01 X-0.9433 Y0.9076 
G01 X-0.9496 Y0.9102 
G01 X-0.9554 Y0.9141 
G01 X-0.9603 Y0.9189 
G01 X-0.9641 Y0.9247 
G01 X-0.9667 Y0.9310 
G01 X-0.9681 Y0.9378 
G01 X-0.9681 Y0.9447 
G01 X-0.9667 Y0.9514 
G01 X-0.9641 Y0.9578 
G01 X-0.9603 Y0.9636 
G01 X-0.9554 Y0.9684 
G01 X-0.9496 Y0.9723 
G01 X-0.9433 Y0.9749 
G01 X-0.9365 Y0.9762 
G01 X-0.9296 Y0.9762 
G01 X-0.9229 Y0.9749 
G01 X-0.9165 Y0.9723 
G01 X-0.9108 Y0.9684 
G00 Z0.1000 
G00 X-0.9108 Y0.8897 
G01 Z-0.0070 F4.00  
G01 X-0.9059 Y0.8848 F10.00 
G01 X-0.9021 Y0.8791 
G01 X-0.8994 Y0.8727 
G01 X-0.8981 Y0.8659 
G01 X-0.8981 Y0.8591 
G01 X-0.8994 Y0.8523 
G01 X-0.9021 Y0.8459 
G01 X-0.9059 Y0.8402 
G01 X-0.9108 Y0.8353 
G01 X-0.9165 Y0.8315 
G01 X-0.9229 Y0.8288 
G01 X-0.9296 Y0.8275 
G01 X-0.9365 Y0.8275 
G01 X-0.9433 Y0.8288 
G01 X-0.9496 Y0.8315 
G01 X-0.9554 Y0.8353 
G01 X-0.9603 Y0.8402 
G01 X-0.9641 Y0.8459 
G01 X-0.9667 Y0.8523 
G01 X-0.9681 Y0.8591 
G01 X-0.9681 Y0.8659 
G01 X-0.9667 Y0.8727 
G01 X-0.9641 Y0.8791 
G01 X-0.9603 Y0.8848 
G01 X-0.9554 Y0.8897 
G01 X-0.9496 Y0.8935 
G01 X-0.9433 Y0.8962 
G01 X-0.9365 Y0.8975 
G01 X-0.9296 Y0.8975 
G01 X-0.9229 Y0.8962 
G01 X-0.9165 Y0.8935 
G01 X-0.9108 Y0.8897 
G00 Z0.1000 
G00 X-0.9108 Y0.8109 
G01 Z-0.0070 F4.00  
G01 X-0.9059 Y0.8061 F10.00 
G01 X-0.9021 Y0.8003 
G01 X-0.8994 Y0.7940 
G01 X-0.8981 Y0.7872 
G01 X-0.8981 Y0.7803 
G01 X-0.8994 Y0.7736 
G01 X-0.9021 Y0.7672 
G01 X-0.9059 Y0.7614 
G01 X-0.9108 Y0.7566 
G01 X-0.9165 Y0.7527 
G01 X-0.9229 Y0.7501 
G01 X-0.9296 Y0.7488 
G01 X-0.9365 Y0.7488 
G01 X-0.9433 Y0.7501 
G01 X-0.9496 Y0.7527 
G01 X-0.9554 Y0.7566 
G01 X-0.9603 Y0.7614 
G01 X-0.9641 Y0.7672 
G01 X-0.9667 Y0.7736 
G01 X-0.9681 Y0.7803 
G01 X-0.9681 Y0.7872 
G01 X-0.9667 Y0.7940 
G01 X-0.9641 Y0.8003 
G01 X-0.9603 Y0.8061 
G01 X-0.9554 Y0.8109 
G01 X-0.9496 Y0.8148 
G01 X-0.9433 Y0.8174 
G01 X-0.9365 Y0.8188 
G01 X-0.9296 Y0.8188 
G01 X-0.9229 Y0.8174 
G01 X-0.9165 Y0.8148 
G01 X-0.9108 Y0.8109 
G00 Z0.1000 
G00 X-0.7840 Y0.4045 
G01 Z-0.0070 F4.00  
G01 X-0.7722 Y0.4045 F10.00 
G01 X-0.7330 Y0.3653 
G01 X-0.7330 Y0.3535 
G01 X-0.7330 Y0.3653 
G01 X-0.7722 Y0.4045 
G01 X-0.7840 Y0.4045 
G00 Z0.1000 
G00 Z0.5000 
M05
M02
